; generated by Slic3r 1.0.0RC2 on 2014-10-03 at 11:31:48

; layer_height = 0.3
; perimeters = 3
; top_solid_layers = 3
; bottom_solid_layers = 3
; fill_density = 0.4
; perimeter_speed = 90
; infill_speed = 90
; travel_speed = 150
; nozzle_diameter = 0.35
; filament_diameter = 1.75
; extrusion_multiplier = 1
; perimeters extrusion width = 0.35mm
; infill extrusion width = 0.37mm
; solid infill extrusion width = 0.37mm
; top infill extrusion width = 0.37mm
; first layer extrusion width = 0.70mm

G21 ; set units to millimeters
M107
M190 S55 ; wait for bed temperature to be reached
M104 S230 ; set temperature
G28 ; home all axes
G1 Z5 F5000 ; lift nozzle
M109 S230 ; wait for temperature to be reached
G90 ; use absolute coordinates
G92 E0
M82 ; use absolute distances for extrusion
G1 F1800.000 E-1.00000
G92 E0
G1 Z0.350 F9000.000
G1 X76.925 Y81.180 F9000.000
G1 E1.00000 F1800.000
G1 X94.675 Y68.000 E3.01029 F1620.000
G1 X95.925 Y67.120 E3.14930
G1 X96.425 Y66.800 E3.20328
G1 X96.945 Y66.530 E3.25655
G1 X98.165 Y65.960 E3.37900
G1 X98.705 Y65.730 E3.43237
G1 X99.275 Y65.550 E3.48672
G1 X100.565 Y65.210 E3.60803
G1 X101.675 Y65.020 E3.71043
G1 X103.035 Y64.900 E3.83457
G1 X103.615 Y64.880 E3.88734
G1 X119.125 Y64.880 E5.29766
G1 X120.415 Y65.000 E5.41546
G1 X121.665 Y65.380 E5.53426
G1 X122.805 Y65.990 E5.65183
G1 X123.805 Y66.820 E5.77000
G1 X124.635 Y67.820 E5.88817
G1 X125.245 Y68.960 E6.00574
G1 X125.625 Y70.210 E6.12453
G1 X125.745 Y71.500 E6.24234
G1 X125.745 Y87.000 E7.65175
G1 X125.595 Y88.430 E7.78249
G1 X125.135 Y89.790 E7.91304
G1 X105.885 Y131.290 E12.07282
G1 X105.105 Y132.570 E12.20911
G1 X104.055 Y133.640 E12.34543
G1 X102.785 Y134.450 E12.48240
G1 X101.365 Y134.950 E12.61929
G1 X99.875 Y135.120 E12.75565
G1 X80.875 Y135.120 E14.48332
G1 X79.585 Y135.000 E14.60112
G1 X78.335 Y134.620 E14.71992
G1 X77.195 Y134.010 E14.83749
G1 X76.195 Y133.180 E14.95566
G1 X75.365 Y132.180 E15.07383
G1 X74.755 Y131.040 E15.19139
G1 X74.375 Y129.790 E15.31019
G1 X74.255 Y128.500 E15.42800
G1 X74.255 Y86.500 E19.24704
G1 X74.425 Y84.970 E19.38702
G1 X74.955 Y83.520 E19.52740
G1 X75.805 Y82.240 E19.66711
G1 X76.857 Y81.244 E19.79881
G1 F1800.000 E18.79881
G92 E0
G1 X84.403 Y88.933 F9000.000
G1 E1.00000 F1800.000
G1 X84.611 Y88.761 E1.02456 F1134.000
G1 X84.839 Y88.616 E1.04911
G1 X85.197 Y88.460 E1.08456
G1 X85.472 Y88.388 E1.11046
G1 X85.875 Y88.350 E1.14726
G1 X86.144 Y88.367 E1.17181
G1 X86.410 Y88.417 E1.19636
G1 X86.667 Y88.501 E1.22092
G1 X86.911 Y88.616 E1.24547
G1 X87.246 Y88.843 E1.28227
G1 X87.442 Y89.028 E1.30682
G1 X87.615 Y89.236 E1.33138
G1 X87.759 Y89.464 E1.35593
G1 X87.874 Y89.709 E1.38049
G1 X87.987 Y90.097 E1.41728
G1 X88.021 Y90.365 E1.44184
G1 X88.008 Y90.770 E1.47864
G1 X87.927 Y91.142 E1.51327
G1 X88.043 Y91.500 E1.54754
G1 X87.718 Y92.500 E1.64315
G1 X88.043 Y93.500 E1.73876
G1 X87.718 Y94.500 E1.83437
G1 X88.043 Y95.500 E1.92998
G1 X87.718 Y96.500 E2.02559
G1 X88.043 Y97.500 E2.12120
G1 X87.718 Y98.500 E2.21680
G1 X88.043 Y99.500 E2.31241
G1 X87.718 Y100.500 E2.40802
G1 X88.043 Y101.500 E2.50363
G1 X87.718 Y102.500 E2.59924
G1 X88.043 Y103.500 E2.69485
G1 X87.718 Y104.500 E2.79046
G1 X88.043 Y105.500 E2.88607
G1 X87.718 Y106.500 E2.98168
G1 X88.043 Y107.500 E3.07729
G1 X87.718 Y108.500 E3.17290
G1 X88.043 Y109.500 E3.26851
G1 X87.881 Y110.000 E3.31631
G1 X88.043 Y110.500 E3.36411
G1 X87.881 Y111.000 E3.41192
G1 X88.043 Y111.500 E3.45972
G1 X87.718 Y112.500 E3.55533
G1 X88.043 Y113.500 E3.65094
G1 X87.718 Y114.500 E3.74655
G1 X88.043 Y115.500 E3.84216
G1 X87.718 Y116.500 E3.93777
G1 X88.043 Y117.500 E4.03338
G1 X87.718 Y118.500 E4.12899
G1 X88.043 Y119.500 E4.22460
G1 X87.718 Y120.500 E4.32021
G1 X88.043 Y121.500 E4.41581
G1 X87.718 Y122.500 E4.51142
G1 X88.043 Y123.500 E4.60703
G1 X87.629 Y124.774 E4.72887
G1 X86.545 Y125.562 E4.85071
G1 X85.205 Y125.562 E4.97254
G1 X84.121 Y124.774 E5.09438
G1 X83.707 Y123.500 E5.21621
G1 X84.032 Y122.500 E5.31182
G1 X83.707 Y121.500 E5.40743
G1 X84.032 Y120.500 E5.50304
G1 X83.707 Y119.500 E5.59865
G1 X84.032 Y118.500 E5.69426
G1 X83.707 Y117.500 E5.78987
G1 X84.032 Y116.500 E5.88547
G1 X83.707 Y115.500 E5.98108
G1 X84.032 Y114.500 E6.07669
G1 X83.707 Y113.500 E6.17230
G1 X84.032 Y112.500 E6.26791
G1 X83.707 Y111.500 E6.36352
G1 X83.869 Y111.000 E6.41132
G1 X83.707 Y110.500 E6.45913
G1 X83.869 Y110.000 E6.50693
G1 X83.707 Y109.500 E6.55474
G1 X84.032 Y108.500 E6.65035
G1 X83.707 Y107.500 E6.74596
G1 X84.032 Y106.500 E6.84156
G1 X83.707 Y105.500 E6.93717
G1 X84.032 Y104.500 E7.03278
G1 X83.707 Y103.500 E7.12839
G1 X84.032 Y102.500 E7.22400
G1 X83.707 Y101.500 E7.31961
G1 X84.032 Y100.500 E7.41521
G1 X83.707 Y99.500 E7.51082
G1 X84.032 Y98.500 E7.60643
G1 X83.707 Y97.500 E7.70204
G1 X84.032 Y96.500 E7.79765
G1 X83.707 Y95.500 E7.89326
G1 X84.032 Y94.500 E7.98887
G1 X83.707 Y93.500 E8.08447
G1 X84.032 Y92.500 E8.18008
G1 X83.707 Y91.500 E8.27569
G1 X83.823 Y91.142 E8.30996
G1 X83.742 Y90.769 E8.34460
G1 X83.725 Y90.500 E8.36915
G1 X83.763 Y90.097 E8.40596
G1 X83.876 Y89.709 E8.44274
G1 X84.060 Y89.348 E8.47957
G1 X84.337 Y88.999 E8.52008
G1 X84.341 Y88.670 F9000.000
G1 X88.353 Y88.100 F9000.000
G1 X97.475 Y88.100 E9.34949 F1620.000
G1 X97.475 Y81.009 E9.99429
G1 X97.698 Y80.949 E10.01532
G1 X98.972 Y83.155 E10.24691
G1 X99.275 Y83.409 E10.28294
G1 X99.275 Y86.900 E10.60038
G1 X98.275 Y86.900 E10.69130
G1 X98.275 Y126.900 E14.32849
G1 X87.110 Y126.900 E15.34376
G1 X87.056 Y126.735 E15.35953
G1 X88.692 Y125.547 E15.54340
G1 X89.583 Y122.804 E15.80559
G1 X88.933 Y122.804 E15.86468
G1 X89.357 Y121.500 E15.98939
G1 X89.032 Y120.500 E16.08500
G1 X89.357 Y119.500 E16.18061
G1 X89.032 Y118.500 E16.27622
G1 X89.357 Y117.500 E16.37183
G1 X89.032 Y116.500 E16.46744
G1 X89.357 Y115.500 E16.56305
G1 X89.032 Y114.500 E16.65866
G1 X89.357 Y113.500 E16.75427
G1 X89.032 Y112.500 E16.84988
G1 X89.357 Y111.500 E16.94549
G1 X89.195 Y111.000 E16.99329
G1 X89.357 Y110.500 E17.04109
G1 X89.195 Y110.000 E17.08890
G1 X89.357 Y109.500 E17.13670
G1 X89.032 Y108.500 E17.23231
G1 X89.357 Y107.500 E17.32792
G1 X89.032 Y106.500 E17.42353
G1 X89.357 Y105.500 E17.51914
G1 X89.032 Y104.500 E17.61475
G1 X89.357 Y103.500 E17.71036
G1 X89.032 Y102.500 E17.80597
G1 X89.357 Y101.500 E17.90158
G1 X89.032 Y100.500 E17.99719
G1 X89.357 Y99.500 E18.09280
G1 X89.032 Y98.500 E18.18841
G1 X89.357 Y97.500 E18.28402
G1 X89.032 Y96.500 E18.37963
G1 X89.357 Y95.500 E18.47524
G1 X89.032 Y94.500 E18.57085
G1 X89.357 Y93.500 E18.66645
G1 X89.032 Y92.500 E18.76206
G1 X89.357 Y91.500 E18.85767
G1 X89.223 Y91.088 E18.89708
G1 X89.269 Y90.713 E18.93139
G1 X89.269 Y90.287 E18.97019
G1 X89.249 Y90.074 E18.98963
G1 X89.169 Y89.654 E19.02846
G1 X89.037 Y89.248 E19.06727
G1 X88.855 Y88.862 E19.10612
G1 X88.406 Y88.177 E19.18055
G1 X83.397 Y88.100 F9000.000
G1 X82.656 Y89.189 E19.30031 F540.000
G1 X82.475 Y89.133 E19.31758
G1 X82.475 Y88.100 E19.41151
G1 X83.303 Y88.100 E19.48685
G1 F1800.000 E18.48685
G92 E0
G1 X105.144 Y85.063 F9000.000
G1 E1.00000 F1800.000
G1 X106.555 Y84.550 E1.13649 F540.000
G1 X117.525 Y84.550 E2.13404
G1 X117.525 Y85.400 E2.21137
G1 X114.260 Y85.400 E2.50832
G1 X114.260 Y87.400 E2.69018
G1 X111.490 Y87.400 E2.94197
G1 X111.490 Y85.400 E3.12383
G1 X105.204 Y85.400 E3.69550
G1 X105.160 Y85.155 E3.71809
G1 F1800.000 E2.71809
G92 E0
G1 X106.555 Y73.950 F9000.000
G1 E1.00000 F1800.000
G1 X105.144 Y73.437 E1.13649 F540.000
G1 X105.204 Y73.100 E1.16761
G1 X117.525 Y73.100 E2.28802
G1 X117.525 Y73.950 E2.36535
G1 X106.648 Y73.950 E3.35437
G1 F1800.000 E2.35437
G92 E0
G1 X82.837 Y124.867 F9000.000
G1 E1.00000 F1800.000
G1 X83.058 Y125.547 E1.06503 F540.000
G1 X84.694 Y126.735 E1.24889
G1 X84.640 Y126.900 E1.26466
G1 X82.475 Y126.900 E1.46157
G1 X82.475 Y124.924 E1.64127
G1 X82.744 Y124.881 E1.66609
G1 X83.480 Y124.822 F9000.000
G1 X83.590 Y125.161 E1.69843 F1620.000
G1 X85.002 Y126.187 E1.85719
G1 X86.748 Y126.187 E2.01595
G1 X88.161 Y125.161 E2.17471
G1 X88.723 Y123.429 E2.34023
G1 X88.677 Y123.429 E2.34441
G1 X88.375 Y122.500 E2.43326
G1 X88.700 Y121.500 E2.52887
G1 X88.375 Y120.500 E2.62448
G1 X88.700 Y119.500 E2.72009
G1 X88.375 Y118.500 E2.81570
G1 X88.700 Y117.500 E2.91131
G1 X88.375 Y116.500 E3.00692
G1 X88.700 Y115.500 E3.10252
G1 X88.375 Y114.500 E3.19813
G1 X88.700 Y113.500 E3.29374
G1 X88.375 Y112.500 E3.38935
G1 X88.700 Y111.500 E3.48496
G1 X88.538 Y111.000 E3.53277
G1 X88.700 Y110.500 E3.58057
G1 X88.538 Y110.000 E3.62838
G1 X88.700 Y109.500 E3.67618
G1 X88.375 Y108.500 E3.77179
G1 X88.700 Y107.500 E3.86740
G1 X88.375 Y106.500 E3.96301
G1 X88.700 Y105.500 E4.05862
G1 X88.375 Y104.500 E4.15423
G1 X88.700 Y103.500 E4.24984
G1 X88.375 Y102.500 E4.34545
G1 X88.700 Y101.500 E4.44105
G1 X88.375 Y100.500 E4.53666
G1 X88.700 Y99.500 E4.63227
G1 X88.375 Y98.500 E4.72788
G1 X88.700 Y97.500 E4.82349
G1 X88.375 Y96.500 E4.91910
G1 X88.700 Y95.500 E5.01471
G1 X88.375 Y94.500 E5.11032
G1 X88.700 Y93.500 E5.20593
G1 X88.375 Y92.500 E5.30154
G1 X88.700 Y91.500 E5.39715
G1 X88.578 Y91.124 E5.43308
G1 X88.645 Y90.674 E5.47445
G1 X88.645 Y90.326 E5.50612
G1 X88.601 Y89.980 E5.53784
G1 X88.456 Y89.478 E5.58531
G1 X88.307 Y89.163 E5.61702
G1 X88.120 Y88.869 E5.64870
G1 X87.898 Y88.600 E5.68042
G1 X87.506 Y88.255 E5.72789
G1 X87.212 Y88.068 E5.75958
G1 X86.549 Y87.730 E5.82721
G1 X86.611 Y87.475 E5.85110
G1 X96.850 Y87.475 E6.78215
G1 X96.850 Y79.293 E7.52616
G1 X96.956 Y78.074 E7.63737
G1 X97.262 Y76.934 E7.74470
G1 X97.761 Y75.864 E7.85203
G1 X98.438 Y74.897 E7.95935
G1 X99.272 Y74.063 E8.06668
G1 X100.239 Y73.386 E8.17401
G1 X101.309 Y72.887 E8.28133
G1 X102.449 Y72.581 E8.38866
G1 X103.668 Y72.475 E8.49987
G1 X118.150 Y72.475 E9.81677
G1 X118.150 Y74.575 E10.00774
G1 X106.445 Y74.575 E11.07212
G1 X104.570 Y73.893 E11.25355
G1 X102.680 Y73.893 E11.42533
G1 X100.905 Y74.539 E11.59713
G1 X99.458 Y75.753 E11.76891
G1 X98.513 Y77.389 E11.94071
G1 X98.185 Y79.250 E12.11250
G1 X98.513 Y81.111 E12.28429
G1 X99.458 Y82.747 E12.45608
G1 X100.905 Y83.961 E12.62787
G1 X102.680 Y84.607 E12.79966
G1 X104.570 Y84.607 E12.97145
G1 X106.444 Y83.925 E13.15287
G1 X118.150 Y83.925 E14.21726
G1 X118.150 Y86.025 E14.40823
G1 X114.884 Y86.025 E14.70518
G1 X114.884 Y88.025 E14.88704
G1 X110.866 Y88.025 E15.25247
G1 X110.866 Y86.025 E15.43432
G1 X103.668 Y86.025 E16.08884
G1 X102.449 Y85.919 E16.20005
G1 X101.309 Y85.613 E16.30739
G1 X99.900 Y84.956 E16.44872
G1 X99.900 Y87.525 E16.68230
G1 X98.900 Y87.525 E16.77323
G1 X98.900 Y127.525 E20.41041
G1 X81.850 Y127.525 E21.96078
G1 X81.850 Y87.475 E25.60253
G1 X85.139 Y87.475 E25.90164
G1 X85.201 Y87.731 E25.92555
G1 X84.538 Y88.068 E25.99316
G1 X84.244 Y88.255 E26.02486
G1 X83.975 Y88.477 E26.05656
G1 X83.737 Y88.731 E26.08824
G1 X83.443 Y89.163 E26.13576
G1 X83.294 Y89.478 E26.16745
G1 X83.149 Y89.980 E26.21492
G1 X83.105 Y90.326 E26.24663
G1 X83.105 Y90.674 E26.27832
G1 X83.172 Y91.124 E26.31967
G1 X83.050 Y91.500 E26.35561
G1 X83.375 Y92.500 E26.45122
G1 X83.050 Y93.500 E26.54683
G1 X83.375 Y94.500 E26.64244
G1 X83.050 Y95.500 E26.73805
G1 X83.375 Y96.500 E26.83366
G1 X83.050 Y97.500 E26.92926
G1 X83.375 Y98.500 E27.02487
G1 X83.050 Y99.500 E27.12048
G1 X83.375 Y100.500 E27.21609
G1 X83.050 Y101.500 E27.31170
G1 X83.375 Y102.500 E27.40731
G1 X83.050 Y103.500 E27.50292
G1 X83.375 Y104.500 E27.59852
G1 X83.050 Y105.500 E27.69413
G1 X83.375 Y106.500 E27.78974
G1 X83.050 Y107.500 E27.88535
G1 X83.375 Y108.500 E27.98096
G1 X83.050 Y109.500 E28.07657
G1 X83.212 Y110.000 E28.12437
G1 X83.050 Y110.500 E28.17218
G1 X83.212 Y111.000 E28.21998
G1 X83.050 Y111.500 E28.26778
G1 X83.375 Y112.500 E28.36340
G1 X83.050 Y113.500 E28.45901
G1 X83.375 Y114.500 E28.55461
G1 X83.050 Y115.500 E28.65022
G1 X83.375 Y116.500 E28.74583
G1 X83.050 Y117.500 E28.84144
G1 X83.375 Y118.500 E28.93705
G1 X83.050 Y119.500 E29.03266
G1 X83.375 Y120.500 E29.12826
G1 X83.050 Y121.500 E29.22387
G1 X83.375 Y122.500 E29.31948
G1 X83.050 Y123.500 E29.41509
G1 X83.451 Y124.733 E29.53299
G1 X81.225 Y128.150 F9000.000
G1 X81.225 Y86.850 E33.28838 F1134.000
G1 X96.225 Y86.850 E34.65232
G1 X96.225 Y78.850 E35.37976
G1 X96.261 Y78.850 E35.38306
G1 X96.339 Y77.965 E35.46382
G1 X96.673 Y76.720 E35.58109
G1 X97.218 Y75.551 E35.69836
G1 X97.957 Y74.494 E35.81563
G1 X98.869 Y73.582 E35.93290
G1 X99.926 Y72.843 E36.05017
G1 X101.095 Y72.298 E36.16744
G1 X102.340 Y71.964 E36.28471
G1 X103.640 Y71.850 E36.40337
G1 X118.775 Y71.850 E37.77957
G1 X118.775 Y75.200 E38.08418
G1 X106.161 Y75.200 E39.23119
G1 X106.028 Y75.088 E39.24698
G1 X104.459 Y74.518 E39.39873
G1 X102.791 Y74.518 E39.55048
G1 X101.222 Y75.088 E39.70224
G1 X99.944 Y76.161 E39.85399
G1 X99.109 Y77.606 E40.00574
G1 X98.820 Y79.250 E40.15749
G1 X99.109 Y80.894 E40.30925
G1 X99.944 Y82.339 E40.46100
G1 X101.222 Y83.412 E40.61275
G1 X102.791 Y83.982 E40.76450
G1 X104.459 Y83.982 E40.91625
G1 X106.028 Y83.412 E41.06800
G1 X106.161 Y83.300 E41.08379
G1 X118.775 Y83.300 E42.23081
G1 X118.775 Y86.650 E42.53542
G1 X115.509 Y86.650 E42.83237
G1 X115.509 Y88.650 E43.01423
G1 X110.241 Y88.650 E43.49330
G1 X110.241 Y86.650 E43.67516
G1 X103.640 Y86.650 E44.27533
G1 X102.340 Y86.536 E44.39399
G1 X101.094 Y86.202 E44.51127
G1 X100.525 Y85.937 E44.56840
G1 X100.525 Y88.150 E44.76962
G1 X99.525 Y88.150 E44.86055
G1 X99.525 Y128.150 E48.49774
G1 X81.319 Y128.150 E50.15322
G1 X81.537 Y127.609 F9000.000
G1 X89.337 Y126.166 F9000.000
G1 X89.281 Y126.110 E50.16056 F1080.000
G1 X89.500 Y125.437 E50.22548
G1 X90.229 Y126.166 E50.32013
G1 X91.121 Y126.166 E50.40193
G1 X89.470 Y124.516 E50.61607
G1 X89.689 Y123.843 E50.68098
G1 X92.012 Y126.166 E50.98244
G1 X92.904 Y126.166 E51.06424
G1 X89.908 Y123.170 E51.45300
G1 X90.126 Y122.497 E51.51792
G1 X93.796 Y126.166 E51.99400
G1 X94.687 Y126.166 E52.07580
G1 X89.694 Y121.173 E52.72363
G1 X89.636 Y122.006 E52.80026
G1 X90.012 Y122.383 E52.84910
G1 X89.583 Y120.170 F9000.000
G1 X95.579 Y126.166 E53.62709 F1080.000
G1 X96.470 Y126.166 E53.70889
G1 X89.798 Y119.494 E54.57455
G1 X89.529 Y118.334 E54.68385
G1 X97.362 Y126.166 E55.70010
G1 X97.541 Y125.454 E55.76750
G1 X89.748 Y117.661 E56.77862
G1 X89.476 Y116.497 E56.88823
G1 X97.541 Y124.562 E57.93462
G1 X97.541 Y123.671 E58.01642
G1 X89.695 Y115.824 E59.03444
G1 X89.578 Y114.816 E59.12760
G1 X97.541 Y122.779 E60.16081
G1 X97.541 Y121.887 E60.24261
G1 X89.642 Y113.988 E61.26752
G1 X89.682 Y113.137 E61.34570
G1 X97.541 Y120.996 E62.36537
G1 X97.541 Y120.104 E62.44717
G1 X89.589 Y112.151 E63.47898
G1 X89.787 Y111.458 E63.54517
G1 X97.541 Y119.212 E64.55130
G1 X97.541 Y118.321 E64.63310
G1 X89.781 Y110.560 E65.63999
G1 X89.754 Y109.642 E65.72427
G1 X97.541 Y117.429 E66.73460
G1 X97.541 Y116.537 E66.81640
G1 X89.482 Y108.479 E67.86200
G1 X89.701 Y107.806 E67.92692
G1 X97.541 Y115.646 E68.94415
G1 X97.541 Y114.754 E69.02595
G1 X89.566 Y106.779 E70.06070
G1 X89.648 Y105.969 E70.13537
G1 X97.541 Y113.863 E71.15949
G1 X97.541 Y112.971 E71.24130
G1 X89.670 Y105.100 E72.26251
G1 X89.595 Y104.133 E72.35152
G1 X97.541 Y112.079 E73.38254
G1 X97.541 Y111.188 E73.46434
G1 X89.775 Y103.421 E74.47202
G1 X89.542 Y102.296 E74.57740
G1 X97.541 Y110.296 E75.61531
G1 X97.541 Y109.404 E75.69712
G1 X89.760 Y101.623 E76.70666
G1 X89.488 Y100.460 E76.81628
G1 X97.541 Y108.513 E77.86109
G1 X97.541 Y107.621 E77.94289
G1 X89.707 Y99.787 E78.95934
G1 X89.554 Y98.742 E79.05620
G1 X97.541 Y106.729 E80.09249
G1 X97.541 Y105.838 E80.17429
G1 X89.654 Y97.950 E81.19763
G1 X89.658 Y97.063 E81.27902
G1 X97.541 Y104.946 E82.30178
G1 X97.541 Y104.055 E82.38358
G1 X89.601 Y96.114 E83.41381
G1 X89.763 Y95.384 E83.48239
G1 X97.541 Y103.163 E84.49161
G1 X97.541 Y102.271 E84.57341
G1 X89.548 Y94.278 E85.61054
G1 X89.766 Y93.605 E85.67546
G1 X97.541 Y101.380 E86.68422
G1 X97.541 Y100.488 E86.76602
G1 X89.494 Y92.441 E87.81005
G1 X89.713 Y91.768 E87.87497
G1 X97.541 Y99.596 E88.89063
G1 X97.541 Y98.705 E88.97243
G1 X89.678 Y90.841 E89.99266
G1 X90.232 Y90.504 E90.05219
G1 X97.541 Y97.813 E91.00051
G1 X97.541 Y96.921 E91.08232
G1 X89.788 Y89.168 E92.08826
G1 X90.345 Y88.834 E92.14788
G1 X97.541 Y96.030 E93.08153
G1 X97.541 Y95.138 E93.16333
