; generated by Slic3r 1.0.0RC2 on 2014-10-03 at 06:10:55

; layer_height = 0.3
; perimeters = 3
; top_solid_layers = 3
; bottom_solid_layers = 3
; fill_density = 0.4
; perimeter_speed = 90
; infill_speed = 90
; travel_speed = 150
; nozzle_diameter = 0.35
; filament_diameter = 1.75
; extrusion_multiplier = 1
; perimeters extrusion width = 0.35mm
; infill extrusion width = 0.37mm
; solid infill extrusion width = 0.37mm
; top infill extrusion width = 0.37mm
; first layer extrusion width = 0.70mm

G21 ; set units to millimeters
M107
M190 S55 ; wait for bed temperature to be reached
M104 S230 ; set temperature
G28 ; home all axes
G1 Z5 F5000 ; lift nozzle
M109 S230 ; wait for temperature to be reached
G90 ; use absolute coordinates
G92 E0
M82 ; use absolute distances for extrusion
G1 F1800.000 E-1.00000
G92 E0
G1 Z0.350 F9000.000
G1 X84.750 Y66.470 F9000.000
G1 E1.00000 F1800.000
G1 X85.490 Y65.600 E1.10385 F1620.000
G1 X86.450 Y64.640 E1.22731
G1 X86.880 Y64.240 E1.28071
G1 X87.340 Y63.880 E1.33382
G1 X88.460 Y63.100 E1.45793
G1 X88.950 Y62.790 E1.51065
G1 X89.460 Y62.530 E1.56270
G1 X90.690 Y61.960 E1.68597
G1 X91.720 Y61.580 E1.78580
G1 X93.030 Y61.220 E1.90933
G1 X93.640 Y61.090 E1.96605
G1 X94.260 Y61.010 E2.02289
G1 X95.620 Y60.900 E2.14696
G1 X96.150 Y60.880 E2.19518
G1 X111.650 Y60.880 E3.60459
G1 X112.940 Y61.000 E3.72240
G1 X114.190 Y61.380 E3.84120
G1 X115.330 Y61.990 E3.95876
G1 X116.330 Y62.820 E4.07693
G1 X117.160 Y63.820 E4.19510
G1 X117.770 Y64.960 E4.31267
G1 X118.150 Y66.210 E4.43147
G1 X118.270 Y67.500 E4.54927
G1 X118.270 Y132.500 E10.45970
G1 X118.150 Y133.790 E10.57750
G1 X117.770 Y135.040 E10.69630
G1 X117.160 Y136.180 E10.81387
G1 X116.330 Y137.180 E10.93204
G1 X115.330 Y138.010 E11.05021
G1 X114.190 Y138.620 E11.16777
G1 X112.940 Y139.000 E11.28657
G1 X111.650 Y139.120 E11.40438
G1 X96.140 Y139.120 E12.81469
G1 X95.550 Y139.100 E12.86837
G1 X94.200 Y138.980 E12.99161
G1 X93.610 Y138.900 E13.04575
G1 X93.030 Y138.770 E13.09980
G1 X91.720 Y138.410 E13.22333
G1 X90.710 Y138.040 E13.32114
G1 X89.470 Y137.470 E13.44524
G1 X88.940 Y137.190 E13.49974
G1 X88.430 Y136.870 E13.55449
G1 X87.320 Y136.090 E13.67785
G1 X86.450 Y135.350 E13.78170
G1 X85.490 Y134.390 E13.90515
G1 X85.090 Y133.960 E13.95855
G1 X84.730 Y133.500 E14.01167
G1 X83.950 Y132.380 E14.13577
G1 X83.640 Y131.890 E14.18850
G1 X83.380 Y131.380 E14.24055
G1 X82.810 Y130.150 E14.36382
G1 X82.430 Y129.120 E14.46365
G1 X81.960 Y127.350 E14.63017
G1 X81.850 Y126.800 E14.68117
G1 X81.760 Y126.150 E14.74084
G1 X81.730 Y125.500 E14.80000
G1 X81.730 Y74.500 E19.43741
G1 X81.760 Y73.860 E19.49567
G1 X81.850 Y73.220 E19.55444
G1 X82.070 Y72.180 E19.65110
G1 X82.430 Y70.870 E19.77463
G1 X82.800 Y69.860 E19.87244
G1 X83.370 Y68.620 E19.99654
G1 X83.650 Y68.090 E20.05104
G1 X83.970 Y67.580 E20.10579
G1 X84.696 Y66.547 E20.22062
G1 F1800.000 E19.22062
G92 E0
G1 X99.086 Y130.050 F9000.000
G1 E1.00000 F1800.000
G1 X110.050 Y130.050 E1.99695 F540.000
G1 X110.050 Y130.900 E2.07428
G1 X97.735 Y130.900 E3.19409
G1 X97.676 Y130.563 E3.22521
G1 X98.998 Y130.082 E3.35318
G1 F1800.000 E2.35318
G92 E0
G1 X99.086 Y119.350 F9000.000
G1 E1.00000 F1800.000
G1 X97.676 Y118.837 E1.13649 F540.000
G1 X97.735 Y118.500 E1.16761
G1 X103.965 Y118.500 E1.73414
G1 X103.965 Y116.600 E1.90691
G1 X106.735 Y116.600 E2.15869
G1 X106.735 Y118.500 E2.33146
G1 X110.050 Y118.500 E2.63296
G1 X110.050 Y119.350 E2.71029
G1 X99.180 Y119.350 E3.69872
G1 F1800.000 E2.69872
G92 E0
G1 X103.965 Y83.400 F9000.000
G1 E1.00000 F1800.000
G1 X103.965 Y81.500 E1.17277 F540.000
G1 X97.735 Y81.500 E1.73930
G1 X97.676 Y81.163 E1.77042
G1 X99.086 Y80.650 E1.90691
G1 X110.050 Y80.650 E2.90386
G1 X110.050 Y81.500 E2.98119
G1 X106.735 Y81.500 E3.28269
G1 X106.735 Y83.400 E3.45545
G1 X104.059 Y83.400 E3.69872
G1 F1800.000 E2.69872
G92 E0
G1 X99.086 Y69.950 F9000.000
G1 E1.00000 F1800.000
G1 X97.676 Y69.437 E1.13649 F540.000
G1 X97.735 Y69.100 E1.16761
G1 X110.050 Y69.100 E2.28742
G1 X110.050 Y69.950 E2.36475
G1 X99.180 Y69.950 E3.35317
G1 F1800.000 E2.35317
G92 E0
G1 X90.173 Y77.011 F9000.000
G1 E1.00000 F1800.000
G1 X91.458 Y79.237 E1.23372 F1620.000
G1 X91.750 Y79.482 E1.26836
G1 X91.750 Y120.518 E4.99983
G1 X91.458 Y120.763 E5.03447
G1 X90.173 Y122.989 E5.26819
G1 X89.950 Y122.929 E5.28922
G1 X89.950 Y77.071 E9.45915
G1 X90.083 Y77.035 E9.47166
G1 X90.957 Y76.981 F9000.000
G1 X90.991 Y77.178 E9.48977 F1620.000
G1 X91.944 Y78.829 E9.66314
G1 X93.405 Y80.054 E9.83651
G1 X95.197 Y80.706 E10.00988
G1 X97.103 Y80.706 E10.18325
G1 X98.976 Y80.025 E10.36447
G1 X110.675 Y80.025 E11.42825
G1 X110.675 Y82.125 E11.61923
G1 X107.359 Y82.125 E11.92072
G1 X107.359 Y84.025 E12.09349
G1 X103.341 Y84.025 E12.45892
G1 X103.341 Y82.125 E12.63168
G1 X96.193 Y82.125 E13.28165
G1 X94.965 Y82.018 E13.39366
G1 X93.817 Y81.710 E13.50176
G1 X92.375 Y81.037 E13.64645
G1 X92.375 Y118.963 E17.09500
G1 X93.817 Y118.290 E17.23968
G1 X94.965 Y117.982 E17.34779
G1 X96.193 Y117.875 E17.45980
G1 X103.341 Y117.875 E18.10977
G1 X103.341 Y115.975 E18.28253
G1 X107.359 Y115.975 E18.64796
G1 X107.359 Y117.875 E18.82073
G1 X110.675 Y117.875 E19.12222
G1 X110.675 Y119.975 E19.31320
G1 X98.976 Y119.975 E20.37699
G1 X97.103 Y119.294 E20.55820
G1 X95.197 Y119.294 E20.73157
G1 X93.405 Y119.946 E20.90494
G1 X91.944 Y121.171 E21.07831
G1 X90.991 Y122.822 E21.25168
G1 X90.660 Y124.700 E21.42505
G1 X90.991 Y126.578 E21.59842
G1 X91.944 Y128.229 E21.77178
G1 X93.405 Y129.454 E21.94515
G1 X95.197 Y130.106 E22.11852
G1 X97.103 Y130.106 E22.29189
G1 X98.976 Y129.425 E22.47311
G1 X110.675 Y129.425 E23.53690
G1 X110.675 Y131.525 E23.72787
G1 X96.193 Y131.525 E25.04476
G1 X94.965 Y131.418 E25.15676
G1 X93.817 Y131.110 E25.26488
G1 X92.739 Y130.608 E25.37300
G1 X91.765 Y129.925 E25.48112
G1 X90.925 Y129.085 E25.58925
G1 X90.242 Y128.111 E25.69736
G1 X89.740 Y127.033 E25.80548
G1 X89.432 Y125.885 E25.91360
G1 X89.325 Y124.657 E26.02561
G1 X89.325 Y75.343 E30.50978
G1 X89.432 Y74.115 E30.62179
G1 X89.740 Y72.967 E30.72991
G1 X90.242 Y71.889 E30.83803
G1 X90.925 Y70.915 E30.94615
G1 X91.765 Y70.075 E31.05427
G1 X92.739 Y69.393 E31.16239
G1 X93.817 Y68.890 E31.27051
G1 X94.965 Y68.582 E31.37863
G1 X96.193 Y68.475 E31.49063
G1 X110.675 Y68.475 E32.80752
G1 X110.675 Y70.575 E32.99849
G1 X98.976 Y70.575 E34.06228
G1 X97.103 Y69.893 E34.24350
G1 X95.197 Y69.893 E34.41687
G1 X93.405 Y70.546 E34.59024
G1 X91.944 Y71.771 E34.76361
G1 X90.991 Y73.422 E34.93698
G1 X90.660 Y75.300 E35.11035
G1 X90.940 Y76.889 E35.25708
G1 X91.572 Y76.873 F9000.000
G1 X91.587 Y76.961 E35.26517 F1134.000
G1 X92.431 Y78.421 E35.41850
G1 X93.722 Y79.505 E35.57184
G1 X95.307 Y80.082 E35.72517
G1 X96.993 Y80.082 E35.87850
G1 X98.578 Y79.505 E36.03183
G1 X98.703 Y79.400 E36.04666
G1 X111.300 Y79.400 E37.19213
G1 X111.300 Y82.750 E37.49675
G1 X107.984 Y82.750 E37.79824
G1 X107.984 Y84.650 E37.97101
G1 X102.716 Y84.650 E38.45008
G1 X102.716 Y82.750 E38.62284
G1 X96.165 Y82.750 E39.21847
G1 X94.857 Y82.635 E39.33793
G1 X93.602 Y82.299 E39.45599
G1 X93.000 Y82.018 E39.51644
G1 X93.000 Y117.982 E42.78656
G1 X93.602 Y117.701 E42.84701
G1 X94.857 Y117.364 E42.96507
G1 X96.165 Y117.250 E43.08452
G1 X102.716 Y117.250 E43.68015
G1 X102.716 Y115.350 E43.85292
G1 X107.984 Y115.350 E44.33199
G1 X107.984 Y117.250 E44.50475
G1 X111.300 Y117.250 E44.80625
G1 X111.300 Y120.600 E45.11087
G1 X98.703 Y120.600 E46.25633
G1 X98.578 Y120.495 E46.27117
G1 X96.993 Y119.918 E46.42450
G1 X95.307 Y119.918 E46.57783
G1 X93.722 Y120.495 E46.73116
G1 X92.431 Y121.579 E46.88449
G1 X91.587 Y123.039 E47.03782
G1 X91.295 Y124.700 E47.19115
G1 X91.587 Y126.361 E47.34449
G1 X92.431 Y127.821 E47.49781
G1 X93.722 Y128.905 E47.65115
G1 X95.307 Y129.482 E47.80448
G1 X96.993 Y129.482 E47.95781
G1 X98.578 Y128.905 E48.11114
G1 X98.703 Y128.800 E48.12598
G1 X111.300 Y128.800 E49.27144
G1 X111.300 Y132.150 E49.57606
G1 X96.165 Y132.150 E50.95225
G1 X94.857 Y132.036 E51.07171
G1 X93.602 Y131.699 E51.18977
G1 X92.426 Y131.151 E51.30783
G1 X91.362 Y130.406 E51.42589
G1 X90.444 Y129.488 E51.54396
G1 X89.699 Y128.424 E51.66202
G1 X89.151 Y127.248 E51.78007
G1 X88.814 Y125.993 E51.89814
G1 X88.741 Y125.150 E51.97513
G1 X88.700 Y125.150 E51.97883
G1 X88.700 Y74.850 E56.55259
G1 X88.741 Y74.850 E56.55629
G1 X88.814 Y74.007 E56.63328
G1 X89.151 Y72.752 E56.75134
G1 X89.699 Y71.576 E56.86940
G1 X90.444 Y70.512 E56.98746
G1 X91.362 Y69.594 E57.10552
G1 X92.426 Y68.849 E57.22358
G1 X93.602 Y68.301 E57.34165
G1 X94.857 Y67.964 E57.45971
G1 X96.165 Y67.850 E57.57916
G1 X111.300 Y67.850 E58.95536
G1 X111.300 Y71.200 E59.25997
G1 X98.703 Y71.200 E60.40544
G1 X98.578 Y71.095 E60.42028
G1 X96.993 Y70.518 E60.57361
G1 X95.307 Y70.518 E60.72694
G1 X93.722 Y71.095 E60.88027
G1 X92.431 Y72.179 E61.03360
G1 X91.587 Y73.639 E61.18693
G1 X91.295 Y75.300 E61.34027
G1 X91.556 Y76.781 E61.47697
G1 X91.504 Y76.930 F9000.000
G1 F1800.000 E60.47697
G92 E0
G1 X106.003 Y117.086 F9000.000
G1 E1.00000 F1800.000
G1 X105.935 Y117.019 E1.00933 F1080.000
G1 X104.983 Y117.019 E1.10264
G1 X106.003 Y118.039 E1.24394
G1 X105.630 Y118.618 E1.31146
G1 X104.385 Y117.373 E1.48401
G1 X104.385 Y118.326 E1.57732
G1 X104.452 Y118.393 E1.58665
G1 X97.086 Y118.568 F9000.000
G1 X97.020 Y118.502 E1.59623 F360.000
G1 X96.185 Y118.666 E1.68380 F360.000
G1 X96.037 Y118.518 E1.70539 F360.000
G1 X95.150 Y118.631 E1.79734 F360.000
G1 X95.185 Y118.666 E1.80248 F360.000
G1 X95.014 Y118.655 F9000.000
G1 X94.977 Y118.618 E1.80936 F360.000
G1 X94.111 Y119.032 E1.93570 F360.000
G1 X93.976 Y118.897 E1.96083 F360.000
G1 X93.138 Y119.338 E2.08556 F360.000
G1 X93.173 Y119.373 E2.09213 F360.000
G1 X93.050 Y119.379 F9000.000
G1 X93.019 Y119.348 E2.09745 F360.000
G1 X92.371 Y119.872 E2.19786 F360.000
G1 X92.442 Y119.943 E2.20993 F360.000
G1 X91.119 Y119.632 F9000.000
G1 X90.581 Y119.094 E2.27963 F360.000
G1 X91.119 Y118.742 E2.33846 F360.000
G1 X90.581 Y118.204 E2.40816 F360.000
G1 X91.119 Y117.853 E2.46699 F360.000
G1 X90.581 Y117.314 E2.53669 F360.000
G1 X91.119 Y116.963 E2.59552 F360.000
G1 X90.581 Y116.425 E2.66522 F360.000
G1 X91.119 Y116.074 E2.72405 F360.000
G1 X90.581 Y115.535 E2.79375 F360.000
G1 X91.119 Y115.184 E2.85258 F360.000
G1 X90.581 Y114.646 E2.92228 F360.000
G1 X91.119 Y114.295 E2.98111 F360.000
G1 X90.581 Y113.756 E3.05081 F360.000
G1 X91.119 Y113.405 E3.10964 F360.000
G1 X90.581 Y112.867 E3.17934 F360.000
G1 X91.119 Y112.516 E3.23817 F360.000
G1 X90.581 Y111.977 E3.30787 F360.000
G1 X91.119 Y111.626 E3.36670 F360.000
G1 X90.581 Y111.088 E3.43640 F360.000
G1 X91.119 Y110.737 E3.49523 F360.000
G1 X90.581 Y110.198 E3.56493 F360.000
G1 X91.119 Y109.847 E3.62376 F360.000
G1 X90.581 Y109.309 E3.69346 F360.000
G1 X91.119 Y108.958 E3.75229 F360.000
G1 X90.581 Y108.419 E3.82199 F360.000
G1 X91.119 Y108.068 E3.88082 F360.000
G1 X90.581 Y107.530 E3.95052 F360.000
G1 X91.119 Y107.178 E4.00935 F360.000
G1 X90.581 Y106.640 E4.07905 F360.000
G1 X91.119 Y106.289 E4.13788 F360.000
G1 X90.581 Y105.751 E4.20758 F360.000
G1 X91.119 Y105.399 E4.26641 F360.000
G1 X90.581 Y104.861 E4.33611 F360.000
G1 X91.119 Y104.510 E4.39494 F360.000
G1 X90.581 Y103.971 E4.46464 F360.000
G1 X91.119 Y103.620 E4.52347 F360.000
G1 X90.581 Y103.082 E4.59317 F360.000
G1 X91.119 Y102.731 E4.65200 F360.000
G1 X90.581 Y102.192 E4.72170 F360.000
G1 X91.119 Y101.841 E4.78053 F360.000
G1 X90.581 Y101.303 E4.85023 F360.000
G1 X91.119 Y100.952 E4.90906 F360.000
G1 X90.581 Y100.413 E4.97876 F360.000
G1 X91.119 Y100.062 E5.03759 F360.000
G1 X90.581 Y99.524 E5.10729 F360.000
G1 X91.119 Y99.173 E5.16612 F360.000
G1 X90.581 Y98.634 E5.23582 F360.000
G1 X91.119 Y98.283 E5.29466 F360.000
G1 X90.581 Y97.745 E5.36435 F360.000
G1 X91.119 Y97.394 E5.42319 F360.000
G1 X90.581 Y96.855 E5.49288 F360.000
G1 X91.119 Y96.504 E5.55172 F360.000
G1 X90.581 Y95.966 E5.62141 F360.000
G1 X91.119 Y95.615 E5.68025 F360.000
G1 X90.581 Y95.076 E5.74994 F360.000
G1 X91.119 Y94.725 E5.80878 F360.000
G1 X90.581 Y94.187 E5.87847 F360.000
G1 X91.119 Y93.835 E5.93731 F360.000
G1 X90.581 Y93.297 E6.00700 F360.000
G1 X91.119 Y92.946 E6.06584 F360.000
G1 X90.581 Y92.407 E6.13553 F360.000
G1 X91.119 Y92.056 E6.19437 F360.000
G1 X90.581 Y91.518 E6.26406 F360.000
G1 X91.119 Y91.167 E6.32290 F360.000
G1 X90.581 Y90.628 E6.39259 F360.000
G1 X91.119 Y90.277 E6.45143 F360.000
G1 X90.581 Y89.739 E6.52112 F360.000
G1 X91.119 Y89.388 E6.57996 F360.000
G1 X90.581 Y88.849 E6.64965 F360.000
G1 X91.119 Y88.498 E6.70849 F360.000
G1 X90.581 Y87.960 E6.77819 F360.000
G1 X91.119 Y87.609 E6.83702 F360.000
G1 X90.581 Y87.070 E6.90672 F360.000
G1 X91.119 Y86.719 E6.96555 F360.000
G1 X90.581 Y86.181 E7.03525 F360.000
G1 X91.119 Y85.830 E7.09408 F360.000
G1 X90.581 Y85.291 E7.16378 F360.000
G1 X91.119 Y84.940 E7.22261 F360.000
G1 X90.581 Y84.402 E7.29231 F360.000
G1 X91.119 Y84.051 E7.35114 F360.000
G1 X90.581 Y83.512 E7.42084 F360.000
G1 X91.119 Y83.161 E7.47967 F360.000
G1 X90.581 Y82.623 E7.54937 F360.000
G1 X91.119 Y82.272 E7.60820 F360.000
G1 X90.581 Y81.733 E7.67790 F360.000
G1 X91.119 Y81.382 E7.73673 F360.000
G1 X90.581 Y80.844 E7.80643 F360.000
G1 X91.119 Y80.492 E7.86526 F360.000
G1 X90.581 Y79.954 E7.93496 F360.000
G1 X90.698 Y79.182 E8.00645 F360.000
G1 X90.612 Y79.096 E8.01756 F360.000
G1 X92.381 Y80.293 F9000.000
G1 X92.477 Y80.388 E8.02989 F360.000
G1 X93.138 Y80.662 F9000.000
G1 X93.225 Y80.749 E8.04504 F360.000
G1 X94.943 Y81.274 F9000.000
G1 X95.014 Y81.345 E8.05730 F360.000
G1 X95.150 Y81.369 F9000.000
G1 X96.061 Y81.336 E8.14592 F360.000
G1 X96.222 Y81.496 E8.16798 F360.000
G1 X97.006 Y81.336 E8.24577 F360.000
G1 X97.080 Y81.410 E8.25601 F360.000
G1 X95.187 Y81.406 F9000.000
G1 X95.150 Y81.369 E8.26106 F360.000
G1 X90.018 Y76.405 F9000.000
G1 X89.950 Y76.337 E8.27147 F360.000
G1 X90.038 Y75.369 E8.37702 F360.000
G1 X89.992 Y75.323 E8.38409 F360.000
G1 X90.000 Y75.230 F9000.000
G1 X89.962 Y75.193 E8.39045 F360.000
G1 X90.209 Y74.281 E8.50291 F360.000
G1 X90.069 Y74.142 E8.52648 F360.000
G1 X90.382 Y73.297 E8.63378 F360.000
G1 X90.347 Y73.262 E8.63973 F360.000
G1 X90.394 Y73.131 F9000.000
G1 X90.370 Y73.107 E8.64294 F360.000
G1 X90.751 Y72.578 E8.70402 F360.000
G1 X90.660 Y72.486 E8.71613 F360.000
G1 X91.084 Y72.000 E8.77655 F360.000
G1 X90.996 Y71.912 E8.78826 F360.000
G1 X91.417 Y71.423 E8.84870 F360.000
G1 X91.394 Y71.400 E8.85182 F360.000
G1 X91.483 Y71.293 F9000.000
G1 X91.953 Y70.824 E8.91595 F360.000
G1 X92.017 Y70.889 E8.92478 F360.000
G1 X92.528 Y70.460 E8.98914 F360.000
G1 X92.439 Y70.371 E9.00131 F360.000
G1 X92.991 Y69.985 E9.06643 F360.000
G1 X93.015 Y70.008 E9.06968 F360.000
G1 X93.135 Y69.939 F9000.000
G1 X93.975 Y69.497 E9.19473 F360.000
G1 X94.110 Y69.632 E9.21990 F360.000
G1 X94.977 Y69.218 E9.34655 F360.000
G1 X95.014 Y69.255 E9.35345 F360.000
G1 X95.151 Y69.231 F9000.000
G1 X96.037 Y69.118 E9.44536 F360.000
G1 X96.185 Y69.266 E9.46693 F360.000
G1 X97.021 Y69.102 E9.55447 F360.000
G1 X97.086 Y69.168 E9.56405 F360.000
G1 X95.186 Y69.266 F9000.000
G1 X95.151 Y69.231 E9.56919 F360.000
G1 X93.170 Y69.974 F9000.000
G1 X93.135 Y69.939 E9.57577 F360.000
G1 X91.507 Y71.317 F9000.000
G1 X91.483 Y71.293 E9.57899 F360.000
G1 X91.119 Y119.632 F9000.000
G1 X90.581 Y119.983 E9.63783 F360.000
G1 X90.961 Y120.363 E9.68702 F360.000
G1 X90.581 Y120.873 E9.74520 F360.000
G1 X90.612 Y120.904 E9.74927 F360.000
G1 X90.109 Y123.615 F9000.000
G1 X90.204 Y123.710 E9.76557 F360.000
G1 X89.946 Y124.631 E9.88167 F360.000
G1 X89.992 Y124.677 E9.88954 F360.000
G1 X90.000 Y124.770 F9000.000
G1 X90.070 Y124.840 E9.90622 F360.000
G1 X90.266 Y126.657 E10.21111 F360.000
G1 X90.347 Y126.738 E10.23024 F360.000
G1 X91.267 Y128.473 F9000.000
G1 X91.394 Y128.600 E10.24660 F360.000
G1 X91.483 Y128.707 F9000.000
G1 X92.320 Y129.543 E10.35420 F360.000
G1 X93.135 Y130.061 F9000.000
G1 X93.222 Y130.148 E10.36939 F360.000
G1 X94.943 Y130.674 F9000.000
G1 X95.014 Y130.745 E10.38169 F360.000
G1 X95.150 Y130.769 F9000.000
G1 X96.061 Y130.736 E10.47030 F360.000
G1 X96.222 Y130.896 E10.49237 F360.000
G1 X97.006 Y130.736 E10.57015 F360.000
G1 X97.080 Y130.810 E10.58040 F360.000
