; generated by Slic3r 1.0.0RC2 on 2014-10-03 at 07:23:44

; layer_height = 0.3
; perimeters = 3
; top_solid_layers = 3
; bottom_solid_layers = 3
; fill_density = 0.4
; perimeter_speed = 90
; infill_speed = 90
; travel_speed = 150
; nozzle_diameter = 0.35
; filament_diameter = 1.75
; extrusion_multiplier = 1
; perimeters extrusion width = 0.35mm
; infill extrusion width = 0.37mm
; solid infill extrusion width = 0.37mm
; top infill extrusion width = 0.37mm
; first layer extrusion width = 0.70mm

G21 ; set units to millimeters
M107
M190 S55 ; wait for bed temperature to be reached
M104 S230 ; set temperature
G28 ; home all axes
G1 Z5 F5000 ; lift nozzle
M109 S230 ; wait for temperature to be reached
G90 ; use absolute coordinates
G92 E0
M82 ; use absolute distances for extrusion
G1 F1800.000 E-1.00000
G92 E0
G1 Z0.350 F9000.000
G1 X73.900 Y79.600 F9000.000
G1 E1.00000 F1800.000
G1 X75.010 Y78.780 E1.12549 F1620.000
G1 X98.900 Y64.820 E3.64148
G1 X99.470 Y64.520 E3.70005
G1 X100.710 Y63.950 E3.82415
G1 X101.750 Y63.580 E3.92452
G1 X103.040 Y63.230 E4.04606
G1 X103.610 Y63.100 E4.09922
G1 X104.200 Y63.020 E4.15336
G1 X105.580 Y62.900 E4.27932
G1 X106.150 Y62.880 E4.33118
G1 X121.650 Y62.880 E5.74059
G1 X122.940 Y63.000 E5.85839
G1 X124.190 Y63.380 E5.97719
G1 X125.330 Y63.990 E6.09476
G1 X126.330 Y64.820 E6.21293
G1 X127.160 Y65.820 E6.33110
G1 X127.770 Y66.960 E6.44866
G1 X128.150 Y68.210 E6.56746
G1 X128.270 Y69.500 E6.68527
G1 X128.270 Y130.500 E12.23197
G1 X128.150 Y131.790 E12.34978
G1 X127.770 Y133.040 E12.46858
G1 X127.160 Y134.180 E12.58614
G1 X126.330 Y135.180 E12.70431
G1 X125.330 Y136.010 E12.82248
G1 X124.190 Y136.620 E12.94005
G1 X122.940 Y137.000 E13.05885
G1 X121.650 Y137.120 E13.17665
G1 X106.140 Y137.120 E14.58697
G1 X105.550 Y137.100 E14.64065
G1 X104.200 Y136.980 E14.76389
G1 X103.610 Y136.900 E14.81803
G1 X103.030 Y136.770 E14.87208
G1 X101.720 Y136.410 E14.99561
G1 X100.690 Y136.030 E15.09544
G1 X99.460 Y135.460 E15.21871
G1 X98.740 Y135.070 E15.29316
G1 X74.840 Y120.120 E17.85653
G1 X73.780 Y119.300 E17.97839
G1 X72.910 Y118.280 E18.10029
G1 X72.260 Y117.110 E18.22199
G1 X71.860 Y115.830 E18.34393
G1 X71.730 Y114.500 E18.46545
G1 X71.730 Y84.500 E21.19333
G1 X71.870 Y83.130 E21.31856
G1 X72.290 Y81.820 E21.44365
G1 X72.980 Y80.620 E21.56951
G1 X73.837 Y79.670 E21.68589
G1 F1800.000 E20.68589
G92 E0
G1 X81.783 Y87.028 F9000.000
G1 E1.00000 F1800.000
G1 X82.086 Y86.760 E1.03679 F540.000
G1 X82.435 Y86.554 E1.07360
G1 X82.815 Y86.417 E1.11040
G1 X83.081 Y86.367 E1.13494
G1 X83.350 Y86.350 E1.15949
G1 X83.753 Y86.388 E1.19629
G1 X84.142 Y86.501 E1.23309
G1 X84.502 Y86.685 E1.26990
G1 X84.822 Y86.933 E1.30669
G1 X85.089 Y87.236 E1.34348
G1 X85.296 Y87.585 E1.38029
G1 X85.433 Y87.965 E1.41708
G1 X85.483 Y88.231 E1.44164
G1 X85.500 Y88.500 E1.46619
G1 X85.462 Y88.903 E1.50299
G1 X85.349 Y89.291 E1.53978
G1 X85.165 Y89.652 E1.57661
G1 X84.917 Y89.972 E1.61339
G1 X84.614 Y90.240 E1.65019
G1 X84.265 Y90.446 E1.68700
G1 X84.014 Y90.545 E1.71155
G1 X83.753 Y90.612 E1.73609
G1 X83.350 Y90.650 E1.77289
G1 X82.947 Y90.612 E1.80970
G1 X82.558 Y90.499 E1.84648
G1 X82.198 Y90.315 E1.88330
G1 X81.878 Y90.067 E1.92010
G1 X81.611 Y89.764 E1.95688
G1 X81.404 Y89.415 E1.99369
G1 X81.267 Y89.035 E2.03049
G1 X81.204 Y88.635 E2.06729
G1 X81.217 Y88.230 E2.10408
G1 X81.305 Y87.836 E2.14086
G1 X81.466 Y87.464 E2.17767
G1 X81.721 Y87.098 E2.21822
G1 X81.674 Y86.638 F9000.000
G1 F1800.000 E1.21822
G92 E0
G1 X82.477 Y105.813 F9000.000
G1 E1.00000 F1800.000
G1 X84.223 Y105.813 E1.15876 F540.000
G1 X85.635 Y106.839 E1.31752
G1 X86.175 Y108.500 E1.47628
G1 X85.635 Y110.161 E1.63504
G1 X84.223 Y111.187 E1.79380
G1 X82.477 Y111.187 E1.95256
G1 X81.065 Y110.161 E2.11132
G1 X80.525 Y108.500 E2.27008
G1 X81.065 Y106.839 E2.42884
G1 X82.401 Y105.868 E2.57908
G1 X82.680 Y106.438 F9000.000
G1 X84.020 Y106.438 E2.70091 F540.000
G1 X85.104 Y107.226 E2.82275
G1 X85.518 Y108.500 E2.94459
G1 X85.104 Y109.774 E3.06642
G1 X84.020 Y110.562 E3.18826
G1 X82.680 Y110.562 E3.31009
G1 X81.596 Y109.774 E3.43193
G1 X81.182 Y108.500 E3.55377
G1 X81.596 Y107.226 E3.67560
G1 X82.604 Y106.493 E3.78892
G1 X82.873 Y105.844 F9000.000
G1 F1800.000 E2.78892
G92 E0
G1 X107.676 Y128.563 F9000.000
G1 E1.00000 F1800.000
G1 X109.086 Y128.050 E1.13650 F540.000
G1 X120.050 Y128.050 E2.13345
G1 X120.050 Y128.900 E2.21078
G1 X107.735 Y128.900 E3.33059
G1 X107.692 Y128.655 E3.35318
G1 F1800.000 E2.35318
G92 E0
G1 X109.086 Y117.350 F9000.000
G1 E1.00000 F1800.000
G1 X107.676 Y116.837 E1.13649 F540.000
G1 X107.735 Y116.500 E1.16761
G1 X113.965 Y116.500 E1.73414
G1 X113.965 Y114.600 E1.90691
G1 X116.735 Y114.600 E2.15869
G1 X116.735 Y116.500 E2.33146
G1 X120.050 Y116.500 E2.63296
G1 X120.050 Y117.350 E2.71029
G1 X109.180 Y117.350 E3.69872
G1 F1800.000 E2.69872
G92 E0
G1 X113.965 Y85.400 F9000.000
G1 E1.00000 F1800.000
G1 X113.965 Y83.500 E1.17277 F540.000
G1 X107.735 Y83.500 E1.73929
G1 X107.676 Y83.163 E1.77042
G1 X109.086 Y82.650 E1.90691
G1 X120.050 Y82.650 E2.90386
G1 X120.050 Y83.500 E2.98119
G1 X116.735 Y83.500 E3.28269
G1 X116.735 Y85.400 E3.45545
G1 X114.059 Y85.400 E3.69872
G1 F1800.000 E2.69872
G92 E0
G1 X109.086 Y71.950 F9000.000
G1 E1.00000 F1800.000
G1 X107.676 Y71.437 E1.13649 F540.000
G1 X107.735 Y71.100 E1.16761
G1 X120.050 Y71.100 E2.28742
G1 X120.050 Y71.950 E2.36475
G1 X109.180 Y71.950 E3.35317
G1 F1800.000 E2.35317
G92 E0
G1 X100.173 Y79.011 F9000.000
G1 E1.00000 F1800.000
G1 X101.458 Y81.237 E1.23372 F1620.000
G1 X101.750 Y81.482 E1.26836
G1 X101.750 Y118.518 E4.63611
G1 X101.458 Y118.763 E4.67075
G1 X100.173 Y120.989 E4.90447
G1 X99.950 Y120.929 E4.92550
G1 X99.950 Y112.900 E5.65560
G1 X79.950 Y112.900 E7.47419
G1 X79.950 Y109.924 E7.74482
G1 X80.312 Y109.867 E7.77816
G1 X80.533 Y110.547 E7.84320
G1 X82.274 Y111.812 E8.03888
G1 X84.426 Y111.812 E8.23456
G1 X86.167 Y110.547 E8.43024
G1 X86.832 Y108.500 E8.62593
G1 X86.167 Y106.453 E8.82162
G1 X84.426 Y105.188 E9.01730
G1 X82.274 Y105.188 E9.21298
G1 X80.533 Y106.453 E9.40867
G1 X80.312 Y107.133 E9.47370
G1 X79.950 Y107.076 E9.50704
G1 X79.950 Y89.867 E11.07184
G1 X80.131 Y89.811 E11.08911
G1 X80.599 Y90.499 E11.16472
G1 X80.730 Y90.668 E11.18413
G1 X81.022 Y90.979 E11.22292
G1 X81.183 Y91.120 E11.24242
G1 X81.527 Y91.371 E11.28116
G1 X81.902 Y91.577 E11.32010
G1 X82.299 Y91.734 E11.35888
G1 X82.712 Y91.840 E11.39766
G1 X82.924 Y91.874 E11.41716
G1 X83.350 Y91.901 E11.45594
G1 X83.776 Y91.874 E11.49480
G1 X83.987 Y91.840 E11.51424
G1 X84.400 Y91.734 E11.55301
G1 X84.797 Y91.577 E11.59184
G1 X85.172 Y91.371 E11.63076
G1 X85.517 Y91.120 E11.66953
G1 X85.678 Y90.979 E11.68898
G1 X85.970 Y90.668 E11.72780
G1 X86.221 Y90.323 E11.76655
G1 X86.427 Y89.948 E11.80550
G1 X86.584 Y89.551 E11.84425
G1 X86.690 Y89.137 E11.88312
G1 X86.744 Y88.714 E11.92192
G1 X86.744 Y88.286 E11.96085
G1 X86.690 Y87.863 E11.99962
G1 X86.584 Y87.448 E12.03853
G1 X86.427 Y87.052 E12.07726
G1 X86.221 Y86.677 E12.11621
G1 X85.828 Y86.100 E12.17970
G1 X99.950 Y86.100 E13.46379
G1 X99.950 Y79.071 E14.10295
G1 X100.083 Y79.035 E14.11546
G1 F1800.000 E13.11546
G92 E0
G1 X80.872 Y86.100 F9000.000
G1 E1.00000 F1800.000
G1 X80.131 Y87.189 E1.11976 F540.000
G1 X79.950 Y87.133 E1.13702
G1 X79.950 Y86.100 E1.23096
G1 X80.778 Y86.100 E1.30629
G1 X81.327 Y86.600 F9000.000
G1 X81.007 Y87.012 E1.35377 F1620.000
G1 X80.839 Y87.319 E1.38555
G1 X80.710 Y87.643 E1.41723
G1 X80.619 Y88.012 E1.45182
G1 X80.575 Y88.500 E1.49639
G1 X80.596 Y88.848 E1.52806
G1 X80.710 Y89.357 E1.57555
G1 X80.839 Y89.681 E1.60724
G1 X81.007 Y89.987 E1.63900
G1 X81.327 Y90.400 E1.68648
G1 X81.581 Y90.639 E1.71817
G1 X82.013 Y90.932 E1.76565
G1 X82.492 Y91.140 E1.81315
G1 X82.830 Y91.226 E1.84481
G1 X83.176 Y91.270 E1.87653
G1 X83.524 Y91.270 E1.90819
G1 X84.040 Y91.188 E1.95574
G1 X84.531 Y91.011 E2.00319
G1 X84.837 Y90.843 E2.03494
G1 X85.250 Y90.523 E2.08242
G1 X85.488 Y90.269 E2.11410
G1 X85.782 Y89.837 E2.16160
G1 X85.989 Y89.358 E2.20907
G1 X86.103 Y88.848 E2.25661
G1 X86.120 Y88.325 E2.30414
G1 X86.038 Y87.810 E2.35161
G1 X85.861 Y87.319 E2.39908
G1 X85.693 Y87.012 E2.43085
G1 X85.373 Y86.600 E2.47830
G1 X84.981 Y86.255 E2.52579
G1 X84.687 Y86.068 E2.55748
G1 X84.024 Y85.730 E2.62511
G1 X84.086 Y85.475 E2.64901
G1 X99.325 Y85.475 E4.03470
G1 X99.325 Y77.343 E4.77417
G1 X99.432 Y76.115 E4.88618
G1 X99.740 Y74.967 E4.99430
G1 X100.243 Y73.889 E5.10242
G1 X100.925 Y72.915 E5.21054
G1 X101.765 Y72.075 E5.31866
G1 X102.739 Y71.393 E5.42678
G1 X103.817 Y70.890 E5.53489
G1 X104.965 Y70.582 E5.64301
G1 X106.193 Y70.475 E5.75502
G1 X120.675 Y70.475 E7.07191
G1 X120.675 Y72.575 E7.26288
G1 X108.976 Y72.575 E8.32667
G1 X107.103 Y71.893 E8.50789
G1 X105.197 Y71.893 E8.68126
G1 X103.405 Y72.546 E8.85463
G1 X101.944 Y73.771 E9.02800
G1 X100.991 Y75.422 E9.20136
G1 X100.660 Y77.300 E9.37474
G1 X100.991 Y79.178 E9.54811
G1 X101.944 Y80.829 E9.72147
G1 X103.405 Y82.054 E9.89484
G1 X105.197 Y82.706 E10.06821
G1 X107.103 Y82.706 E10.24158
G1 X108.976 Y82.025 E10.42280
G1 X120.675 Y82.025 E11.48659
G1 X120.675 Y84.125 E11.67756
G1 X117.359 Y84.125 E11.97905
G1 X117.359 Y86.025 E12.15182
G1 X113.341 Y86.025 E12.51725
G1 X113.341 Y84.125 E12.69001
G1 X106.193 Y84.125 E13.33998
G1 X104.965 Y84.018 E13.45199
G1 X103.817 Y83.710 E13.56010
G1 X102.375 Y83.037 E13.70478
G1 X102.375 Y116.963 E16.78961
G1 X103.817 Y116.290 E16.93430
G1 X104.965 Y115.982 E17.04241
G1 X106.193 Y115.875 E17.15441
G1 X113.341 Y115.875 E17.80438
G1 X113.341 Y113.975 E17.97715
G1 X117.359 Y113.975 E18.34257
G1 X117.359 Y115.875 E18.51534
G1 X120.675 Y115.875 E18.81684
G1 X120.675 Y117.975 E19.00781
G1 X108.976 Y117.975 E20.07160
G1 X107.103 Y117.294 E20.25281
G1 X105.197 Y117.294 E20.42618
G1 X103.405 Y117.946 E20.59955
G1 X101.944 Y119.171 E20.77292
G1 X100.991 Y120.822 E20.94628
G1 X100.660 Y122.700 E21.11966
G1 X100.991 Y124.578 E21.29303
G1 X101.944 Y126.229 E21.46639
G1 X103.405 Y127.454 E21.63976
G1 X105.197 Y128.106 E21.81313
G1 X107.103 Y128.106 E21.98650
G1 X108.976 Y127.425 E22.16772
G1 X120.675 Y127.425 E23.23151
G1 X120.675 Y129.525 E23.42248
G1 X106.193 Y129.525 E24.73937
G1 X104.965 Y129.418 E24.85138
G1 X103.817 Y129.110 E24.95950
G1 X102.739 Y128.608 E25.06761
G1 X101.765 Y127.925 E25.17574
G1 X100.925 Y127.085 E25.28386
G1 X100.242 Y126.111 E25.39197
G1 X99.740 Y125.033 E25.50009
G1 X99.432 Y123.885 E25.60821
G1 X99.325 Y122.657 E25.72022
G1 X99.325 Y113.525 E26.55061
G1 X79.325 Y113.525 E28.36921
G1 X79.325 Y85.475 E30.91980
G1 X82.614 Y85.475 E31.21891
G1 X82.676 Y85.731 E31.24282
G1 X81.863 Y86.157 E31.32629
G1 X81.581 Y86.361 E31.35793
G1 X81.393 Y86.534 E31.38111
G1 X78.700 Y84.850 F9000.000
G1 X98.700 Y84.850 E33.19970 F1134.000
G1 X98.700 Y76.850 E33.92713
G1 X98.741 Y76.850 E33.93084
G1 X98.814 Y76.007 E34.00782
G1 X99.151 Y74.752 E34.12589
G1 X99.699 Y73.576 E34.24395
G1 X100.444 Y72.512 E34.36201
G1 X101.362 Y71.594 E34.48007
G1 X102.426 Y70.849 E34.59813
G1 X103.602 Y70.301 E34.71619
G1 X104.857 Y69.964 E34.83426
G1 X106.165 Y69.850 E34.95371
G1 X121.300 Y69.850 E36.32991
G1 X121.300 Y73.200 E36.63452
G1 X108.703 Y73.200 E37.77999
G1 X108.578 Y73.095 E37.79483
G1 X106.993 Y72.518 E37.94816
G1 X105.307 Y72.518 E38.10149
G1 X103.722 Y73.095 E38.25482
G1 X102.431 Y74.179 E38.40815
G1 X101.587 Y75.639 E38.56148
G1 X101.295 Y77.300 E38.71481
G1 X101.587 Y78.961 E38.86815
G1 X102.431 Y80.421 E39.02147
G1 X103.722 Y81.505 E39.17481
G1 X105.307 Y82.082 E39.32814
G1 X106.993 Y82.082 E39.48147
G1 X108.578 Y81.505 E39.63480
G1 X108.703 Y81.400 E39.64963
G1 X121.300 Y81.400 E40.79510
G1 X121.300 Y84.750 E41.09972
G1 X117.984 Y84.750 E41.40121
G1 X117.984 Y86.650 E41.57398
G1 X112.716 Y86.650 E42.05305
G1 X112.716 Y84.750 E42.22582
G1 X106.165 Y84.750 E42.82144
G1 X104.857 Y84.636 E42.94090
G1 X103.602 Y84.299 E43.05896
G1 X103.000 Y84.018 E43.11941
G1 X103.000 Y115.982 E46.02581
G1 X103.602 Y115.701 E46.08626
G1 X104.857 Y115.364 E46.20432
G1 X106.165 Y115.250 E46.32378
G1 X112.716 Y115.250 E46.91940
G1 X112.716 Y113.350 E47.09217
G1 X117.984 Y113.350 E47.57124
G1 X117.984 Y115.250 E47.74401
G1 X121.300 Y115.250 E48.04550
G1 X121.300 Y118.600 E48.35012
G1 X108.703 Y118.600 E49.49558
G1 X108.578 Y118.495 E49.51042
G1 X106.993 Y117.918 E49.66375
G1 X105.307 Y117.918 E49.81708
G1 X103.722 Y118.495 E49.97041
G1 X102.431 Y119.579 E50.12375
G1 X101.587 Y121.039 E50.27707
G1 X101.295 Y122.700 E50.43041
G1 X101.587 Y124.361 E50.58374
G1 X102.431 Y125.821 E50.73706
G1 X103.722 Y126.905 E50.89040
G1 X105.307 Y127.482 E51.04373
G1 X106.993 Y127.482 E51.19706
G1 X108.578 Y126.905 E51.35039
G1 X108.703 Y126.800 E51.36523
G1 X121.300 Y126.800 E52.51069
G1 X121.300 Y130.150 E52.81531
G1 X106.165 Y130.150 E54.19150
G1 X104.857 Y130.036 E54.31096
G1 X103.602 Y129.699 E54.42902
G1 X102.426 Y129.151 E54.54708
G1 X101.362 Y128.406 E54.66515
G1 X100.444 Y127.488 E54.78321
G1 X99.699 Y126.424 E54.90127
G1 X99.151 Y125.248 E55.01933
G1 X98.814 Y123.993 E55.13739
G1 X98.741 Y123.150 E55.21438
G1 X98.700 Y123.150 E55.21808
G1 X98.700 Y114.150 E56.03645
G1 X78.700 Y114.150 E57.85504
G1 X78.700 Y84.944 E60.51075
G1 X79.241 Y85.162 F9000.000
G1 F1800.000 E59.51075
G92 E0
G1 X114.452 Y116.393 F9000.000
G1 E1.00000 F1800.000
G1 X114.385 Y116.326 E1.00933 F1080.000
G1 X114.385 Y115.373 E1.10264
G1 X115.630 Y116.618 E1.27520
G1 X116.003 Y116.039 E1.34272
G1 X114.983 Y115.019 E1.48401
G1 X115.935 Y115.019 E1.57733
G1 X116.003 Y115.086 E1.58666
G1 F1800.000 E0.58666
G92 E0
G1 X85.265 Y112.166 F9000.000
G1 E1.00000 F1800.000
G1 X85.185 Y112.086 E1.01046 F1080.000
G1 X85.525 Y111.534 E1.06992
G1 X86.157 Y112.166 E1.15193
G1 X87.049 Y112.166 E1.23376
G1 X86.041 Y111.159 E1.36446
G1 X86.539 Y110.765 E1.42271
G1 X87.940 Y112.166 E1.60453
G1 X88.832 Y112.166 E1.68636
G1 X86.758 Y110.092 E1.95551
G1 X86.977 Y109.419 E2.02045
G1 X89.724 Y112.166 E2.37694
G1 X90.616 Y112.166 E2.45876
G1 X87.195 Y108.746 E2.90259
G1 X87.003 Y107.662 E3.00363
G1 X91.507 Y112.166 E3.58815
G1 X92.399 Y112.166 E3.66997
G1 X80.371 Y100.138 E5.23074
G1 X80.371 Y99.247 E5.31256
G1 X93.291 Y112.166 E6.98905
G1 X94.183 Y112.166 E7.07087
G1 X80.371 Y98.355 E8.86307
G1 X80.371 Y97.463 E8.94489
G1 X95.074 Y112.166 E10.85280
G1 X95.966 Y112.166 E10.93462
G1 X80.371 Y96.571 E12.95825
G1 X80.371 Y95.680 E13.04007
G1 X96.858 Y112.166 E15.17941
G1 X97.750 Y112.166 E15.26124
G1 X80.371 Y94.788 E17.51629
G1 X80.371 Y93.896 E17.59812
G1 X98.641 Y112.166 E19.96889
G1 X99.533 Y112.166 E20.05071
G1 X80.371 Y93.004 E22.53720
G1 X80.371 Y92.113 E22.61902
G1 X100.425 Y112.166 E25.22123
G1 X101.016 Y111.866 E25.28208
G1 X80.371 Y91.221 E27.96101
G1 X82.181 Y92.139 F9000.000
G1 X101.016 Y110.974 E30.40507 F1080.000
G1 X101.016 Y110.082 E30.48690
G1 X83.251 Y92.317 E32.79219
G1 X84.078 Y92.252 E32.86833
G1 X101.016 Y109.191 E35.06627
G1 X101.016 Y108.299 E35.14810
G1 X84.762 Y92.044 E37.25728
G1 X85.359 Y91.750 E37.31836
G1 X101.016 Y107.407 E39.35011
G1 X101.016 Y106.515 E39.43193
G1 X85.871 Y91.370 E41.39717
G1 X86.310 Y90.917 E41.45503
G1 X101.016 Y105.624 E43.36336
G1 X101.016 Y104.732 E43.44518
G1 X86.668 Y90.384 E45.30700
G1 X86.949 Y89.773 E45.36868
G1 X101.016 Y103.840 E47.19402
G1 X101.016 Y102.948 E47.27584
G1 X87.125 Y89.057 E49.07836
G1 X87.535 Y88.575 E49.13641
G1 X101.016 Y102.057 E50.88575
G1 X101.016 Y101.165 E50.96758
G1 X87.400 Y87.548 E52.73446
G1 X87.577 Y86.834 E52.80202
G1 X101.016 Y100.273 E54.54593
G1 X101.016 Y99.381 E54.62775
G1 X88.469 Y86.834 E56.25594
G1 X89.360 Y86.834 E56.33777
G1 X101.016 Y98.490 E57.85024
G1 X101.016 Y97.598 E57.93206
G1 X90.252 Y86.834 E59.32883
G1 X91.144 Y86.834 E59.41065
G1 X101.016 Y96.706 E60.69170
G1 X101.016 Y95.814 E60.77352
G1 X92.036 Y86.834 E61.93885
G1 X92.927 Y86.834 E62.02067
G1 X101.016 Y94.923 E63.07029
G1 X101.016 Y94.031 E63.15211
G1 X93.819 Y86.834 E64.08601
G1 X94.711 Y86.834 E64.16783
G1 X101.016 Y93.139 E64.98602
G1 X101.016 Y92.247 E65.06784
G1 X95.603 Y86.834 E65.77031
G1 X96.494 Y86.834 E65.85214
G1 X101.016 Y91.356 E66.43889
G1 X101.016 Y90.464 E66.52071
G1 X97.386 Y86.834 E66.99175
