; generated by Slic3r 1.0.0RC2 on 2014-10-03 at 09:26:17
; layer_height = 0.31
; perimeters = 3
; top_solid_layers = 3
; bottom_solid_layers = 3
; fill_density = 0.4
; perimeter_speed = 90
; infill_speed = 90
; travel_speed = 150
; nozzle_diameter = 0.35
; filament_diameter = 1.75
; extrusion_multiplier = 1
; perimeters extrusion width = 0.35mm
; infill extrusion width = 0.37mm
; solid infill extrusion width = 0.37mm
; top infill extrusion width = 0.37mm
; first layer extrusion width = 0.70mm
G21 ; set units to millimeters
M107
M190 S55 ; wait for bed temperature to be reached
M104 S230 ; set temperature
G28 ; home all axes
G1 Z5 F5000 ; lift nozzle
M109 S230 ; wait for temperature to be reached
G90 ; use absolute coordinates
G92 E0
M82 ; use absolute distances for extrusion
G1 F1800.000 E-1.00000
G92 E0
G1 Z0.350 F9000.000
G1 X75.780 Y80.230 F9000.000
G1 E1.00000 F1800.000
G1 X76.910 Y79.180 E1.14026 F1620.000
G1 X94.780 Y65.930 E3.16311
G1 X95.910 Y65.130 E3.28901
G1 X96.430 Y64.800 E3.34501
G1 X96.970 Y64.520 E3.40032
G1 X98.210 Y63.950 E3.52441
G1 X99.250 Y63.580 E3.62478
G1 X100.540 Y63.230 E3.74632
G1 X101.110 Y63.100 E3.79949
G1 X101.700 Y63.020 E3.85362
G1 X103.080 Y62.900 E3.97958
G1 X103.650 Y62.880 E4.03144
G1 X119.150 Y62.880 E5.44085
G1 X120.440 Y63.000 E5.55866
G1 X121.690 Y63.380 E5.67746
G1 X122.830 Y63.990 E5.79502
G1 X123.830 Y64.820 E5.91319
G1 X124.660 Y65.820 E6.03136
G1 X125.270 Y66.960 E6.14893
G1 X125.650 Y68.210 E6.26773
G1 X125.770 Y69.500 E6.38553
G1 X125.770 Y130.500 E11.93224
G1 X125.650 Y131.790 E12.05004
G1 X125.270 Y133.040 E12.16884
G1 X124.660 Y134.180 E12.28641
G1 X123.830 Y135.180 E12.40458
G1 X122.830 Y136.010 E12.52275
G1 X121.690 Y136.620 E12.64031
G1 X120.440 Y137.000 E12.75911
G1 X119.150 Y137.120 E12.87692
G1 X103.640 Y137.120 E14.28724
G1 X103.050 Y137.100 E14.34091
G1 X101.700 Y136.980 E14.46415
G1 X101.110 Y136.900 E14.51829
G1 X100.530 Y136.770 E14.57234
G1 X99.220 Y136.410 E14.69587
G1 X98.190 Y136.030 E14.79570
G1 X96.960 Y135.460 E14.91897
G1 X96.010 Y134.920 E15.01833
G1 X77.110 Y121.970 E17.10162
G1 X76.120 Y121.140 E17.21909
G1 X75.320 Y120.140 E17.33554
G1 X74.720 Y119.010 E17.45187
G1 X74.350 Y117.780 E17.56867
G1 X74.230 Y116.500 E17.68557
G1 X74.230 Y84.500 E20.59532
G1 X74.400 Y82.970 E20.73529
G1 X74.930 Y81.520 E20.87567
G1 X75.728 Y80.308 E21.00762
G1 F1800.000 E20.00762
G92 E0
G1 X84.193 Y87.129 F9000.000
G1 E1.00000 F1800.000
G1 X84.479 Y86.843 E1.03679 F540.000
G1 X84.814 Y86.616 E1.07360
G1 X85.186 Y86.455 E1.11039
G1 X85.581 Y86.367 E1.14720
G1 X85.985 Y86.354 E1.18399
G1 X86.385 Y86.417 E1.22078
G1 X86.642 Y86.501 E1.24534
G1 X86.886 Y86.616 E1.26990
G1 X87.221 Y86.843 E1.30670
G1 X87.507 Y87.129 E1.34349
G1 X87.734 Y87.464 E1.38029
G1 X87.895 Y87.836 E1.41709
G1 X87.983 Y88.230 E1.45389
G1 X87.996 Y88.635 E1.49069
G1 X87.933 Y89.035 E1.52749
G1 X87.849 Y89.291 E1.55204
G1 X87.734 Y89.536 E1.57660
G1 X87.507 Y89.871 E1.61340
G1 X87.221 Y90.157 E1.65019
G1 X86.886 Y90.384 E1.68700
G1 X86.514 Y90.545 E1.72380
G1 X86.119 Y90.633 E1.76060
G1 X85.850 Y90.650 E1.78514
G1 X85.581 Y90.633 E1.80969
G1 X85.186 Y90.545 E1.84649
G1 X84.814 Y90.384 E1.88329
G1 X84.479 Y90.157 E1.92010
G1 X84.193 Y89.871 E1.95689
G1 X83.966 Y89.536 E1.99370
G1 X83.805 Y89.164 E2.03050
G1 X83.717 Y88.769 E2.06730
G1 X83.704 Y88.365 E2.10410
G1 X83.767 Y87.965 E2.14089
G1 X83.904 Y87.585 E2.17767
G1 X84.136 Y87.203 E2.21823
G1 X84.060 Y86.747 F9000.000
G1 F1800.000 E1.21823
G92 E0
G1 X84.977 Y105.813 F9000.000
G1 E1.00000 F1800.000
G1 X86.723 Y105.813 E1.15876 F540.000
G1 X88.136 Y106.839 E1.31752
G1 X88.675 Y108.500 E1.47628
G1 X88.136 Y110.161 E1.63504
G1 X86.723 Y111.187 E1.79380
G1 X84.977 Y111.187 E1.95256
G1 X83.565 Y110.161 E2.11132
G1 X83.025 Y108.500 E2.27009
G1 X83.565 Y106.839 E2.42885
G1 X84.901 Y105.868 E2.57909
G1 X85.180 Y106.438 F9000.000
G1 X86.520 Y106.438 E2.70092 F540.000
G1 X87.604 Y107.226 E2.82276
G1 X88.018 Y108.500 E2.94459
G1 X87.604 Y109.774 E3.06643
G1 X86.520 Y110.562 E3.18827
G1 X85.180 Y110.562 E3.31010
G1 X84.096 Y109.774 E3.43194
G1 X83.682 Y108.500 E3.55378
G1 X84.096 Y107.226 E3.67561
G1 X85.104 Y106.493 E3.78893
G1 X85.373 Y105.844 F9000.000
G1 F1800.000 E2.78893
G92 E0
G1 X105.176 Y128.563 F9000.000
G1 E1.00000 F1800.000
G1 X106.586 Y128.050 E1.13650 F540.000
G1 X117.550 Y128.050 E2.13345
G1 X117.550 Y128.900 E2.21078
G1 X105.235 Y128.900 E3.33059
G1 X105.192 Y128.655 E3.35318
G1 F1800.000 E2.35318
G92 E0
G1 X106.586 Y117.350 F9000.000
G1 E1.00000 F1800.000
G1 X105.176 Y116.837 E1.13649 F540.000
G1 X105.235 Y116.500 E1.16761
G1 X111.465 Y116.500 E1.73414
G1 X111.465 Y114.600 E1.90691
G1 X114.235 Y114.600 E2.15869
G1 X114.235 Y116.500 E2.33146
G1 X117.550 Y116.500 E2.63296
G1 X117.550 Y117.350 E2.71029
G1 X106.680 Y117.350 E3.69872
G1 F1800.000 E2.69872
G92 E0
G1 X111.465 Y85.400 F9000.000
G1 E1.00000 F1800.000
G1 X111.465 Y83.500 E1.17277 F540.000
G1 X105.235 Y83.500 E1.73930
G1 X105.176 Y83.163 E1.77042
G1 X106.586 Y82.650 E1.90691
G1 X117.550 Y82.650 E2.90386
G1 X117.550 Y83.500 E2.98119
G1 X114.235 Y83.500 E3.28269
G1 X114.235 Y85.400 E3.45545
G1 X111.559 Y85.400 E3.69872
G1 F1800.000 E2.69872
G92 E0
G1 X106.586 Y71.950 F9000.000
G1 E1.00000 F1800.000
G1 X105.176 Y71.437 E1.13649 F540.000
G1 X105.235 Y71.100 E1.16761
G1 X117.550 Y71.100 E2.28742
G1 X117.550 Y71.950 E2.36475
G1 X106.680 Y71.950 E3.35317
G1 F1800.000 E2.35317
G92 E0
G1 X97.673 Y79.011 F9000.000
G1 E1.00000 F1800.000
G1 X98.958 Y81.237 E1.23372 F1620.000
G1 X99.250 Y81.482 E1.26836
G1 X99.250 Y84.900 E1.57922
G1 X98.250 Y84.900 E1.67015
G1 X98.250 Y115.100 E4.41618
G1 X99.250 Y115.100 E4.50711
G1 X99.250 Y118.518 E4.81797
G1 X98.958 Y118.763 E4.85261
G1 X97.673 Y120.989 E5.08633
G1 X97.450 Y120.929 E5.10736
G1 X97.450 Y114.900 E5.65560
G1 X82.450 Y114.900 E7.01954
G1 X82.450 Y109.924 E7.47203
G1 X82.812 Y109.867 E7.50537
G1 X83.033 Y110.547 E7.57040
G1 X84.774 Y111.812 E7.76608
G1 X86.926 Y111.812 E7.96176
G1 X88.667 Y110.547 E8.15745
G1 X89.332 Y108.500 E8.35314
G1 X88.667 Y106.453 E8.54882
G1 X86.926 Y105.188 E8.74451
G1 X84.774 Y105.188 E8.94019
G1 X83.033 Y106.453 E9.13587
G1 X82.812 Y107.133 E9.20090
G1 X82.450 Y107.076 E9.23425
G1 X82.450 Y89.867 E10.79905
G1 X82.631 Y89.811 E10.81631
G1 X83.099 Y90.499 E10.89192
G1 X83.230 Y90.668 E10.91135
G1 X83.522 Y90.979 E10.95015
G1 X83.682 Y91.120 E10.96960
G1 X84.027 Y91.371 E11.00837
G1 X84.402 Y91.577 E11.04730
G1 X84.799 Y91.734 E11.08612
G1 X85.212 Y91.840 E11.12487
G1 X85.424 Y91.874 E11.14438
G1 X85.850 Y91.901 E11.18318
G1 X86.063 Y91.894 E11.20258
G1 X86.276 Y91.874 E11.22198
G1 X86.695 Y91.794 E11.26084
G1 X87.102 Y91.662 E11.29969
G1 X87.488 Y91.480 E11.33851
G1 X87.672 Y91.371 E11.35798
G1 X88.018 Y91.120 E11.39678
G1 X88.329 Y90.828 E11.43558
G1 X88.601 Y90.499 E11.47444
G1 X88.830 Y90.138 E11.51326
G1 X89.012 Y89.752 E11.55212
G1 X89.144 Y89.346 E11.59092
G1 X89.224 Y88.926 E11.62978
G1 X89.251 Y88.500 E11.66860
G1 X89.224 Y88.074 E11.70744
G1 X89.144 Y87.654 E11.74627
G1 X89.012 Y87.248 E11.78508
G1 X88.830 Y86.862 E11.82393
G1 X88.328 Y86.100 E11.90688
G1 X97.450 Y86.100 E12.73630
G1 X97.450 Y79.071 E13.37547
G1 X97.583 Y79.035 E13.38797
G1 F1800.000 E12.38797
G92 E0
G1 X83.372 Y86.100 F9000.000
G1 E1.00000 F1800.000
G1 X82.631 Y87.189 E1.11976 F540.000
G1 X82.450 Y87.133 E1.13702
G1 X82.450 Y86.100 E1.23096
G1 X83.278 Y86.100 E1.30629
G1 X83.827 Y86.600 F9000.000
G1 X83.605 Y86.869 E1.33800 F1620.000
G1 X83.418 Y87.163 E1.36970
G1 X83.269 Y87.478 E1.40141
G1 X83.124 Y87.980 E1.44887
G1 X83.075 Y88.500 E1.49639
G1 X83.096 Y88.848 E1.52807
G1 X83.210 Y89.357 E1.57555
G1 X83.339 Y89.681 E1.60724
G1 X83.507 Y89.987 E1.63900
G1 X83.827 Y90.400 E1.68648
G1 X84.081 Y90.638 E1.71816
G1 X84.513 Y90.932 E1.76566
G1 X84.993 Y91.140 E1.81317
G1 X85.330 Y91.226 E1.84481
G1 X85.676 Y91.270 E1.87654
G1 X86.024 Y91.270 E1.90821
G1 X86.370 Y91.226 E1.93993
G1 X86.872 Y91.080 E1.98742
G1 X87.337 Y90.843 E2.03493
G1 X87.750 Y90.523 E2.08240
G1 X87.988 Y90.269 E2.11409
G1 X88.282 Y89.837 E2.16160
G1 X88.490 Y89.358 E2.20911
G1 X88.603 Y88.848 E2.25661
G1 X88.625 Y88.500 E2.28830
G1 X88.576 Y87.980 E2.33581
G1 X88.431 Y87.478 E2.38329
G1 X88.193 Y87.013 E2.43081
G1 X87.873 Y86.600 E2.47831
G1 X87.481 Y86.255 E2.52579
G1 X87.187 Y86.068 E2.55748
G1 X86.524 Y85.730 E2.62511
G1 X86.586 Y85.475 E2.64900
G1 X96.825 Y85.475 E3.58004
G1 X96.825 Y77.343 E4.31951
G1 X96.932 Y76.115 E4.43152
G1 X97.240 Y74.967 E4.53964
G1 X97.743 Y73.889 E4.64776
G1 X98.425 Y72.915 E4.75587
G1 X99.265 Y72.075 E4.86399
G1 X100.239 Y71.393 E4.97211
G1 X101.317 Y70.890 E5.08023
G1 X102.465 Y70.582 E5.18835
G1 X103.693 Y70.475 E5.30036
G1 X118.175 Y70.475 E6.61725
G1 X118.175 Y72.575 E6.80822
G1 X106.476 Y72.575 E7.87201
G1 X104.603 Y71.893 E8.05323
G1 X102.697 Y71.893 E8.22660
G1 X100.905 Y72.546 E8.39997
G1 X99.444 Y73.771 E8.57334
G1 X98.491 Y75.422 E8.74670
G1 X98.160 Y77.300 E8.92007
G1 X98.491 Y79.178 E9.09345
G1 X99.444 Y80.829 E9.26681
G1 X100.905 Y82.054 E9.44018
G1 X102.697 Y82.706 E9.61355
G1 X104.603 Y82.706 E9.78692
G1 X106.476 Y82.025 E9.96814
G1 X118.175 Y82.025 E11.03192
G1 X118.175 Y84.125 E11.22290
G1 X114.859 Y84.125 E11.52439
G1 X114.859 Y86.025 E11.69716
G1 X110.841 Y86.025 E12.06259
G1 X110.841 Y84.125 E12.23535
G1 X103.693 Y84.125 E12.88532
G1 X102.465 Y84.018 E12.99733
G1 X101.317 Y83.710 E13.10544
G1 X99.875 Y83.037 E13.25012
G1 X99.875 Y85.525 E13.47634
G1 X98.875 Y85.525 E13.56727
G1 X98.875 Y114.475 E16.19966
G1 X99.875 Y114.475 E16.29059
G1 X99.875 Y116.963 E16.51681
G1 X101.317 Y116.290 E16.66149
G1 X102.465 Y115.982 E16.76960
G1 X103.693 Y115.875 E16.88161
G1 X110.841 Y115.875 E17.53158
G1 X110.841 Y113.975 E17.70434
G1 X114.859 Y113.975 E18.06977
G1 X114.859 Y115.875 E18.24254
G1 X118.175 Y115.875 E18.54403
G1 X118.175 Y117.975 E18.73501
G1 X106.476 Y117.975 E19.79880
G1 X104.603 Y117.294 E19.98001
G1 X102.697 Y117.294 E20.15338
G1 X100.905 Y117.946 E20.32675
G1 X99.444 Y119.171 E20.50012
G1 X98.491 Y120.822 E20.67348
G1 X98.160 Y122.700 E20.84686
G1 X98.491 Y124.578 E21.02023
G1 X99.444 Y126.229 E21.19359
G1 X100.905 Y127.454 E21.36696
G1 X102.697 Y128.106 E21.54033
G1 X104.603 Y128.106 E21.71370
G1 X106.476 Y127.425 E21.89492
G1 X118.175 Y127.425 E22.95871
G1 X118.175 Y129.525 E23.14968
G1 X103.693 Y129.525 E24.46657
G1 X102.465 Y129.418 E24.57857
G1 X101.317 Y129.110 E24.68669
G1 X100.239 Y128.608 E24.79481
G1 X99.265 Y127.925 E24.90293
G1 X98.425 Y127.085 E25.01106
G1 X97.742 Y126.111 E25.11917
G1 X97.240 Y125.033 E25.22729
G1 X96.932 Y123.885 E25.33540
G1 X96.825 Y122.657 E25.44742
G1 X96.825 Y115.525 E26.09595
G1 X81.825 Y115.525 E27.45990
G1 X81.825 Y85.475 E30.19235
G1 X85.114 Y85.475 E30.49146
G1 X85.176 Y85.731 E30.51537
G1 X84.363 Y86.157 E30.59885
G1 X84.081 Y86.361 E30.63050
G1 X83.893 Y86.534 E30.65366
G1 X81.200 Y84.850 F9000.000
G1 X96.200 Y84.850 E32.01761 F1134.000
G1 X96.200 Y76.850 E32.74504
G1 X96.241 Y76.850 E32.74874
G1 X96.314 Y76.007 E32.82573
G1 X96.651 Y74.752 E32.94379
G1 X97.199 Y73.576 E33.06185
G1 X97.944 Y72.512 E33.17992
G1 X98.862 Y71.594 E33.29798
G1 X99.926 Y70.849 E33.41604
G1 X101.102 Y70.301 E33.53410
G1 X102.357 Y69.964 E33.65216
G1 X103.665 Y69.850 E33.77162
G1 X118.800 Y69.850 E35.14781
G1 X118.800 Y73.200 E35.45243
G1 X106.203 Y73.200 E36.59790
G1 X106.078 Y73.095 E36.61273
G1 X104.493 Y72.518 E36.76607
G1 X102.807 Y72.518 E36.91940
G1 X101.222 Y73.095 E37.07273
G1 X99.931 Y74.179 E37.22606
G1 X99.087 Y75.639 E37.37939
G1 X98.795 Y77.300 E37.53272
G1 X99.087 Y78.961 E37.68605
G1 X99.931 Y80.421 E37.83938
G1 X101.222 Y81.505 E37.99271
G1 X102.807 Y82.082 E38.14604
G1 X104.493 Y82.082 E38.29937
G1 X106.078 Y81.505 E38.45270
G1 X106.203 Y81.400 E38.46754
G1 X118.800 Y81.400 E39.61301
G1 X118.800 Y84.750 E39.91762
G1 X115.484 Y84.750 E40.21912
G1 X115.484 Y86.650 E40.39189
G1 X110.216 Y86.650 E40.87096
G1 X110.216 Y84.750 E41.04372
G1 X103.665 Y84.750 E41.63935
G1 X102.357 Y84.636 E41.75881
G1 X101.102 Y84.299 E41.87687
G1 X100.500 Y84.018 E41.93731
G1 X100.500 Y86.150 E42.13114
G1 X99.500 Y86.150 E42.22207
G1 X99.500 Y113.850 E44.74082
G1 X100.500 Y113.850 E44.83175
G1 X100.500 Y115.982 E45.02558
G1 X101.102 Y115.701 E45.08603
G1 X102.357 Y115.364 E45.20409
G1 X103.665 Y115.250 E45.32354
G1 X110.216 Y115.250 E45.91917
G1 X110.216 Y113.350 E46.09194
G1 X115.484 Y113.350 E46.57101
G1 X115.484 Y115.250 E46.74377
G1 X118.800 Y115.250 E47.04527
G1 X118.800 Y118.600 E47.34988
G1 X106.203 Y118.600 E48.49535
G1 X106.078 Y118.495 E48.51019
G1 X104.493 Y117.918 E48.66352
G1 X102.807 Y117.918 E48.81685
G1 X101.222 Y118.495 E48.97018
G1 X99.931 Y119.579 E49.12351
G1 X99.087 Y121.039 E49.27684
G1 X98.795 Y122.700 E49.43017
G1 X99.087 Y124.361 E49.58351
G1 X99.931 Y125.821 E49.73683
G1 X101.222 Y126.905 E49.89016
G1 X102.807 Y127.482 E50.04349
G1 X104.493 Y127.482 E50.19683
G1 X106.078 Y126.905 E50.35016
G1 X106.203 Y126.800 E50.36499
G1 X118.800 Y126.800 E51.51046
G1 X118.800 Y130.150 E51.81508
G1 X103.665 Y130.150 E53.19127
G1 X102.357 Y130.036 E53.31073
G1 X101.102 Y129.699 E53.42879
G1 X99.926 Y129.151 E53.54685
G1 X98.862 Y128.406 E53.66491
G1 X97.944 Y127.488 E53.78298
G1 X97.199 Y126.424 E53.90103
G1 X96.651 Y125.248 E54.01909
G1 X96.314 Y123.993 E54.13715
G1 X96.241 Y123.150 E54.21415
G1 X96.200 Y123.150 E54.21785
G1 X96.200 Y116.150 E54.85435
G1 X81.200 Y116.150 E56.21830
G1 X81.200 Y84.944 E59.05587
G1 X81.741 Y85.162 F9000.000
G1 F1800.000 E58.05587
G92 E0
G1 X111.952 Y116.393 F9000.000
G1 E1.00000 F1800.000
G1 X111.885 Y116.326 E1.00933 F1080.000
G1 X111.885 Y115.373 E1.10264
G1 X113.130 Y116.618 E1.27519
G1 X113.503 Y116.039 E1.34272
G1 X112.483 Y115.019 E1.48401
G1 X113.435 Y115.019 E1.57732
G1 X113.503 Y115.086 E1.58666
G1 F1800.000 E0.58666
G92 E0
G1 X82.934 Y114.166 F9000.000
G1 E1.00000 F1800.000
G1 X82.871 Y114.103 E1.00816 F1080.000
G1 X82.871 Y113.213 E1.08974
G1 X83.825 Y114.166 E1.21328
G1 X84.715 Y114.166 E1.29487
G1 X82.871 Y112.322 E1.53378
G1 X82.871 Y111.432 E1.61537
G1 X85.606 Y114.166 E1.96967
G1 X86.496 Y114.166 E2.05125
G1 X84.367 Y112.037 E2.32716
G1 X85.454 Y112.233 E2.42835
G1 X87.387 Y114.166 E2.67882
G1 X88.277 Y114.166 E2.76041
G1 X86.344 Y112.233 E3.01087
G1 X87.162 Y112.161 E3.08614
G1 X89.167 Y114.166 E3.34595
G1 X90.058 Y114.166 E3.42754
G1 X87.678 Y111.786 E3.73591
G1 X88.194 Y111.412 E3.79432
G1 X90.948 Y114.166 E4.15124
G1 X91.839 Y114.166 E4.23282
G1 X88.710 Y111.037 E4.63829
G1 X89.110 Y110.547 E4.69627
G1 X92.729 Y114.166 E5.16521
G1 X93.620 Y114.166 E5.24680
G1 X89.329 Y109.875 E5.80282
G1 X89.547 Y109.203 E5.86757
G1 X94.510 Y114.166 E6.51068
G1 X95.401 Y114.166 E6.59226
G1 X89.765 Y108.531 E7.32245
G1 X89.366 Y107.242 E7.44611
G1 X96.291 Y114.166 E8.34336
G1 X97.182 Y114.166 E8.42495
G1 X82.871 Y99.856 E10.27918
G1 X82.871 Y98.965 E10.36076
G1 X97.516 Y113.610 E12.25835
G1 X97.516 Y112.720 E12.33993
G1 X82.871 Y98.075 E14.23752
G1 X82.871 Y97.185 E14.31911
G1 X97.516 Y111.829 E16.21669
G1 X97.516 Y110.939 E16.29828
G1 X82.871 Y96.294 E18.19586
G1 X82.871 Y95.404 E18.27745
G1 X97.516 Y110.049 E20.17504
G1 X97.516 Y109.158 E20.25662
G1 X82.871 Y94.513 E22.15421
G1 X82.871 Y93.623 E22.23580
G1 X97.516 Y108.268 E24.13338
G1 X97.516 Y107.377 E24.21497
G1 X82.871 Y92.732 E26.11255
G1 X82.871 Y91.842 E26.19414
G1 X97.516 Y106.487 E28.09173
G1 X97.516 Y105.596 E28.17331
G1 X82.902 Y90.982 E30.06693
G1 X85.042 Y92.232 F9000.000
G1 X97.516 Y104.706 E31.68323 F1080.000
G1 X97.516 Y103.815 E31.76482
G1 X86.018 Y92.317 E33.25470
G1 X86.795 Y92.204 E33.32667
G1 X97.516 Y102.925 E34.71583
G1 X97.516 Y102.034 E34.79741
G1 X87.447 Y91.965 E36.10211
G1 X88.015 Y91.643 E36.16196
G1 X97.516 Y101.144 E37.39304
G1 X97.516 Y100.254 E37.47463
G1 X88.504 Y91.242 E38.64234
G1 X88.924 Y90.770 E38.70013
G1 X97.516 Y99.363 E39.81352
G1 X97.516 Y98.473 E39.89510
G1 X89.259 Y90.216 E40.96497
G1 X89.512 Y89.578 E41.02784
G1 X97.516 Y97.582 E42.06503
G1 X97.516 Y96.692 E42.14661
G1 X89.652 Y88.828 E43.16556
G1 X90.215 Y88.501 E43.22524
G1 X97.516 Y95.801 E44.17122
