; generated by Slic3r 1.0.0RC2 on 2014-10-13 at 04:46:39

; layer_height = 0.35
; perimeters = 3
; top_solid_layers = 3
; bottom_solid_layers = 3
; fill_density = 0.4
; perimeter_speed = 100
; infill_speed = 100
; travel_speed = 130
; nozzle_diameter = 0.35
; filament_diameter = 1.75
; extrusion_multiplier = 0.8
; perimeters extrusion width = 0.35mm
; infill extrusion width = 0.37mm
; solid infill extrusion width = 0.37mm
; top infill extrusion width = 0.37mm

G21 ; set units to millimeters
M107
M190 S50 ; wait for bed temperature to be reached
M104 S235 ; set temperature
G28 ; home all axes
G1 Z5 F5000 ; lift nozzle
M109 S235 ; wait for temperature to be reached
G90 ; use absolute coordinates
G92 E0
M82 ; use absolute distances for extrusion
G1 F1800.000 E-1.00000
G92 E0
G1 Z0.350 F7800.000
G1 X67.190 Y59.606 F7800.000
G1 E2.00000 F1800.000
G1 X68.210 Y58.776 E2.05358 F4800.000
G1 X69.370 Y58.156 E2.10717
G1 X70.620 Y57.776 E2.16040
G1 X71.930 Y57.646 E2.21404
G1 X128.070 Y57.646 E4.50139
G1 X129.380 Y57.776 E4.55502
G1 X130.630 Y58.156 E4.60825
G1 X131.790 Y58.776 E4.66184
G1 X132.810 Y59.606 E4.71542
G1 X133.640 Y60.626 E4.76900
G1 X134.260 Y61.786 E4.82259
G1 X134.640 Y63.036 E4.87582
G1 X134.770 Y64.346 E4.92946
G1 X134.770 Y133.006 E7.72692
G1 X134.600 Y134.486 E7.78762
G1 X134.120 Y135.886 E7.84792
G1 X133.330 Y137.156 E7.90885
G1 X132.290 Y138.216 E7.96936
G1 X131.030 Y139.016 E8.03017
G1 X125.680 Y141.656 E8.27324
G1 X124.240 Y142.166 E8.33548
G1 X122.720 Y142.346 E8.39785
G1 X87.970 Y142.346 E9.81369
G1 X87.380 Y142.316 E9.83776
G1 X86.790 Y142.236 E9.86202
G1 X72.080 Y139.596 E10.47093
G1 X70.780 Y139.226 E10.52600
G1 X69.590 Y138.606 E10.58067
G1 X68.540 Y137.766 E10.63546
G1 X67.210 Y136.446 E10.71181
G1 X66.370 Y135.426 E10.76565
G1 X65.740 Y134.266 E10.81943
G1 X65.360 Y132.996 E10.87344
G1 X65.230 Y131.686 E10.92708
G1 X65.230 Y64.346 E13.67075
G1 X65.360 Y63.036 E13.72439
G1 X65.740 Y61.786 E13.77762
G1 X66.360 Y60.626 E13.83121
G1 X67.157 Y59.647 E13.88265
G1 X67.440 Y59.856 F7800.000
G1 X68.400 Y59.066 E13.93331 F4800.000
G1 X69.500 Y58.476 E13.98416
G1 X70.690 Y58.116 E14.03482
G1 X71.930 Y57.996 E14.08558
G1 X128.070 Y57.996 E16.37293
G1 X129.310 Y58.116 E16.42369
G1 X130.500 Y58.476 E16.47434
G1 X131.600 Y59.066 E16.52520
G1 X132.560 Y59.856 E16.57585
G1 X133.350 Y60.816 E16.62651
G1 X133.940 Y61.916 E16.67737
G1 X134.300 Y63.106 E16.72802
G1 X134.420 Y64.346 E16.77878
G1 X134.420 Y133.006 E19.57624
G1 X134.260 Y134.406 E19.63365
G1 X133.800 Y135.736 E19.69099
G1 X133.060 Y136.936 E19.74843
G1 X132.070 Y137.936 E19.80576
G1 X130.880 Y138.696 E19.86329
G1 X125.530 Y141.336 E20.10637
G1 X124.160 Y141.826 E20.16565
G1 X122.720 Y141.996 E20.22473
G1 X87.970 Y141.996 E21.64057
G1 X87.410 Y141.966 E21.66342
G1 X86.850 Y141.896 E21.68641
G1 X72.140 Y139.256 E22.29533
G1 X70.910 Y138.906 E22.34743
G1 X69.780 Y138.316 E22.39937
G1 X68.790 Y137.516 E22.45123
G1 X67.460 Y136.196 E22.52758
G1 X66.660 Y135.226 E22.57881
G1 X66.070 Y134.126 E22.62966
G1 X65.700 Y132.926 E22.68083
G1 X65.580 Y131.686 E22.73159
G1 X65.580 Y64.346 E25.47526
G1 X65.700 Y63.106 E25.52602
G1 X66.060 Y61.916 E25.57668
G1 X66.650 Y60.816 E25.62754
G1 X67.407 Y59.896 E25.67605
G1 F1800.000 E24.67605
G92 E0
G1 X74.455 Y66.871 F7800.000
G1 E2.00000 F1800.000
G1 X125.545 Y66.871 E4.08159 F4800.000
G1 X125.545 Y77.685 E4.52221
G1 X125.883 Y77.963 E4.54003
G1 X126.192 Y78.338 E4.55984
G1 X126.420 Y78.767 E4.57964
G1 X126.562 Y79.232 E4.59944
G1 X126.609 Y79.716 E4.61924
G1 X126.562 Y80.199 E4.63904
G1 X126.420 Y80.665 E4.65885
G1 X126.191 Y81.093 E4.67864
G1 X125.883 Y81.469 E4.69845
G1 X125.545 Y81.746 E4.71627
G1 X125.545 Y130.908 E6.71928
G1 X122.688 Y130.908 E6.83569
G1 X121.496 Y132.122 E6.90502
G1 X121.482 Y132.269 E6.91105
G1 X121.340 Y132.735 E6.93085
G1 X121.111 Y133.163 E6.95065
G1 X120.803 Y133.539 E6.97046
G1 X120.427 Y133.847 E6.99026
G1 X119.999 Y134.076 E7.01006
G1 X119.534 Y134.217 E7.02987
G1 X119.050 Y134.265 E7.04966
G1 X118.566 Y134.217 E7.06946
G1 X118.101 Y134.076 E7.08927
G1 X117.673 Y133.847 E7.10907
G1 X117.297 Y133.539 E7.12887
G1 X117.103 Y133.303 E7.14130
G1 X93.057 Y133.303 E8.12105
G1 X92.863 Y133.539 E8.13348
G1 X92.487 Y133.847 E8.15329
G1 X92.059 Y134.076 E8.17309
G1 X91.594 Y134.217 E8.19289
G1 X91.110 Y134.265 E8.21269
G1 X90.626 Y134.217 E8.23249
G1 X90.161 Y134.076 E8.25230
G1 X89.733 Y133.847 E8.27209
G1 X89.357 Y133.539 E8.29190
G1 X89.049 Y133.163 E8.31171
G1 X88.624 Y132.368 E8.34843
G1 X88.510 Y132.743 E8.36438
G1 X86.710 Y130.908 E8.46911
G1 X76.137 Y130.908 E8.89989
G1 X74.455 Y129.192 E8.99779
G1 X74.455 Y83.016 E10.87915
G1 X74.117 Y82.739 E10.89697
G1 X73.809 Y82.363 E10.91678
G1 X73.579 Y81.935 E10.93658
G1 X73.438 Y81.469 E10.95638
G1 X73.391 Y80.986 E10.97618
G1 X73.438 Y80.502 E10.99598
G1 X73.579 Y80.037 E11.01579
G1 X73.809 Y79.608 E11.03559
G1 X74.117 Y79.233 E11.05539
G1 X74.455 Y78.955 E11.07321
G1 X74.455 Y66.923 E11.56343
G1 X74.805 Y67.221 F7800.000
G1 X125.195 Y67.221 E13.61651 F4800.000
G1 X125.195 Y77.248 E14.02506
G1 X124.130 Y77.143 E14.06866
G1 X123.628 Y77.193 E14.08921
G1 X123.146 Y77.339 E14.10976
G1 X122.701 Y77.577 E14.13030
G1 X122.311 Y77.897 E14.15085
G1 X121.991 Y78.287 E14.17140
G1 X121.753 Y78.731 E14.19194
G1 X121.607 Y79.214 E14.21249
G1 X121.558 Y79.716 E14.23304
G1 X121.607 Y80.218 E14.25358
G1 X121.753 Y80.700 E14.27413
G1 X121.991 Y81.145 E14.29468
G1 X122.311 Y81.535 E14.31522
G1 X122.701 Y81.855 E14.33577
G1 X123.146 Y82.092 E14.35632
G1 X123.628 Y82.239 E14.37686
G1 X124.130 Y82.288 E14.39741
G1 X125.195 Y82.183 E14.44101
G1 X125.195 Y130.558 E16.41195
G1 X122.541 Y130.558 E16.52009
G1 X121.735 Y131.379 E16.56697
G1 X121.189 Y130.357 E16.61419
G1 X120.869 Y129.967 E16.63474
G1 X120.479 Y129.647 E16.65529
G1 X120.034 Y129.409 E16.67583
G1 X119.552 Y129.263 E16.69638
G1 X119.050 Y129.213 E16.71693
G1 X118.548 Y129.263 E16.73747
G1 X118.066 Y129.409 E16.75802
G1 X117.621 Y129.647 E16.77857
G1 X117.231 Y129.967 E16.79911
G1 X116.911 Y130.357 E16.81966
G1 X116.673 Y130.801 E16.84020
G1 X116.527 Y131.284 E16.86075
G1 X116.478 Y131.786 E16.88130
G1 X116.593 Y132.953 E16.92909
G1 X93.567 Y132.953 E17.86722
G1 X93.682 Y131.786 E17.91501
G1 X93.633 Y131.284 E17.93555
G1 X93.487 Y130.801 E17.95610
G1 X93.249 Y130.357 E17.97665
G1 X92.929 Y129.967 E17.99719
G1 X92.539 Y129.647 E18.01774
G1 X92.094 Y129.409 E18.03829
G1 X91.612 Y129.263 E18.05883
G1 X91.110 Y129.213 E18.07938
G1 X90.608 Y129.263 E18.09993
G1 X90.126 Y129.409 E18.12047
G1 X89.681 Y129.647 E18.14102
G1 X89.291 Y129.967 E18.16157
G1 X88.971 Y130.357 E18.18211
G1 X88.733 Y130.801 E18.20266
G1 X88.347 Y132.076 E18.25694
G1 X86.857 Y130.558 E18.34360
G1 X76.284 Y130.558 E18.77438
G1 X74.805 Y129.049 E18.86046
G1 X74.805 Y83.453 E20.71820
G1 X75.870 Y83.558 E20.76180
G1 X76.372 Y83.509 E20.78235
G1 X76.854 Y83.362 E20.80289
G1 X77.299 Y83.125 E20.82344
G1 X77.689 Y82.805 E20.84399
G1 X78.009 Y82.415 E20.86453
G1 X78.247 Y81.970 E20.88508
G1 X78.393 Y81.488 E20.90562
G1 X78.442 Y80.986 E20.92617
G1 X78.393 Y80.484 E20.94672
G1 X78.247 Y80.001 E20.96726
G1 X78.009 Y79.557 E20.98781
G1 X77.689 Y79.167 E21.00836
G1 X77.299 Y78.847 E21.02891
G1 X76.854 Y78.609 E21.04945
G1 X76.372 Y78.463 E21.07000
G1 X75.870 Y78.413 E21.09055
G1 X74.805 Y78.518 E21.13415
G1 X74.805 Y67.273 E21.59231
G1 X75.155 Y67.571 F7800.000
G1 X124.845 Y67.571 E23.61686 F4320.000
G1 X124.845 Y76.862 E23.99542
G1 X124.130 Y76.792 E24.02469
G1 X123.560 Y76.848 E24.04805
G1 X123.011 Y77.014 E24.07141
G1 X122.505 Y77.284 E24.09476
G1 X122.062 Y77.648 E24.11812
G1 X121.699 Y78.091 E24.14147
G1 X121.428 Y78.597 E24.16483
G1 X121.262 Y79.145 E24.18818
G1 X121.206 Y79.716 E24.21154
G1 X121.262 Y80.286 E24.23490
G1 X121.428 Y80.835 E24.25825
G1 X121.699 Y81.340 E24.28161
G1 X122.062 Y81.783 E24.30496
G1 X122.505 Y82.147 E24.32832
G1 X123.011 Y82.417 E24.35167
G1 X123.560 Y82.584 E24.37503
G1 X124.130 Y82.640 E24.39838
G1 X124.845 Y82.570 E24.42766
G1 X124.845 Y130.207 E26.36860
G1 X122.394 Y130.207 E26.46847
G1 X121.819 Y130.793 E26.50191
G1 X121.481 Y130.161 E26.53111
G1 X121.118 Y129.718 E26.55447
G1 X120.675 Y129.354 E26.57783
G1 X120.169 Y129.084 E26.60118
G1 X119.620 Y128.918 E26.62454
G1 X119.050 Y128.862 E26.64789
G1 X118.480 Y128.918 E26.67125
G1 X117.931 Y129.084 E26.69460
G1 X117.425 Y129.354 E26.71796
G1 X116.982 Y129.718 E26.74131
G1 X116.619 Y130.161 E26.76467
G1 X116.348 Y130.667 E26.78803
G1 X116.182 Y131.215 E26.81138
G1 X116.126 Y131.786 E26.83474
G1 X116.206 Y132.603 E26.86820
G1 X93.954 Y132.603 E27.77486
G1 X94.034 Y131.786 E27.80832
G1 X93.978 Y131.215 E27.83167
G1 X93.812 Y130.667 E27.85503
G1 X93.541 Y130.161 E27.87839
G1 X93.178 Y129.718 E27.90174
G1 X92.735 Y129.354 E27.92510
G1 X92.229 Y129.084 E27.94845
G1 X91.680 Y128.918 E27.97181
G1 X91.110 Y128.862 E27.99516
G1 X90.540 Y128.918 E28.01852
G1 X89.991 Y129.084 E28.04187
G1 X89.485 Y129.354 E28.06523
G1 X89.042 Y129.718 E28.08859
G1 X88.679 Y130.161 E28.11194
G1 X88.408 Y130.667 E28.13530
G1 X88.183 Y131.410 E28.16692
G1 X87.004 Y130.207 E28.23552
G1 X76.431 Y130.207 E28.66630
G1 X75.155 Y128.906 E28.74057
G1 X75.155 Y83.840 E30.57675
G1 X75.870 Y83.910 E30.60602
G1 X76.440 Y83.854 E30.62937
G1 X76.989 Y83.687 E30.65273
G1 X77.495 Y83.417 E30.67608
G1 X77.938 Y83.053 E30.69944
G1 X78.301 Y82.610 E30.72280
G1 X78.572 Y82.105 E30.74615
G1 X78.738 Y81.556 E30.76951
G1 X78.794 Y80.986 E30.79286
G1 X78.738 Y80.415 E30.81622
G1 X78.572 Y79.867 E30.83957
G1 X78.301 Y79.361 E30.86293
G1 X77.938 Y78.918 E30.88628
G1 X77.495 Y78.554 E30.90964
G1 X76.989 Y78.284 E30.93300
G1 X76.440 Y78.118 E30.95635
G1 X75.870 Y78.062 E30.97971
G1 X75.155 Y78.132 E31.00898
G1 X75.155 Y67.623 E31.43715
G1 X75.155 Y67.221 F7800.000
G1 F1800.000 E30.43715
G92 E0
G1 X75.870 Y78.858 F7800.000
G1 E2.00000 F1800.000
G1 X76.285 Y78.899 E2.01699 F4800.000
G1 X76.684 Y79.020 E2.03399
G1 X77.052 Y79.217 E2.05098
G1 X77.374 Y79.481 E2.06797
G1 X77.639 Y79.804 E2.08497
G1 X77.836 Y80.172 E2.10196
G1 X77.957 Y80.571 E2.11895
G1 X77.998 Y80.986 E2.13594
G1 X77.957 Y81.401 E2.15294
G1 X77.836 Y81.800 E2.16993
G1 X77.639 Y82.168 E2.18692
G1 X77.374 Y82.490 E2.20392
G1 X77.052 Y82.755 E2.22091
G1 X76.684 Y82.951 E2.23790
G1 X76.285 Y83.073 E2.25490
G1 X75.870 Y83.113 E2.27189
G1 X75.455 Y83.073 E2.28888
G1 X75.056 Y82.951 E2.30588
G1 X74.688 Y82.755 E2.32287
G1 X74.366 Y82.490 E2.33986
G1 X74.101 Y82.168 E2.35686
G1 X73.904 Y81.800 E2.37385
G1 X73.783 Y81.401 E2.39084
G1 X73.742 Y80.986 E2.40783
G1 X73.783 Y80.571 E2.42483
G1 X73.904 Y80.172 E2.44182
G1 X74.101 Y79.804 E2.45881
G1 X74.366 Y79.481 E2.47581
G1 X74.688 Y79.217 E2.49280
G1 X75.056 Y79.020 E2.50979
G1 X75.455 Y78.899 E2.52679
G1 X75.818 Y78.863 E2.54164
G1 X75.870 Y79.210 F7800.000
G1 X76.216 Y79.244 E2.55582 F4800.000
G1 X76.550 Y79.345 E2.57001
G1 X76.857 Y79.509 E2.58419
G1 X77.126 Y79.730 E2.59838
G1 X77.347 Y79.999 E2.61256
G1 X77.511 Y80.306 E2.62674
G1 X77.612 Y80.639 E2.64093
G1 X77.646 Y80.986 E2.65511
G1 X77.612 Y81.332 E2.66929
G1 X77.511 Y81.665 E2.68348
G1 X77.347 Y81.972 E2.69766
G1 X77.126 Y82.242 E2.71185
G1 X76.857 Y82.462 E2.72603
G1 X76.550 Y82.626 E2.74022
G1 X76.216 Y82.728 E2.75440
G1 X75.870 Y82.762 E2.76858
G1 X75.524 Y82.728 E2.78277
G1 X75.190 Y82.626 E2.79695
G1 X74.883 Y82.462 E2.81114
G1 X74.614 Y82.242 E2.82532
G1 X74.393 Y81.972 E2.83951
G1 X74.229 Y81.665 E2.85369
G1 X74.128 Y81.332 E2.86787
G1 X74.094 Y80.986 E2.88206
G1 X74.128 Y80.639 E2.89624
G1 X74.229 Y80.306 E2.91042
G1 X74.393 Y79.999 E2.92461
G1 X74.614 Y79.730 E2.93879
G1 X74.883 Y79.509 E2.95298
G1 X75.190 Y79.345 E2.96716
G1 X75.524 Y79.244 E2.98134
G1 X75.818 Y79.215 E2.99339
G1 X76.054 Y78.914 F7800.000
G1 F1800.000 E1.99339
G92 E0
G1 X122.002 Y79.716 F7800.000
G1 E2.00000 F1800.000
G1 X122.043 Y79.301 E2.01699 F4800.000
G1 X122.164 Y78.902 E2.03399
G1 X122.361 Y78.534 E2.05098
G1 X122.626 Y78.211 E2.06797
G1 X122.948 Y77.947 E2.08497
G1 X123.316 Y77.750 E2.10196
G1 X123.715 Y77.629 E2.11895
G1 X124.682 Y77.534 E2.15856
G1 X124.682 Y77.671 E2.16414
G1 X124.944 Y77.750 E2.17528
G1 X125.312 Y77.947 E2.19227
G1 X125.634 Y78.211 E2.20927
G1 X125.899 Y78.534 E2.22627
G1 X126.096 Y78.902 E2.24326
G1 X126.217 Y79.301 E2.26025
G1 X126.258 Y79.716 E2.27724
G1 X126.217 Y80.131 E2.29423
G1 X126.096 Y80.530 E2.31123
G1 X125.899 Y80.898 E2.32822
G1 X125.634 Y81.220 E2.34522
G1 X125.312 Y81.485 E2.36221
G1 X124.944 Y81.681 E2.37920
G1 X124.545 Y81.803 E2.39620
G1 X124.130 Y81.843 E2.41319
G1 X123.715 Y81.803 E2.43018
G1 X123.316 Y81.681 E2.44717
G1 X122.948 Y81.485 E2.46416
G1 X122.626 Y81.220 E2.48116
G1 X122.361 Y80.898 E2.49816
G1 X122.164 Y80.530 E2.51515
G1 X122.043 Y80.131 E2.53214
G1 X122.008 Y79.768 E2.54699
G1 X122.354 Y79.716 F7800.000
G1 X122.388 Y79.369 E2.56118 F4800.000
G1 X122.489 Y79.036 E2.57536
G1 X122.653 Y78.729 E2.58954
G1 X122.874 Y78.460 E2.60373
G1 X123.143 Y78.239 E2.61792
G1 X123.450 Y78.075 E2.63210
G1 X123.784 Y77.974 E2.64629
G1 X124.332 Y77.920 E2.66876
G1 X124.332 Y77.960 E2.67038
G1 X124.476 Y77.974 E2.67627
G1 X124.810 Y78.075 E2.69046
G1 X125.117 Y78.239 E2.70464
G1 X125.386 Y78.460 E2.71883
G1 X125.607 Y78.729 E2.73301
G1 X125.771 Y79.036 E2.74719
G1 X125.872 Y79.369 E2.76138
G1 X125.906 Y79.716 E2.77556
G1 X125.872 Y80.062 E2.78974
G1 X125.771 Y80.395 E2.80393
G1 X125.607 Y80.702 E2.81811
G1 X125.386 Y80.972 E2.83230
G1 X125.117 Y81.192 E2.84649
G1 X124.810 Y81.356 E2.86067
G1 X124.476 Y81.458 E2.87485
G1 X124.130 Y81.492 E2.88904
G1 X123.784 Y81.458 E2.90322
G1 X123.450 Y81.356 E2.91740
G1 X123.143 Y81.192 E2.93159
G1 X122.874 Y80.972 E2.94577
G1 X122.653 Y80.702 E2.95996
G1 X122.489 Y80.395 E2.97414
G1 X122.388 Y80.062 E2.98833
G1 X122.359 Y79.768 E3.00037
G1 X122.059 Y79.532 F7800.000
G1 F1800.000 E2.00037
G92 E0
G1 X119.050 Y129.658 F7800.000
G1 E2.00000 F1800.000
G1 X119.465 Y129.699 E2.01699 F4800.000
G1 X119.864 Y129.820 E2.03399
G1 X120.232 Y130.017 E2.05098
G1 X120.554 Y130.281 E2.06797
G1 X120.819 Y130.604 E2.08497
G1 X121.016 Y130.972 E2.10196
G1 X121.137 Y131.371 E2.11895
G1 X121.178 Y131.786 E2.13594
G1 X121.137 Y132.201 E2.15294
G1 X121.016 Y132.600 E2.16993
G1 X120.819 Y132.968 E2.18692
G1 X120.554 Y133.290 E2.20392
G1 X120.232 Y133.555 E2.22091
G1 X119.864 Y133.751 E2.23790
G1 X119.465 Y133.873 E2.25490
G1 X119.050 Y133.913 E2.27189
G1 X118.635 Y133.873 E2.28888
G1 X118.236 Y133.751 E2.30588
G1 X117.868 Y133.555 E2.32287
G1 X117.546 Y133.290 E2.33986
G1 X117.281 Y132.968 E2.35686
G1 X117.084 Y132.600 E2.37385
G1 X116.963 Y132.201 E2.39084
G1 X116.922 Y131.786 E2.40784
G1 X116.963 Y131.371 E2.42483
G1 X117.084 Y130.972 E2.44182
G1 X117.281 Y130.604 E2.45881
G1 X117.546 Y130.281 E2.47581
G1 X117.868 Y130.017 E2.49280
G1 X118.236 Y129.820 E2.50980
G1 X118.635 Y129.699 E2.52679
G1 X118.998 Y129.663 E2.54164
G1 X119.050 Y130.010 F7800.000
G1 X119.396 Y130.044 E2.55582 F4800.000
G1 X119.730 Y130.145 E2.57001
G1 X120.037 Y130.309 E2.58419
G1 X120.306 Y130.530 E2.59838
G1 X120.527 Y130.799 E2.61256
G1 X120.691 Y131.106 E2.62675
G1 X120.792 Y131.439 E2.64093
G1 X120.826 Y131.786 E2.65511
G1 X120.792 Y132.132 E2.66930
G1 X120.691 Y132.465 E2.68348
G1 X120.527 Y132.772 E2.69767
G1 X120.306 Y133.042 E2.71185
G1 X120.037 Y133.262 E2.72604
G1 X119.730 Y133.426 E2.74022
G1 X119.396 Y133.528 E2.75441
G1 X119.050 Y133.562 E2.76859
G1 X118.704 Y133.528 E2.78277
G1 X118.370 Y133.426 E2.79696
G1 X118.063 Y133.262 E2.81114
G1 X117.794 Y133.042 E2.82532
G1 X117.573 Y132.772 E2.83951
G1 X117.409 Y132.465 E2.85369
G1 X117.308 Y132.132 E2.86788
G1 X117.274 Y131.786 E2.88206
G1 X117.308 Y131.439 E2.89624
G1 X117.409 Y131.106 E2.91043
G1 X117.573 Y130.799 E2.92461
G1 X117.794 Y130.530 E2.93880
G1 X118.063 Y130.309 E2.95298
G1 X118.370 Y130.145 E2.96717
G1 X118.704 Y130.044 E2.98135
G1 X118.998 Y130.015 E2.99340
G1 X119.234 Y129.714 F7800.000
G1 F1800.000 E1.99340
G92 E0
G1 X93.238 Y131.786 F7800.000
G1 E2.00000 F1800.000
G1 X93.197 Y132.201 E2.01699 F4800.000
G1 X93.076 Y132.600 E2.03399
G1 X92.879 Y132.968 E2.05098
