; generated by Slic3r 1.0.0RC2 on 2014-10-13 at 04:47:42

; layer_height = 0.35
; perimeters = 3
; top_solid_layers = 3
; bottom_solid_layers = 3
; fill_density = 0.4
; perimeter_speed = 100
; infill_speed = 100
; travel_speed = 130
; nozzle_diameter = 0.35
; filament_diameter = 1.75
; extrusion_multiplier = 0.8
; perimeters extrusion width = 0.35mm
; infill extrusion width = 0.37mm
; solid infill extrusion width = 0.37mm
; top infill extrusion width = 0.37mm

G21 ; set units to millimeters
M107
M190 S50 ; wait for bed temperature to be reached
M104 S235 ; set temperature
G28 ; home all axes
G1 Z5 F5000 ; lift nozzle
M109 S235 ; wait for temperature to be reached
G90 ; use absolute coordinates
G92 E0
M82 ; use absolute distances for extrusion
G1 F1800.000 E-1.00000
G92 E0
G1 Z0.350 F7800.000
G1 X67.190 Y59.691 F7800.000
G1 E2.00000 F1800.000
G1 X68.210 Y58.861 E2.05358 F4800.000
G1 X69.370 Y58.241 E2.10717
G1 X70.620 Y57.861 E2.16040
G1 X71.930 Y57.731 E2.21404
G1 X128.070 Y57.731 E4.50139
G1 X129.380 Y57.861 E4.55502
G1 X130.630 Y58.241 E4.60825
G1 X131.790 Y58.861 E4.66184
G1 X132.810 Y59.691 E4.71542
G1 X133.640 Y60.711 E4.76900
G1 X134.260 Y61.871 E4.82259
G1 X134.640 Y63.121 E4.87582
G1 X134.770 Y64.431 E4.92946
G1 X134.770 Y132.931 E7.72040
G1 X134.600 Y134.411 E7.78110
G1 X134.120 Y135.821 E7.84178
G1 X133.330 Y137.081 E7.90238
G1 X132.280 Y138.141 E7.96317
G1 X131.030 Y138.941 E8.02363
G1 X125.680 Y141.571 E8.26653
G1 X124.240 Y142.091 E8.32890
G1 X122.720 Y142.261 E8.39122
G1 X87.970 Y142.261 E9.80706
G1 X87.380 Y142.231 E9.83113
G1 X86.790 Y142.161 E9.85534
G1 X72.080 Y139.531 E10.46418
G1 X70.780 Y139.161 E10.51925
G1 X69.590 Y138.531 E10.57411
G1 X68.540 Y137.691 E10.62890
G1 X67.210 Y136.371 E10.70525
G1 X66.370 Y135.351 E10.75909
G1 X65.740 Y134.191 E10.81287
G1 X65.360 Y132.921 E10.86688
G1 X65.230 Y131.611 E10.92052
G1 X65.230 Y64.431 E13.65768
G1 X65.360 Y63.121 E13.71131
G1 X65.740 Y61.871 E13.76454
G1 X66.360 Y60.711 E13.81813
G1 X67.157 Y59.732 E13.86957
G1 X67.440 Y59.941 F7800.000
G1 X68.400 Y59.151 E13.92023 F4800.000
G1 X69.500 Y58.561 E13.97109
G1 X70.690 Y58.201 E14.02174
G1 X71.930 Y58.081 E14.07250
G1 X128.070 Y58.081 E16.35985
G1 X129.310 Y58.201 E16.41061
G1 X130.500 Y58.561 E16.46126
G1 X131.600 Y59.151 E16.51212
G1 X132.560 Y59.941 E16.56277
G1 X133.350 Y60.901 E16.61343
G1 X133.940 Y62.001 E16.66429
G1 X134.300 Y63.191 E16.71494
G1 X134.420 Y64.431 E16.76570
G1 X134.420 Y132.931 E19.55664
G1 X134.260 Y134.331 E19.61405
G1 X133.800 Y135.671 E19.67178
G1 X133.050 Y136.861 E19.72909
G1 X132.060 Y137.871 E19.78671
G1 X130.870 Y138.631 E19.84424
G1 X125.520 Y141.261 E20.08713
G1 X124.160 Y141.751 E20.14603
G1 X122.720 Y141.911 E20.20506
G1 X87.970 Y141.911 E21.62091
G1 X87.410 Y141.891 E21.64374
G1 X86.850 Y141.811 E21.66679
G1 X72.140 Y139.181 E22.27563
G1 X70.910 Y138.831 E22.32773
G1 X69.780 Y138.241 E22.37967
G1 X68.790 Y137.441 E22.43153
G1 X67.460 Y136.121 E22.50788
G1 X66.660 Y135.151 E22.55911
G1 X66.070 Y134.051 E22.60997
G1 X65.700 Y132.851 E22.66113
G1 X65.580 Y131.611 E22.71189
G1 X65.580 Y64.431 E25.44905
G1 X65.700 Y63.191 E25.49980
G1 X66.060 Y62.001 E25.55046
G1 X66.650 Y60.901 E25.60132
G1 X67.407 Y59.982 E25.64983
G1 F1800.000 E24.64983
G92 E0
G1 X74.455 Y66.956 F7800.000
G1 E2.00000 F1800.000
G1 X125.545 Y66.956 E4.08159 F4800.000
G1 X125.545 Y77.771 E4.52221
G1 X125.883 Y78.048 E4.54003
G1 X126.192 Y78.424 E4.55984
G1 X126.420 Y78.852 E4.57964
G1 X126.562 Y79.318 E4.59944
G1 X126.609 Y79.801 E4.61924
G1 X126.562 Y80.285 E4.63904
G1 X126.420 Y80.750 E4.65885
G1 X126.191 Y81.179 E4.67864
G1 X125.883 Y81.554 E4.69845
G1 X125.545 Y81.832 E4.71627
G1 X125.545 Y131.228 E6.72885
G1 X122.689 Y131.228 E6.84522
G1 X121.734 Y132.205 E6.90088
G1 X121.602 Y131.958 E6.91229
G1 X121.340 Y132.820 E6.94900
G1 X121.111 Y133.249 E6.96880
G1 X120.803 Y133.624 E6.98860
G1 X120.427 Y133.933 E7.00841
G1 X119.999 Y134.162 E7.02821
G1 X119.534 Y134.303 E7.04801
G1 X119.050 Y134.350 E7.06781
G1 X118.566 Y134.303 E7.08761
G1 X118.101 Y134.162 E7.10742
G1 X117.673 Y133.933 E7.12721
G1 X117.307 Y133.633 E7.14649
G1 X92.853 Y133.633 E8.14283
G1 X92.487 Y133.933 E8.16211
G1 X92.059 Y134.162 E8.18191
G1 X91.594 Y134.303 E8.20171
G1 X91.110 Y134.350 E8.22151
G1 X90.626 Y134.303 E8.24131
G1 X90.161 Y134.162 E8.26112
G1 X89.733 Y133.933 E8.28091
G1 X89.357 Y133.624 E8.30072
G1 X89.049 Y133.249 E8.32053
G1 X88.624 Y132.454 E8.35724
G1 X88.454 Y133.013 E8.38107
G1 X86.709 Y131.228 E8.48279
G1 X76.136 Y131.228 E8.91357
G1 X74.455 Y129.507 E9.01159
G1 X74.455 Y83.102 E10.90231
G1 X74.117 Y82.824 E10.92013
G1 X73.809 Y82.449 E10.93994
G1 X73.579 Y82.020 E10.95974
G1 X73.438 Y81.555 E10.97954
G1 X73.391 Y81.071 E10.99934
G1 X73.438 Y80.588 E11.01914
G1 X73.579 Y80.122 E11.03895
G1 X73.809 Y79.694 E11.05875
G1 X74.117 Y79.318 E11.07855
G1 X74.455 Y79.041 E11.09637
G1 X74.455 Y67.009 E11.58659
G1 X74.805 Y67.306 F7800.000
G1 X125.195 Y67.306 E13.63967 F4800.000
G1 X125.195 Y77.334 E14.04822
G1 X124.130 Y77.229 E14.09183
G1 X123.628 Y77.278 E14.11237
G1 X123.146 Y77.425 E14.13292
G1 X122.701 Y77.662 E14.15346
G1 X122.311 Y77.982 E14.17401
G1 X121.991 Y78.372 E14.19456
G1 X121.753 Y78.817 E14.21510
G1 X121.607 Y79.299 E14.23565
G1 X121.558 Y79.801 E14.25620
G1 X121.607 Y80.303 E14.27674
G1 X121.753 Y80.786 E14.29729
G1 X121.991 Y81.230 E14.31784
G1 X122.311 Y81.620 E14.33838
G1 X122.701 Y81.940 E14.35893
G1 X123.146 Y82.178 E14.37948
G1 X123.628 Y82.324 E14.40002
G1 X124.130 Y82.374 E14.42057
G1 X125.195 Y82.269 E14.46417
G1 X125.195 Y130.878 E16.44468
G1 X122.542 Y130.878 E16.55280
G1 X121.818 Y131.619 E16.59500
G1 X121.189 Y130.442 E16.64935
G1 X120.869 Y130.052 E16.66990
G1 X120.479 Y129.732 E16.69045
G1 X120.034 Y129.495 E16.71099
G1 X119.552 Y129.348 E16.73154
G1 X119.050 Y129.299 E16.75209
G1 X118.548 Y129.348 E16.77263
G1 X118.066 Y129.495 E16.79318
G1 X117.621 Y129.732 E16.81373
G1 X117.231 Y130.052 E16.83427
G1 X116.911 Y130.442 E16.85482
G1 X116.673 Y130.887 E16.87537
G1 X116.527 Y131.369 E16.89591
G1 X116.478 Y131.871 E16.91646
G1 X116.527 Y132.373 E16.93701
G1 X116.803 Y133.283 E16.97573
G1 X93.357 Y133.283 E17.93100
G1 X93.633 Y132.373 E17.96972
G1 X93.682 Y131.871 E17.99026
G1 X93.633 Y131.369 E18.01081
G1 X93.487 Y130.887 E18.03136
G1 X93.249 Y130.442 E18.05190
G1 X92.929 Y130.052 E18.07245
G1 X92.539 Y129.732 E18.09300
G1 X92.094 Y129.495 E18.11354
G1 X91.612 Y129.348 E18.13409
G1 X91.110 Y129.299 E18.15464
G1 X90.608 Y129.348 E18.17518
G1 X90.126 Y129.495 E18.19573
G1 X89.681 Y129.732 E18.21628
G1 X89.291 Y130.052 E18.23682
G1 X88.971 Y130.442 E18.25737
G1 X88.733 Y130.887 E18.27792
G1 X88.291 Y132.346 E18.34003
G1 X86.857 Y130.878 E18.42365
G1 X76.284 Y130.878 E18.85442
G1 X74.805 Y129.364 E18.94063
G1 X74.805 Y83.539 E20.80774
G1 X75.870 Y83.644 E20.85134
G1 X76.372 Y83.594 E20.87189
G1 X76.854 Y83.448 E20.89243
G1 X77.299 Y83.210 E20.91298
G1 X77.689 Y82.890 E20.93353
G1 X78.009 Y82.500 E20.95407
G1 X78.247 Y82.056 E20.97462
G1 X78.393 Y81.573 E20.99516
G1 X78.442 Y81.071 E21.01571
G1 X78.393 Y80.569 E21.03626
G1 X78.247 Y80.087 E21.05680
G1 X78.009 Y79.642 E21.07735
G1 X77.689 Y79.252 E21.09790
G1 X77.299 Y78.932 E21.11845
G1 X76.854 Y78.695 E21.13899
G1 X76.372 Y78.548 E21.15954
G1 X75.870 Y78.499 E21.18009
G1 X74.805 Y78.604 E21.22369
G1 X74.805 Y67.359 E21.68185
G1 X75.155 Y67.656 F7800.000
G1 X124.845 Y67.656 E23.70640 F4320.000
G1 X124.845 Y76.947 E24.08496
G1 X124.130 Y76.877 E24.11423
G1 X123.560 Y76.933 E24.13759
G1 X123.011 Y77.100 E24.16095
G1 X122.505 Y77.370 E24.18430
G1 X122.062 Y77.734 E24.20766
G1 X121.699 Y78.177 E24.23101
G1 X121.428 Y78.682 E24.25437
G1 X121.262 Y79.231 E24.27772
G1 X121.206 Y79.801 E24.30108
G1 X121.262 Y80.372 E24.32444
G1 X121.428 Y80.920 E24.34779
G1 X121.699 Y81.426 E24.37115
G1 X122.062 Y81.869 E24.39450
G1 X122.505 Y82.233 E24.41786
G1 X123.011 Y82.503 E24.44121
G1 X123.560 Y82.669 E24.46457
G1 X124.130 Y82.725 E24.48792
G1 X124.845 Y82.655 E24.51720
G1 X124.845 Y130.528 E26.46771
G1 X122.394 Y130.528 E26.56757
G1 X121.901 Y131.032 E26.59631
G1 X121.481 Y130.247 E26.63261
G1 X121.118 Y129.804 E26.65596
G1 X120.675 Y129.440 E26.67932
G1 X120.169 Y129.170 E26.70267
G1 X119.620 Y129.003 E26.72603
G1 X119.050 Y128.947 E26.74938
G1 X118.480 Y129.003 E26.77274
G1 X117.931 Y129.170 E26.79610
G1 X117.425 Y129.440 E26.81945
G1 X116.982 Y129.804 E26.84281
G1 X116.619 Y130.247 E26.86616
G1 X116.348 Y130.752 E26.88952
G1 X116.182 Y131.301 E26.91287
G1 X116.126 Y131.871 E26.93623
G1 X116.182 Y132.442 E26.95959
G1 X116.331 Y132.933 E26.98048
G1 X93.829 Y132.933 E27.89729
G1 X93.978 Y132.442 E27.91819
G1 X94.034 Y131.871 E27.94155
G1 X93.978 Y131.301 E27.96490
G1 X93.812 Y130.752 E27.98826
G1 X93.541 Y130.247 E28.01162
G1 X93.178 Y129.804 E28.03497
G1 X92.735 Y129.440 E28.05833
G1 X92.229 Y129.170 E28.08168
G1 X91.680 Y129.003 E28.10504
G1 X91.110 Y128.947 E28.12839
G1 X90.540 Y129.003 E28.15175
G1 X89.991 Y129.170 E28.17510
G1 X89.485 Y129.440 E28.19846
G1 X89.042 Y129.804 E28.22182
G1 X88.679 Y130.247 E28.24517
G1 X88.408 Y130.752 E28.26853
G1 X88.128 Y131.678 E28.30794
G1 X87.004 Y130.528 E28.37345
G1 X76.431 Y130.528 E28.80423
G1 X75.155 Y129.222 E28.87862
G1 X75.155 Y83.925 E30.72418
G1 X75.870 Y83.995 E30.75346
G1 X76.440 Y83.939 E30.77681
G1 X76.989 Y83.773 E30.80017
G1 X77.495 Y83.503 E30.82352
G1 X77.938 Y83.139 E30.84688
G1 X78.301 Y82.696 E30.87023
G1 X78.572 Y82.190 E30.89359
G1 X78.738 Y81.642 E30.91695
G1 X78.794 Y81.071 E30.94030
G1 X78.738 Y80.501 E30.96366
G1 X78.572 Y79.952 E30.98701
G1 X78.301 Y79.447 E31.01037
G1 X77.938 Y79.004 E31.03372
G1 X77.495 Y78.640 E31.05708
G1 X76.989 Y78.370 E31.08043
G1 X76.440 Y78.203 E31.10379
G1 X75.870 Y78.147 E31.12715
G1 X75.155 Y78.217 E31.15642
G1 X75.155 Y67.709 E31.58459
G1 X75.155 Y67.306 F7800.000
G1 F1800.000 E30.58459
G92 E0
G1 X75.870 Y78.944 F7800.000
G1 E2.00000 F1800.000
G1 X76.285 Y78.984 E2.01699 F4800.000
G1 X76.684 Y79.106 E2.03399
G1 X77.052 Y79.302 E2.05098
G1 X77.374 Y79.567 E2.06797
G1 X77.639 Y79.889 E2.08497
G1 X77.836 Y80.257 E2.10196
G1 X77.957 Y80.656 E2.11895
G1 X77.998 Y81.071 E2.13594
G1 X77.957 Y81.486 E2.15294
G1 X77.836 Y81.885 E2.16993
G1 X77.639 Y82.253 E2.18692
G1 X77.374 Y82.576 E2.20392
G1 X77.052 Y82.840 E2.22091
G1 X76.684 Y83.037 E2.23790
G1 X76.285 Y83.158 E2.25490
G1 X75.870 Y83.199 E2.27189
G1 X75.455 Y83.158 E2.28888
G1 X75.056 Y83.037 E2.30588
G1 X74.688 Y82.840 E2.32287
G1 X74.366 Y82.576 E2.33986
G1 X74.101 Y82.253 E2.35686
G1 X73.904 Y81.885 E2.37385
G1 X73.783 Y81.486 E2.39084
G1 X73.742 Y81.071 E2.40783
G1 X73.783 Y80.656 E2.42483
G1 X73.904 Y80.257 E2.44182
G1 X74.101 Y79.889 E2.45881
G1 X74.366 Y79.567 E2.47581
G1 X74.688 Y79.302 E2.49280
G1 X75.056 Y79.106 E2.50979
G1 X75.455 Y78.984 E2.52679
G1 X75.818 Y78.949 E2.54164
G1 X75.870 Y79.295 F7800.000
G1 X76.216 Y79.329 E2.55582 F4800.000
G1 X76.550 Y79.431 E2.57001
G1 X76.857 Y79.595 E2.58419
G1 X77.126 Y79.815 E2.59838
G1 X77.347 Y80.085 E2.61256
G1 X77.511 Y80.392 E2.62674
G1 X77.612 Y80.725 E2.64093
G1 X77.646 Y81.071 E2.65511
G1 X77.612 Y81.418 E2.66929
G1 X77.511 Y81.751 E2.68348
G1 X77.347 Y82.058 E2.69766
G1 X77.126 Y82.327 E2.71185
G1 X76.857 Y82.548 E2.72603
G1 X76.550 Y82.712 E2.74022
G1 X76.216 Y82.813 E2.75440
G1 X75.870 Y82.847 E2.76858
G1 X75.524 Y82.813 E2.78277
G1 X75.190 Y82.712 E2.79695
G1 X74.883 Y82.548 E2.81114
G1 X74.614 Y82.327 E2.82532
G1 X74.393 Y82.058 E2.83951
G1 X74.229 Y81.751 E2.85369
G1 X74.128 Y81.418 E2.86787
G1 X74.094 Y81.071 E2.88206
G1 X74.128 Y80.725 E2.89624
G1 X74.229 Y80.392 E2.91042
G1 X74.393 Y80.085 E2.92461
G1 X74.614 Y79.815 E2.93879
G1 X74.883 Y79.595 E2.95298
G1 X75.190 Y79.431 E2.96716
G1 X75.524 Y79.329 E2.98134
G1 X75.818 Y79.300 E2.99339
G1 X76.054 Y79.000 F7800.000
G1 F1800.000 E1.99339
G92 E0
G1 X122.002 Y79.801 F7800.000
G1 E2.00000 F1800.000
G1 X122.043 Y79.386 E2.01699 F4800.000
G1 X122.164 Y78.987 E2.03399
G1 X122.361 Y78.619 E2.05098
G1 X122.626 Y78.297 E2.06797
G1 X122.948 Y78.032 E2.08497
G1 X123.316 Y77.836 E2.10196
G1 X123.715 Y77.714 E2.11895
G1 X124.682 Y77.619 E2.15856
G1 X124.682 Y77.756 E2.16414
G1 X124.944 Y77.836 E2.17528
G1 X125.312 Y78.032 E2.19227
G1 X125.634 Y78.297 E2.20927
G1 X125.899 Y78.619 E2.22627
G1 X126.096 Y78.987 E2.24326
G1 X126.217 Y79.386 E2.26025
G1 X126.258 Y79.801 E2.27724
G1 X126.217 Y80.216 E2.29423
G1 X126.096 Y80.615 E2.31123
G1 X125.899 Y80.983 E2.32822
G1 X125.634 Y81.306 E2.34522
G1 X125.312 Y81.570 E2.36221
G1 X124.944 Y81.767 E2.37920
G1 X124.545 Y81.888 E2.39620
G1 X124.130 Y81.929 E2.41319
G1 X123.715 Y81.888 E2.43018
G1 X123.316 Y81.767 E2.44717
G1 X122.948 Y81.570 E2.46416
G1 X122.626 Y81.306 E2.48116
G1 X122.361 Y80.983 E2.49816
G1 X122.164 Y80.615 E2.51515
G1 X122.043 Y80.216 E2.53214
G1 X122.008 Y79.853 E2.54699
G1 X122.354 Y79.801 F7800.000
G1 X122.388 Y79.455 E2.56118 F4800.000
G1 X122.489 Y79.122 E2.57536
G1 X122.653 Y78.815 E2.58954
G1 X122.874 Y78.545 E2.60373
G1 X123.143 Y78.325 E2.61792
G1 X123.450 Y78.161 E2.63210
G1 X123.784 Y78.059 E2.64629
G1 X124.332 Y78.005 E2.66876
G1 X124.332 Y78.045 E2.67038
G1 X124.476 Y78.059 E2.67627
G1 X124.810 Y78.161 E2.69046
G1 X125.117 Y78.325 E2.70464
G1 X125.386 Y78.545 E2.71883
G1 X125.607 Y78.815 E2.73301
G1 X125.771 Y79.122 E2.74719
G1 X125.872 Y79.455 E2.76138
G1 X125.906 Y79.801 E2.77556
G1 X125.872 Y80.148 E2.78974
G1 X125.771 Y80.481 E2.80393
G1 X125.607 Y80.788 E2.81811
G1 X125.386 Y81.057 E2.83230
G1 X125.117 Y81.278 E2.84649
G1 X124.810 Y81.442 E2.86067
G1 X124.476 Y81.543 E2.87485
G1 X124.130 Y81.577 E2.88904
G1 X123.784 Y81.543 E2.90322
G1 X123.450 Y81.442 E2.91740
G1 X123.143 Y81.278 E2.93159
G1 X122.874 Y81.057 E2.94577
G1 X122.653 Y80.788 E2.95996
G1 X122.489 Y80.481 E2.97414
G1 X122.388 Y80.148 E2.98833
G1 X122.359 Y79.853 E3.00037
G1 X122.059 Y79.617 F7800.000
G1 F1800.000 E2.00037
G92 E0
G1 X119.050 Y129.744 F7800.000
G1 E2.00000 F1800.000
G1 X119.465 Y129.784 E2.01699 F4800.000
G1 X119.864 Y129.906 E2.03399
G1 X120.232 Y130.102 E2.05098
G1 X120.554 Y130.367 E2.06797
G1 X120.819 Y130.689 E2.08497
G1 X121.016 Y131.057 E2.10196
G1 X121.137 Y131.456 E2.11895
G1 X121.178 Y131.871 E2.13594
G1 X121.137 Y132.286 E2.15294
G1 X121.016 Y132.685 E2.16993
G1 X120.819 Y133.053 E2.18692
G1 X120.554 Y133.376 E2.20392
G1 X120.232 Y133.640 E2.22091
G1 X119.864 Y133.837 E2.23790
G1 X119.465 Y133.958 E2.25490
G1 X119.050 Y133.999 E2.27189
G1 X118.635 Y133.958 E2.28888
G1 X118.236 Y133.837 E2.30588
G1 X117.868 Y133.640 E2.32287
G1 X117.546 Y133.376 E2.33986
G1 X117.281 Y133.053 E2.35686
G1 X117.084 Y132.685 E2.37385
G1 X116.963 Y132.286 E2.39084
G1 X116.922 Y131.871 E2.40784
G1 X116.963 Y131.456 E2.42483
G1 X117.084 Y131.057 E2.44182
G1 X117.281 Y130.689 E2.45881
G1 X117.546 Y130.367 E2.47581
G1 X117.868 Y130.102 E2.49280
G1 X118.236 Y129.906 E2.50980
G1 X118.635 Y129.784 E2.52679
G1 X118.998 Y129.749 E2.54164
G1 X119.050 Y130.095 F7800.000
G1 X119.396 Y130.129 E2.55582 F4800.000
G1 X119.730 Y130.231 E2.57001
G1 X120.037 Y130.395 E2.58419
G1 X120.306 Y130.615 E2.59838
G1 X120.527 Y130.885 E2.61256
G1 X120.691 Y131.192 E2.62675
G1 X120.792 Y131.525 E2.64093
G1 X120.826 Y131.871 E2.65511
G1 X120.792 Y132.218 E2.66930
G1 X120.691 Y132.551 E2.68348
G1 X120.527 Y132.858 E2.69767
G1 X120.306 Y133.127 E2.71185
G1 X120.037 Y133.348 E2.72604
G1 X119.730 Y133.512 E2.74022
G1 X119.396 Y133.613 E2.75441
G1 X119.050 Y133.647 E2.76859
G1 X118.704 Y133.613 E2.78277
G1 X118.370 Y133.512 E2.79696
G1 X118.063 Y133.348 E2.81114
G1 X117.794 Y133.127 E2.82532
G1 X117.573 Y132.858 E2.83951
G1 X117.409 Y132.551 E2.85369
G1 X117.308 Y132.218 E2.86788
G1 X117.274 Y131.871 E2.88206
G1 X117.308 Y131.525 E2.89624
G1 X117.409 Y131.192 E2.91043
G1 X117.573 Y130.885 E2.92461
G1 X117.794 Y130.615 E2.93880
G1 X118.063 Y130.395 E2.95298
G1 X118.370 Y130.231 E2.96717
G1 X118.704 Y130.129 E2.98135
G1 X118.998 Y130.100 E2.99340
G1 X119.234 Y129.800 F7800.000
G1 F1800.000 E1.99340
G92 E0
G1 X93.238 Y131.871 F7800.000
G1 E2.00000 F1800.000
G1 X93.197 Y132.286 E2.01699 F4800.000
