; generated by Slic3r 1.0.0RC2 on 2014-10-13 at 04:27:09

; layer_height = 0.35
; perimeters = 3
; top_solid_layers = 3
; bottom_solid_layers = 3
; fill_density = 0.4
; perimeter_speed = 100
; infill_speed = 100
; travel_speed = 130
; nozzle_diameter = 0.35
; filament_diameter = 1.75
; extrusion_multiplier = 0.8
; perimeters extrusion width = 0.35mm
; infill extrusion width = 0.37mm
; solid infill extrusion width = 0.37mm
; top infill extrusion width = 0.37mm

G21 ; set units to millimeters
M107
M190 S50 ; wait for bed temperature to be reached
M104 S235 ; set temperature
G28 ; home all axes
G1 Z5 F5000 ; lift nozzle
M109 S235 ; wait for temperature to be reached
G90 ; use absolute coordinates
G92 E0
M82 ; use absolute distances for extrusion
G1 F1800.000 E-1.00000
G92 E0
G1 Z0.350 F7800.000
G1 X66.360 Y44.105 F7800.000
G1 E2.00000 F1800.000
G1 X67.190 Y43.084 E2.05358 F4800.000
G1 X68.210 Y42.255 E2.10716
G1 X69.370 Y41.635 E2.16075
G1 X70.620 Y41.255 E2.21398
G1 X71.930 Y41.124 E2.26762
G1 X128.070 Y41.124 E4.55496
G1 X129.380 Y41.255 E4.60860
G1 X130.630 Y41.635 E4.66183
G1 X131.790 Y42.255 E4.71542
G1 X132.810 Y43.084 E4.76900
G1 X133.640 Y44.105 E4.82258
G1 X134.260 Y45.264 E4.87617
G1 X134.640 Y46.514 E4.92940
G1 X134.770 Y47.825 E4.98304
G1 X134.770 Y149.565 E9.12830
G1 X134.640 Y150.885 E9.18234
G1 X134.250 Y152.154 E9.23647
G1 X133.610 Y153.325 E9.29080
G1 X132.760 Y154.344 E9.34490
G1 X131.720 Y155.185 E9.39937
G1 X127.710 Y157.795 E9.59431
G1 X126.570 Y158.385 E9.64661
G1 X125.340 Y158.755 E9.69894
G1 X124.060 Y158.875 E9.75133
G1 X87.970 Y158.875 E11.22176
G1 X87.330 Y158.844 E11.24787
G1 X86.690 Y158.755 E11.27420
G1 X73.320 Y156.144 E11.82923
G1 X72.070 Y155.774 E11.88234
G1 X70.930 Y155.164 E11.93502
G1 X69.920 Y154.355 E11.98777
G1 X67.250 Y151.745 E12.13990
G1 X66.390 Y150.724 E12.19426
G1 X65.750 Y149.554 E12.24859
G1 X65.360 Y148.284 E12.30272
G1 X65.230 Y146.955 E12.35717
G1 X65.230 Y47.825 E16.39609
G1 X65.360 Y46.514 E16.44972
G1 X65.740 Y45.264 E16.50296
G1 X66.335 Y44.151 E16.55441
G1 X66.650 Y44.294 F7800.000
G1 X67.440 Y43.334 E16.60506 F4800.000
G1 X68.400 Y42.544 E16.65572
G1 X69.500 Y41.955 E16.70657
G1 X70.690 Y41.595 E16.75723
G1 X71.930 Y41.474 E16.80799
G1 X128.070 Y41.474 E19.09534
G1 X129.310 Y41.595 E19.14609
G1 X130.500 Y41.955 E19.19675
G1 X131.600 Y42.544 E19.24761
G1 X132.560 Y43.334 E19.29826
G1 X133.350 Y44.294 E19.34892
G1 X133.940 Y45.395 E19.39978
G1 X134.300 Y46.584 E19.45043
G1 X134.420 Y47.825 E19.50119
G1 X134.420 Y149.565 E23.64645
G1 X134.290 Y150.815 E23.69765
G1 X133.920 Y152.024 E23.74921
G1 X133.320 Y153.135 E23.80062
G1 X132.520 Y154.094 E23.85153
G1 X131.530 Y154.885 E23.90314
G1 X127.520 Y157.495 E24.09808
G1 X125.870 Y158.265 E24.17226
G1 X124.060 Y158.524 E24.24677
G1 X87.970 Y158.524 E25.71721
G1 X87.360 Y158.495 E25.74209
G1 X86.750 Y158.404 E25.76721
G1 X73.380 Y155.795 E26.32224
G1 X71.650 Y155.185 E26.39698
G1 X70.160 Y154.105 E26.47196
G1 X67.490 Y151.495 E26.62408
G1 X66.680 Y150.524 E26.67557
G1 X66.080 Y149.414 E26.72698
G1 X65.710 Y148.214 E26.77815
G1 X65.580 Y146.955 E26.82976
G1 X65.580 Y47.825 E30.86867
G1 X65.700 Y46.584 E30.91943
G1 X66.060 Y45.395 E30.97009
G1 X66.625 Y44.341 E31.01881
G1 F1800.000 E30.01881
G92 E0
G1 X74.455 Y50.350 F7800.000
G1 E2.00000 F1800.000
G1 X125.545 Y50.350 E4.08159 F4800.000
G1 X125.545 Y61.164 E4.52221
G1 X125.883 Y61.441 E4.54003
G1 X126.191 Y61.817 E4.55984
G1 X126.420 Y62.246 E4.57964
G1 X126.562 Y62.711 E4.59944
G1 X126.609 Y63.195 E4.61924
G1 X126.562 Y63.678 E4.63904
G1 X126.420 Y64.143 E4.65885
G1 X126.191 Y64.572 E4.67864
G1 X125.883 Y64.948 E4.69845
G1 X125.545 Y65.225 E4.71627
G1 X125.545 Y143.714 E7.91420
G1 X125.883 Y143.991 E7.93202
G1 X126.192 Y144.367 E7.95182
G1 X126.420 Y144.796 E7.97162
G1 X126.562 Y145.261 E7.99142
G1 X126.609 Y145.745 E8.01122
G1 X126.562 Y146.228 E8.03103
G1 X126.420 Y146.693 E8.05083
G1 X126.191 Y147.122 E8.07063
G1 X125.883 Y147.498 E8.09043
G1 X125.507 Y147.806 E8.11024
G1 X125.079 Y148.035 E8.13004
G1 X124.614 Y148.176 E8.14984
G1 X124.130 Y148.224 E8.16964
G1 X123.646 Y148.176 E8.18944
G1 X123.185 Y148.036 E8.20907
G1 X121.518 Y149.769 E8.30705
G1 X89.055 Y149.769 E9.62972
G1 X86.705 Y147.327 E9.76778
G1 X77.307 Y147.327 E10.15069
G1 X74.455 Y144.363 E10.31829
G1 X74.455 Y141.425 E10.43801
G1 X74.117 Y141.148 E10.45583
G1 X73.809 Y140.772 E10.47563
G1 X73.579 Y140.343 E10.49543
G1 X73.438 Y139.878 E10.51523
G1 X73.391 Y139.394 E10.53503
G1 X73.438 Y138.911 E10.55483
G1 X73.579 Y138.446 E10.57464
G1 X73.809 Y138.017 E10.59444
G1 X74.117 Y137.641 E10.61424
G1 X74.455 Y137.364 E10.63206
G1 X74.455 Y66.495 E13.51952
G1 X74.117 Y66.218 E13.53734
G1 X73.809 Y65.842 E13.55714
G1 X73.579 Y65.413 E13.57694
G1 X73.438 Y64.948 E13.59675
G1 X73.391 Y64.464 E13.61655
G1 X73.438 Y63.981 E13.63635
G1 X73.579 Y63.516 E13.65615
G1 X73.809 Y63.087 E13.67595
G1 X74.117 Y62.711 E13.69576
G1 X74.455 Y62.434 E13.71358
G1 X74.455 Y50.402 E14.20380
G1 F1800.000 E13.20380
G92 E0
G1 X75.870 Y137.267 F7800.000
G1 E2.00000 F1800.000
G1 X76.285 Y137.308 E2.01699 F4800.000
G1 X76.684 Y137.429 E2.03399
G1 X77.052 Y137.625 E2.05098
G1 X77.374 Y137.890 E2.06797
G1 X77.639 Y138.213 E2.08497
G1 X77.836 Y138.580 E2.10196
G1 X77.957 Y138.979 E2.11895
G1 X77.998 Y139.395 E2.13594
G1 X77.957 Y139.810 E2.15294
G1 X77.836 Y140.209 E2.16993
G1 X77.639 Y140.576 E2.18692
G1 X77.374 Y140.899 E2.20392
G1 X77.052 Y141.164 E2.22091
G1 X76.684 Y141.360 E2.23790
G1 X76.285 Y141.481 E2.25490
G1 X75.870 Y141.522 E2.27189
G1 X75.455 Y141.481 E2.28888
G1 X75.056 Y141.360 E2.30588
G1 X74.688 Y141.164 E2.32287
G1 X74.366 Y140.899 E2.33986
G1 X74.101 Y140.576 E2.35686
G1 X73.904 Y140.209 E2.37385
G1 X73.783 Y139.810 E2.39084
G1 X73.742 Y139.394 E2.40783
G1 X73.783 Y138.979 E2.42482
G1 X73.904 Y138.580 E2.44182
G1 X74.101 Y138.213 E2.45881
G1 X74.366 Y137.890 E2.47581
G1 X74.688 Y137.625 E2.49280
G1 X75.056 Y137.429 E2.50979
G1 X75.455 Y137.308 E2.52679
G1 X75.818 Y137.272 E2.54164
G1 X75.870 Y137.619 F7800.000
G1 X76.216 Y137.653 E2.55582 F4800.000
G1 X76.550 Y137.754 E2.57001
G1 X76.857 Y137.918 E2.58419
G1 X77.126 Y138.139 E2.59838
G1 X77.347 Y138.408 E2.61256
G1 X77.511 Y138.715 E2.62674
G1 X77.612 Y139.048 E2.64093
G1 X77.646 Y139.394 E2.65511
G1 X77.612 Y139.741 E2.66929
G1 X77.511 Y140.074 E2.68348
G1 X77.347 Y140.381 E2.69766
G1 X77.126 Y140.650 E2.71185
G1 X76.857 Y140.871 E2.72603
G1 X76.550 Y141.035 E2.74022
G1 X76.216 Y141.136 E2.75440
G1 X75.870 Y141.170 E2.76858
G1 X75.524 Y141.136 E2.78277
G1 X75.190 Y141.035 E2.79695
G1 X74.883 Y140.871 E2.81113
G1 X74.614 Y140.650 E2.82532
G1 X74.393 Y140.381 E2.83951
G1 X74.229 Y140.074 E2.85369
G1 X74.128 Y139.741 E2.86787
G1 X74.094 Y139.394 E2.88206
G1 X74.128 Y139.048 E2.89624
G1 X74.229 Y138.715 E2.91042
G1 X74.393 Y138.408 E2.92461
G1 X74.614 Y138.139 E2.93879
G1 X74.883 Y137.918 E2.95298
G1 X75.190 Y137.754 E2.96716
G1 X75.524 Y137.653 E2.98134
G1 X75.818 Y137.624 E2.99339
G1 X76.054 Y137.323 F7800.000
G1 F1800.000 E1.99339
G92 E0
G1 X122.043 Y145.329 F7800.000
G1 E2.00000 F1800.000
G1 X122.164 Y144.930 E2.01700 F4800.000
G1 X122.361 Y144.563 E2.03399
G1 X122.626 Y144.240 E2.05098
G1 X122.948 Y143.975 E2.06798
G1 X123.316 Y143.779 E2.08497
G1 X123.715 Y143.658 E2.10196
G1 X124.130 Y143.617 E2.11895
G1 X124.545 Y143.658 E2.13595
G1 X124.944 Y143.779 E2.15294
G1 X125.312 Y143.975 E2.16993
G1 X125.634 Y144.240 E2.18693
G1 X125.899 Y144.563 E2.20392
G1 X126.096 Y144.930 E2.22091
G1 X126.217 Y145.329 E2.23791
G1 X126.258 Y145.745 E2.25490
G1 X126.217 Y146.160 E2.27189
G1 X126.096 Y146.559 E2.28889
G1 X125.899 Y146.926 E2.30588
G1 X125.634 Y147.249 E2.32287
G1 X125.312 Y147.514 E2.33987
G1 X124.944 Y147.710 E2.35686
G1 X124.545 Y147.831 E2.37385
G1 X124.130 Y147.872 E2.39084
G1 X123.715 Y147.831 E2.40784
G1 X123.316 Y147.710 E2.42483
G1 X122.948 Y147.514 E2.44182
G1 X122.626 Y147.249 E2.45882
G1 X122.361 Y146.926 E2.47581
G1 X122.164 Y146.559 E2.49280
G1 X122.043 Y146.160 E2.50980
G1 X122.002 Y145.744 E2.52679
G1 X122.038 Y145.382 E2.54164
G1 X122.388 Y145.398 F7800.000
G1 X122.489 Y145.065 E2.55583 F4800.000
G1 X122.653 Y144.758 E2.57001
G1 X122.874 Y144.489 E2.58420
G1 X123.143 Y144.268 E2.59838
G1 X123.450 Y144.104 E2.61256
G1 X123.784 Y144.003 E2.62675
G1 X124.130 Y143.969 E2.64093
G1 X124.476 Y144.003 E2.65512
G1 X124.810 Y144.104 E2.66930
G1 X125.117 Y144.268 E2.68348
G1 X125.386 Y144.489 E2.69767
G1 X125.607 Y144.758 E2.71186
G1 X125.771 Y145.065 E2.72604
G1 X125.872 Y145.398 E2.74022
G1 X125.906 Y145.745 E2.75441
G1 X125.872 Y146.091 E2.76859
G1 X125.771 Y146.424 E2.78278
G1 X125.607 Y146.731 E2.79696
G1 X125.386 Y147.000 E2.81114
G1 X125.117 Y147.221 E2.82533
G1 X124.810 Y147.385 E2.83951
G1 X124.476 Y147.486 E2.85370
G1 X124.130 Y147.520 E2.86788
G1 X123.784 Y147.486 E2.88206
G1 X123.450 Y147.385 E2.89625
G1 X123.143 Y147.221 E2.91043
G1 X122.874 Y147.000 E2.92462
G1 X122.653 Y146.731 E2.93880
G1 X122.489 Y146.424 E2.95298
G1 X122.388 Y146.091 E2.96717
G1 X122.354 Y145.744 E2.98135
G1 X122.383 Y145.450 E2.99340
G1 X122.134 Y145.160 F7800.000
G1 F1800.000 E1.99340
G92 E0
G1 X124.130 Y65.322 F7800.000
G1 E2.00000 F1800.000
G1 X123.715 Y65.281 E2.01699 F4800.000
G1 X123.316 Y65.160 E2.03399
G1 X122.948 Y64.964 E2.05098
G1 X122.626 Y64.699 E2.06797
G1 X122.361 Y64.376 E2.08497
G1 X122.164 Y64.009 E2.10196
G1 X122.043 Y63.610 E2.11895
G1 X122.002 Y63.194 E2.13595
G1 X122.043 Y62.779 E2.15294
G1 X122.164 Y62.380 E2.16993
G1 X122.361 Y62.013 E2.18692
G1 X122.626 Y61.690 E2.20392
G1 X122.948 Y61.425 E2.22091
G1 X123.316 Y61.229 E2.23790
G1 X123.715 Y61.108 E2.25490
G1 X124.130 Y61.067 E2.27189
G1 X124.545 Y61.108 E2.28888
G1 X124.944 Y61.229 E2.30588
G1 X125.312 Y61.425 E2.32287
G1 X125.634 Y61.690 E2.33986
G1 X125.899 Y62.013 E2.35686
G1 X126.096 Y62.380 E2.37385
G1 X126.217 Y62.779 E2.39084
G1 X126.258 Y63.194 E2.40784
G1 X126.217 Y63.610 E2.42483
G1 X126.096 Y64.009 E2.44182
G1 X125.899 Y64.376 E2.45881
G1 X125.634 Y64.699 E2.47581
G1 X125.312 Y64.964 E2.49281
G1 X124.944 Y65.160 E2.50979
G1 X124.545 Y65.281 E2.52679
G1 X124.182 Y65.317 E2.54164
G1 X124.130 Y64.970 F7800.000
G1 X123.784 Y64.936 E2.55582 F4800.000
G1 X123.450 Y64.835 E2.57001
G1 X123.143 Y64.671 E2.58419
G1 X122.874 Y64.450 E2.59838
G1 X122.653 Y64.181 E2.61256
G1 X122.489 Y63.874 E2.62675
G1 X122.388 Y63.541 E2.64093
G1 X122.354 Y63.194 E2.65512
G1 X122.388 Y62.848 E2.66930
G1 X122.489 Y62.515 E2.68348
G1 X122.653 Y62.208 E2.69767
G1 X122.874 Y61.939 E2.71185
G1 X123.143 Y61.718 E2.72604
G1 X123.450 Y61.554 E2.74022
G1 X123.784 Y61.453 E2.75441
G1 X124.130 Y61.419 E2.76859
G1 X124.476 Y61.453 E2.78277
G1 X124.810 Y61.554 E2.79696
G1 X125.117 Y61.718 E2.81114
G1 X125.386 Y61.939 E2.82532
G1 X125.607 Y62.208 E2.83951
G1 X125.771 Y62.515 E2.85369
G1 X125.872 Y62.848 E2.86788
G1 X125.906 Y63.194 E2.88206
G1 X125.872 Y63.541 E2.89624
G1 X125.771 Y63.874 E2.91043
G1 X125.607 Y64.181 E2.92461
G1 X125.386 Y64.450 E2.93880
G1 X125.117 Y64.671 E2.95298
G1 X124.810 Y64.835 E2.96717
G1 X124.476 Y64.936 E2.98135
G1 X124.182 Y64.965 E2.99340
G1 X123.946 Y65.266 F7800.000
G1 F1800.000 E1.99340
G92 E0
G1 X77.998 Y64.464 F7800.000
G1 E2.00000 F1800.000
G1 X77.957 Y64.880 E2.01699 F4800.000
G1 X77.836 Y65.279 E2.03399
G1 X77.639 Y65.646 E2.05098
G1 X77.374 Y65.969 E2.06797
G1 X77.052 Y66.234 E2.08497
G1 X76.684 Y66.430 E2.10196
G1 X76.285 Y66.551 E2.11895
G1 X75.870 Y66.592 E2.13595
G1 X75.455 Y66.551 E2.15294
G1 X75.056 Y66.430 E2.16993
G1 X74.688 Y66.234 E2.18692
G1 X74.366 Y65.969 E2.20392
G1 X74.101 Y65.646 E2.22091
G1 X73.904 Y65.279 E2.23790
G1 X73.783 Y64.880 E2.25490
G1 X73.742 Y64.464 E2.27189
G1 X73.783 Y64.049 E2.28888
G1 X73.904 Y63.650 E2.30588
G1 X74.101 Y63.283 E2.32287
G1 X74.366 Y62.960 E2.33986
G1 X74.688 Y62.695 E2.35686
G1 X75.056 Y62.499 E2.37385
G1 X75.455 Y62.378 E2.39084
G1 X75.870 Y62.337 E2.40783
G1 X76.285 Y62.378 E2.42483
G1 X76.684 Y62.499 E2.44182
G1 X77.052 Y62.695 E2.45881
G1 X77.374 Y62.960 E2.47581
G1 X77.639 Y63.283 E2.49280
G1 X77.836 Y63.650 E2.50979
G1 X77.957 Y64.049 E2.52679
G1 X77.992 Y64.412 E2.54164
G1 X77.646 Y64.464 F7800.000
G1 X77.612 Y64.811 E2.55582 F4800.000
G1 X77.511 Y65.144 E2.57001
G1 X77.347 Y65.451 E2.58419
G1 X77.126 Y65.720 E2.59838
G1 X76.857 Y65.941 E2.61256
G1 X76.550 Y66.105 E2.62674
G1 X76.216 Y66.206 E2.64093
G1 X75.870 Y66.240 E2.65511
G1 X75.524 Y66.206 E2.66930
G1 X75.190 Y66.105 E2.68348
G1 X74.883 Y65.941 E2.69766
G1 X74.614 Y65.720 E2.71185
G1 X74.393 Y65.451 E2.72603
G1 X74.229 Y65.144 E2.74022
G1 X74.128 Y64.811 E2.75440
G1 X74.094 Y64.464 E2.76858
G1 X74.128 Y64.118 E2.78277
G1 X74.229 Y63.785 E2.79695
G1 X74.393 Y63.478 E2.81114
G1 X74.614 Y63.209 E2.82532
G1 X74.883 Y62.988 E2.83951
G1 X75.190 Y62.824 E2.85369
G1 X75.524 Y62.723 E2.86787
G1 X75.870 Y62.689 E2.88206
G1 X76.216 Y62.723 E2.89624
G1 X76.550 Y62.824 E2.91042
G1 X76.857 Y62.988 E2.92461
G1 X77.126 Y63.209 E2.93879
G1 X77.347 Y63.478 E2.95298
G1 X77.511 Y63.785 E2.96716
G1 X77.612 Y64.118 E2.98135
G1 X77.641 Y64.412 E2.99339
G1 X77.941 Y64.648 F7800.000
G1 X78.442 Y64.464 F7800.000
G1 X78.393 Y63.963 E3.01394 F4800.000
G1 X78.247 Y63.480 E3.03448
G1 X78.009 Y63.035 E3.05503
G1 X77.689 Y62.646 E3.07558
G1 X77.299 Y62.326 E3.09612
G1 X76.854 Y62.088 E3.11667
G1 X76.372 Y61.941 E3.13722
G1 X75.870 Y61.892 E3.15776
G1 X74.805 Y61.997 E3.20136
G1 X74.805 Y50.700 E3.66166
G1 X125.195 Y50.700 E5.71474
G1 X125.195 Y60.727 E6.12329
G1 X124.130 Y60.622 E6.16690
G1 X123.628 Y60.671 E6.18744
G1 X123.146 Y60.818 E6.20799
G1 X122.701 Y61.056 E6.22854
G1 X122.311 Y61.376 E6.24908
G1 X121.991 Y61.765 E6.26963
G1 X121.753 Y62.210 E6.29017
G1 X121.607 Y62.693 E6.31072
G1 X121.558 Y63.194 E6.33127
G1 X121.607 Y63.696 E6.35182
G1 X121.753 Y64.179 E6.37236
G1 X121.991 Y64.624 E6.39291
G1 X122.311 Y65.013 E6.41345
G1 X122.701 Y65.333 E6.43400
G1 X123.146 Y65.571 E6.45455
G1 X123.628 Y65.718 E6.47509
G1 X124.130 Y65.767 E6.49564
G1 X125.195 Y65.662 E6.53924
G1 X125.195 Y143.277 E9.70156
G1 X124.130 Y143.172 E9.74516
G1 X123.628 Y143.221 E9.76571
G1 X123.146 Y143.368 E9.78626
G1 X122.701 Y143.606 E9.80680
G1 X122.311 Y143.926 E9.82735
G1 X121.991 Y144.315 E9.84789
G1 X121.753 Y144.760 E9.86844
G1 X121.607 Y145.243 E9.88899
G1 X121.558 Y145.744 E9.90953
G1 X121.607 Y146.246 E9.93008
G1 X121.753 Y146.729 E9.95063
G1 X121.991 Y147.174 E9.97117
G1 X122.311 Y147.564 E9.99173
G1 X122.782 Y147.951 E10.01656
G1 X121.369 Y149.419 E10.09958
G1 X89.204 Y149.419 E11.41012
G1 X86.854 Y146.977 E11.54818
G1 X77.456 Y146.977 E11.93109
G1 X74.805 Y144.222 E12.08688
G1 X74.805 Y141.862 E12.18304
G1 X75.870 Y141.967 E12.22664
G1 X76.372 Y141.918 E12.24719
G1 X76.854 Y141.771 E12.26774
G1 X77.299 Y141.533 E12.28828
G1 X77.689 Y141.213 E12.30883
G1 X78.009 Y140.824 E12.32938
G1 X78.247 Y140.379 E12.34992
G1 X78.393 Y139.896 E12.37047
G1 X78.442 Y139.394 E12.39102
G1 X78.393 Y138.893 E12.41156
G1 X78.247 Y138.410 E12.43211
G1 X78.009 Y137.965 E12.45266
G1 X77.689 Y137.576 E12.47320
G1 X77.299 Y137.256 E12.49375
G1 X76.854 Y137.018 E12.51429
G1 X76.372 Y136.871 E12.53484
G1 X75.870 Y136.822 E12.55539
G1 X74.805 Y136.927 E12.59899
G1 X74.805 Y66.932 E15.45084
G1 X75.870 Y67.037 E15.49444
G1 X76.372 Y66.987 E15.51499
G1 X76.854 Y66.841 E15.53554
G1 X77.299 Y66.603 E15.55608
G1 X77.689 Y66.283 E15.57663
G1 X78.009 Y65.894 E15.59718
G1 X78.247 Y65.449 E15.61772
G1 X78.393 Y64.966 E15.63827
G1 X78.437 Y64.517 E15.65668
G1 X78.791 Y64.500 F7800.000
G1 X78.738 Y63.894 E15.68147 F4320.000
G1 X78.572 Y63.345 E15.70482
G1 X78.301 Y62.840 E15.72818
G1 X77.938 Y62.397 E15.75154
G1 X77.495 Y62.033 E15.77489
G1 X76.989 Y61.763 E15.79825
G1 X76.440 Y61.597 E15.82160
G1 X75.870 Y61.540 E15.84496
G1 X75.155 Y61.611 E15.87423
G1 X75.155 Y51.050 E16.30454
G1 X124.845 Y51.050 E18.32909
G1 X124.845 Y60.341 E18.70765
G1 X124.130 Y60.270 E18.73692
G1 X123.560 Y60.327 E18.76028
G1 X123.011 Y60.493 E18.78364
G1 X122.505 Y60.763 E18.80699
G1 X122.062 Y61.127 E18.83035
G1 X121.699 Y61.570 E18.85370
G1 X121.428 Y62.075 E18.87706
