; generated by Slic3r 1.0.0RC2 on 2014-10-09 at 00:15:55

; layer_height = 0.35
; perimeters = 3
; top_solid_layers = 3
; bottom_solid_layers = 3
; fill_density = 0.4
; perimeter_speed = 100
; infill_speed = 100
; travel_speed = 130
; nozzle_diameter = 0.35
; filament_diameter = 1.75
; extrusion_multiplier = 0.8
; perimeters extrusion width = 0.35mm
; infill extrusion width = 0.37mm
; solid infill extrusion width = 0.37mm
; top infill extrusion width = 0.37mm

G21 ; set units to millimeters
M107
M190 S50 ; wait for bed temperature to be reached
M104 S235 ; set temperature
G28 ; home all axes
G1 Z5 F5000 ; lift nozzle
M109 S235 ; wait for temperature to be reached
G90 ; use absolute coordinates
G92 E0
M82 ; use absolute distances for extrusion
G1 F1800.000 E-1.00000
G92 E0
G1 Z0.350 F7800.000
G1 X85.260 Y70.760 F7800.000
G1 E2.00000 F1800.000
G1 X86.280 Y69.930 E2.05358 F4800.000
G1 X87.440 Y69.310 E2.10717
G1 X88.690 Y68.930 E2.16040
G1 X90.000 Y68.800 E2.21404
G1 X110.000 Y68.800 E3.02891
G1 X111.310 Y68.930 E3.08255
G1 X112.560 Y69.310 E3.13578
G1 X113.720 Y69.930 E3.18937
G1 X114.740 Y70.760 E3.24295
G1 X115.570 Y71.780 E3.29653
G1 X116.190 Y72.940 E3.35011
G1 X116.570 Y74.190 E3.40335
G1 X116.700 Y75.500 E3.45698
G1 X116.700 Y124.500 E5.45342
G1 X116.570 Y125.810 E5.50706
G1 X116.190 Y127.060 E5.56029
G1 X115.570 Y128.220 E5.61388
G1 X114.740 Y129.240 E5.66746
G1 X113.720 Y130.070 E5.72104
G1 X112.560 Y130.690 E5.77463
G1 X111.310 Y131.070 E5.82786
G1 X110.000 Y131.200 E5.88149
G1 X90.000 Y131.200 E6.69637
G1 X88.690 Y131.070 E6.75000
G1 X87.440 Y130.690 E6.80324
G1 X86.280 Y130.070 E6.85683
G1 X85.260 Y129.240 E6.91040
G1 X84.430 Y128.220 E6.96398
G1 X83.810 Y127.060 E7.01757
G1 X83.430 Y125.810 E7.07080
G1 X83.300 Y124.500 E7.12444
G1 X83.300 Y75.500 E9.12088
G1 X83.430 Y74.190 E9.17452
G1 X83.810 Y72.940 E9.22775
G1 X84.430 Y71.780 E9.28134
G1 X85.227 Y70.801 E9.33278
G1 X85.510 Y71.010 F7800.000
G1 X86.470 Y70.220 E9.38343 F4800.000
G1 X87.570 Y69.630 E9.43429
G1 X88.760 Y69.270 E9.48495
G1 X90.000 Y69.150 E9.53570
G1 X110.000 Y69.150 E10.35058
G1 X111.240 Y69.270 E10.40133
G1 X112.430 Y69.630 E10.45199
G1 X113.530 Y70.220 E10.50285
G1 X114.490 Y71.010 E10.55350
G1 X115.280 Y71.970 E10.60416
G1 X115.870 Y73.070 E10.65502
G1 X116.230 Y74.260 E10.70567
G1 X116.350 Y75.500 E10.75643
G1 X116.350 Y124.500 E12.75287
G1 X116.230 Y125.740 E12.80363
G1 X115.870 Y126.930 E12.85428
G1 X115.280 Y128.030 E12.90514
G1 X114.490 Y128.990 E12.95579
G1 X113.530 Y129.780 E13.00645
G1 X112.430 Y130.370 E13.05731
G1 X111.240 Y130.730 E13.10796
G1 X110.000 Y130.850 E13.15872
G1 X90.000 Y130.850 E13.97359
G1 X88.760 Y130.730 E14.02435
G1 X87.570 Y130.370 E14.07501
G1 X86.470 Y129.780 E14.12586
G1 X85.510 Y128.990 E14.17652
G1 X84.720 Y128.030 E14.22718
G1 X84.130 Y126.930 E14.27803
G1 X83.770 Y125.740 E14.32869
G1 X83.650 Y124.500 E14.37945
G1 X83.650 Y75.500 E16.37589
G1 X83.770 Y74.260 E16.42664
G1 X84.130 Y73.070 E16.47730
G1 X84.720 Y71.970 E16.52816
G1 X85.477 Y71.051 E16.57667
G1 F1800.000 E15.57667
G92 E0
G1 X90.875 Y76.375 F7800.000
G1 E2.00000 F1800.000
G1 X109.125 Y76.375 E2.74357 F4800.000
G1 X109.125 Y123.625 E4.66871
G1 X90.875 Y123.625 E5.41228
G1 X90.875 Y76.427 E7.33528
G1 X90.525 Y76.025 F7800.000
G1 X109.475 Y76.025 E8.10737 F4800.000
G1 X109.475 Y123.975 E10.06103
G1 X90.525 Y123.975 E10.83312
G1 X90.525 Y76.078 E12.78464
G1 X90.175 Y75.675 F7800.000
G1 X109.825 Y75.675 E13.58526 F4320.000
G1 X109.825 Y124.325 E15.56744
G1 X90.175 Y124.325 E16.36805
G1 X90.175 Y75.728 E18.34809
G1 X90.478 Y75.850 F7800.000
G1 X108.886 Y76.650 F7800.000
G1 X108.850 Y76.614 E18.35028 F4800.000
G1 X108.334 Y76.614 E18.37217
G1 X108.886 Y77.166 E18.40533
G1 X108.886 Y77.682 E18.42723
G1 X107.818 Y76.614 E18.49135
G1 X107.303 Y76.614 E18.51325
G1 X108.886 Y78.197 E18.60834
G1 X108.886 Y78.713 E18.63024
G1 X106.787 Y76.614 E18.75630
G1 X106.271 Y76.614 E18.77819
G1 X108.886 Y79.229 E18.93522
G1 X108.886 Y79.745 E18.95712
G1 X105.755 Y76.614 E19.14512
G1 X105.240 Y76.614 E19.16702
G1 X108.886 Y80.260 E19.38598
G1 X108.886 Y80.776 E19.40788
G1 X104.724 Y76.614 E19.65782
G1 X104.208 Y76.614 E19.67972
G1 X108.886 Y81.292 E19.96062
G1 X108.886 Y81.808 E19.98252
G1 X103.692 Y76.614 E20.29439
G1 X103.176 Y76.614 E20.31629
G1 X108.886 Y82.324 E20.65913
G1 X108.886 Y82.839 E20.68103
G1 X102.661 Y76.614 E21.05484
G1 X102.145 Y76.614 E21.07674
G1 X108.886 Y83.355 E21.48152
G1 X108.886 Y83.871 E21.50342
G1 X101.629 Y76.614 E21.93917
G1 X101.113 Y76.614 E21.96107
G1 X108.886 Y84.387 E22.42778
G1 X108.886 Y84.902 E22.44968
G1 X100.598 Y76.614 E22.94737
G1 X100.082 Y76.614 E22.96927
G1 X108.886 Y85.418 E23.49792
G1 X108.886 Y85.934 E23.51982
G1 X99.566 Y76.614 E24.07944
G1 X99.050 Y76.614 E24.10134
G1 X108.886 Y86.450 E24.69194
G1 X108.886 Y86.966 E24.71383
G1 X98.534 Y76.614 E25.33540
G1 X98.019 Y76.614 E25.35729
G1 X108.886 Y87.481 E26.00982
G1 X108.886 Y87.997 E26.03172
G1 X97.503 Y76.614 E26.71522
G1 X96.987 Y76.614 E26.73712
G1 X108.886 Y88.513 E27.45159
G1 X108.886 Y89.029 E27.47349
G1 X96.471 Y76.614 E28.21892
G1 X95.955 Y76.614 E28.24082
G1 X108.886 Y89.545 E29.01723
G1 X108.886 Y90.060 E29.03913
G1 X95.440 Y76.614 E29.84650
G1 X94.924 Y76.614 E29.86840
G1 X108.886 Y90.576 E30.70674
G1 X108.886 Y91.092 E30.72864
G1 X94.408 Y76.614 E31.59795
G1 X93.892 Y76.614 E31.61985
G1 X108.886 Y91.608 E32.52013
G1 X108.886 Y92.123 E32.54203
G1 X93.377 Y76.614 E33.47328
G1 X92.861 Y76.614 E33.49518
G1 X108.886 Y92.639 E34.45740
G1 X108.886 Y93.155 E34.47930
G1 X92.345 Y76.614 E35.47249
G1 X91.829 Y76.614 E35.49438
G1 X108.886 Y93.671 E36.51854
G1 X108.886 Y94.187 E36.54044
G1 X91.313 Y76.614 E37.59557
G1 X91.114 Y76.930 E37.61144
G1 X108.886 Y94.702 E38.67856
G1 X108.886 Y95.218 E38.70046
G1 X91.114 Y77.445 E39.76758
G1 X91.114 Y77.961 E39.78948
G1 X108.886 Y95.734 E40.85661
G1 X108.886 Y96.250 E40.87851
G1 X91.114 Y78.477 E41.94563
G1 X91.114 Y78.993 E41.96753
G1 X108.886 Y96.765 E43.03465
G1 X108.886 Y97.281 E43.05655
G1 X91.114 Y79.508 E44.12368
G1 X91.114 Y80.024 E44.14557
G1 X108.886 Y97.797 E45.21270
G1 X108.886 Y98.313 E45.23460
G1 X91.114 Y80.540 E46.30172
G1 X91.114 Y81.056 E46.32362
G1 X108.886 Y98.829 E47.39074
G1 X108.886 Y99.344 E47.41264
G1 X91.114 Y81.572 E48.47977
G1 X91.114 Y82.087 E48.50167
G1 X108.886 Y99.860 E49.56879
G1 X108.886 Y100.376 E49.59069
G1 X91.114 Y82.603 E50.65781
G1 X91.114 Y83.119 E50.67971
G1 X108.886 Y100.892 E51.74684
G1 X108.886 Y101.408 E51.76873
G1 X91.114 Y83.635 E52.83586
G1 X91.114 Y84.150 E52.85776
G1 X108.886 Y101.923 E53.92488
G1 X108.886 Y102.439 E53.94678
G1 X91.114 Y84.666 E55.01390
G1 X91.114 Y85.182 E55.03580
G1 X108.886 Y102.955 E56.10293
G1 X108.886 Y103.471 E56.12482
G1 X91.114 Y85.698 E57.19195
G1 X91.114 Y86.214 E57.21385
G1 X108.886 Y103.986 E58.28097
G1 X108.886 Y104.502 E58.30287
G1 X91.114 Y86.729 E59.36999
G1 X91.114 Y87.245 E59.39189
G1 X108.886 Y105.018 E60.45902
G1 X108.886 Y105.534 E60.48092
G1 X91.114 Y87.761 E61.54804
G1 X91.114 Y88.277 E61.56994
G1 X108.886 Y106.050 E62.63706
G1 X108.886 Y106.565 E62.65896
G1 X91.114 Y88.793 E63.72609
G1 X91.114 Y89.308 E63.74798
G1 X108.886 Y107.081 E64.81511
G1 X108.886 Y107.597 E64.83701
G1 X91.114 Y89.824 E65.90413
G1 X91.114 Y90.340 E65.92603
G1 X108.886 Y108.113 E66.99315
G1 X108.886 Y108.628 E67.01505
G1 X91.114 Y90.856 E68.08218
G1 X91.114 Y91.371 E68.10408
G1 X108.886 Y109.144 E69.17120
G1 X108.886 Y109.660 E69.19310
G1 X91.114 Y91.887 E70.26022
G1 X91.114 Y92.403 E70.28212
G1 X108.886 Y110.176 E71.34925
G1 X108.886 Y110.692 E71.37114
G1 X91.114 Y92.919 E72.43827
G1 X91.114 Y93.435 E72.46017
G1 X108.886 Y111.207 E73.52729
G1 X108.886 Y111.723 E73.54919
G1 X91.114 Y93.950 E74.61631
G1 X91.114 Y94.466 E74.63821
G1 X108.886 Y112.239 E75.70534
G1 X108.886 Y112.755 E75.72724
G1 X91.114 Y94.982 E76.79436
G1 X91.114 Y95.498 E76.81626
G1 X108.886 Y113.271 E77.88338
G1 X108.886 Y113.786 E77.90528
G1 X91.114 Y96.013 E78.97241
G1 X91.114 Y96.529 E78.99430
G1 X108.886 Y114.302 E80.06143
G1 X108.886 Y114.818 E80.08333
G1 X91.114 Y97.045 E81.15045
G1 X91.114 Y97.561 E81.17235
G1 X108.886 Y115.334 E82.23947
G1 X108.886 Y115.849 E82.26137
G1 X91.114 Y98.077 E83.32850
G1 X91.114 Y98.592 E83.35039
G1 X108.886 Y116.365 E84.41752
G1 X108.886 Y116.881 E84.43942
G1 X91.114 Y99.108 E85.50654
G1 X91.114 Y99.624 E85.52844
G1 X108.886 Y117.397 E86.59556
G1 X108.886 Y117.913 E86.61746
G1 X91.114 Y100.140 E87.68459
G1 X91.114 Y100.656 E87.70649
G1 X108.886 Y118.428 E88.77361
G1 X108.886 Y118.944 E88.79551
G1 X91.114 Y101.171 E89.86263
G1 X91.114 Y101.687 E89.88453
G1 X108.886 Y119.460 E90.95166
G1 X108.886 Y119.976 E90.97355
G1 X91.114 Y102.203 E92.04068
G1 X91.114 Y102.719 E92.06258
G1 X108.886 Y120.491 E93.12970
G1 X108.886 Y121.007 E93.15160
G1 X91.114 Y103.234 E94.21872
G1 X91.114 Y103.750 E94.24062
G1 X108.886 Y121.523 E95.30775
G1 X108.886 Y122.039 E95.32964
G1 X91.114 Y104.266 E96.39677
G1 X91.114 Y104.782 E96.41867
G1 X108.886 Y122.555 E97.48579
G1 X108.886 Y123.070 E97.50769
G1 X91.114 Y105.298 E98.57481
G1 X91.114 Y105.813 E98.59671
G1 X108.687 Y123.386 E99.65184
G1 X108.171 Y123.386 E99.67374
G1 X91.114 Y106.329 E100.69790
G1 X91.114 Y106.845 E100.71980
G1 X107.655 Y123.386 E101.71299
G1 X107.139 Y123.386 E101.73489
G1 X91.114 Y107.361 E102.69712
G1 X91.114 Y107.876 E102.71902
G1 X106.624 Y123.386 E103.65027
G1 X106.108 Y123.386 E103.67217
G1 X91.114 Y108.392 E104.57246
G1 X91.114 Y108.908 E104.59435
G1 X105.592 Y123.386 E105.46367
G1 X105.076 Y123.386 E105.48557
G1 X91.114 Y109.424 E106.32392
G1 X91.114 Y109.940 E106.34582
G1 X104.560 Y123.386 E107.15320
G1 X104.045 Y123.386 E107.17509
G1 X91.114 Y110.455 E107.95151
G1 X91.114 Y110.971 E107.97340
G1 X103.529 Y123.386 E108.71885
G1 X103.013 Y123.386 E108.74074
G1 X91.114 Y111.487 E109.45522
G1 X91.114 Y112.003 E109.47712
G1 X102.497 Y123.386 E110.16062
G1 X101.981 Y123.386 E110.18252
G1 X91.114 Y112.519 E110.83505
G1 X91.114 Y113.034 E110.85695
G1 X101.466 Y123.386 E111.47852
G1 X100.950 Y123.386 E111.50042
G1 X91.114 Y113.550 E112.09102
G1 X91.114 Y114.066 E112.11291
G1 X100.434 Y123.386 E112.67254
G1 X99.918 Y123.386 E112.69444
G1 X91.114 Y114.582 E113.22310
G1 X91.114 Y115.097 E113.24500
G1 X99.403 Y123.386 E113.74269
G1 X98.887 Y123.386 E113.76459
G1 X91.114 Y115.613 E114.23131
G1 X91.114 Y116.129 E114.25321
G1 X98.371 Y123.386 E114.68896
G1 X97.855 Y123.386 E114.71086
G1 X91.114 Y116.645 E115.11565
G1 X91.114 Y117.161 E115.13754
G1 X97.339 Y123.386 E115.51136
G1 X96.824 Y123.386 E115.53326
G1 X91.114 Y117.676 E115.87611
G1 X91.114 Y118.192 E115.89800
G1 X96.308 Y123.386 E116.20988
G1 X95.792 Y123.386 E116.23178
G1 X91.114 Y118.708 E116.51269
G1 X91.114 Y119.224 E116.53459
G1 X95.276 Y123.386 E116.78453
G1 X94.761 Y123.386 E116.80643
G1 X91.114 Y119.739 E117.02540
G1 X91.114 Y120.255 E117.04730
G1 X94.245 Y123.386 E117.23530
G1 X93.729 Y123.386 E117.25720
G1 X91.114 Y120.771 E117.41423
G1 X91.114 Y121.287 E117.43613
G1 X93.213 Y123.386 E117.56220
G1 X92.697 Y123.386 E117.58409
G1 X91.114 Y121.803 E117.67919
G1 X91.114 Y122.318 E117.70109
G1 X92.182 Y123.386 E117.76522
G1 X91.666 Y123.386 E117.78711
G1 X91.114 Y122.834 E117.82027
G1 X91.114 Y123.350 E117.84217
G1 X91.150 Y123.386 E117.84436
M106 S255
M104 S230 ; set temperature
G1 F1800.000 E116.84436
G92 E0
G1 Z0.700 F7800.000
G1 X90.875 Y123.625 F7800.000
G1 E2.00000 F1800.000
G1 X90.875 Y76.375 E3.92514 F5519.816
G1 X109.125 Y76.375 E4.66871
G1 X109.125 Y123.625 E6.59385
G1 X90.928 Y123.625 E7.33528
G1 X90.525 Y123.975 F7800.000
G1 X90.525 Y76.025 E9.28894 F5519.816
G1 X109.475 Y76.025 E10.06103
G1 X109.475 Y123.975 E12.01469
G1 X90.578 Y123.975 E12.78464
G1 X90.175 Y124.325 F7800.000
G1 X90.175 Y75.675 E14.76682 F4967.834
G1 X109.825 Y75.675 E15.56744
G1 X109.825 Y124.325 E17.54962
G1 X90.228 Y124.325 E18.34809
G1 X90.350 Y124.022 F7800.000
G1 X108.886 Y123.350 F7800.000
G1 X108.850 Y123.386 E18.35028 F5519.816
G1 X108.334 Y123.386 E18.37218
G1 X108.886 Y122.834 E18.40534
G1 X108.886 Y122.318 E18.42724
G1 X107.818 Y123.386 E18.49136
G1 X107.303 Y123.386 E18.51326
G1 X108.886 Y121.803 E18.60836
G1 X108.886 Y121.287 E18.63026
G1 X106.787 Y123.386 E18.75632
G1 X106.271 Y123.386 E18.77822
G1 X108.886 Y120.771 E18.93526
G1 X108.886 Y120.255 E18.95715
G1 X105.755 Y123.386 E19.14516
G1 X105.239 Y123.386 E19.16706
G1 X108.886 Y119.739 E19.38603
G1 X108.886 Y119.224 E19.40793
G1 X104.724 Y123.386 E19.65787
G1 X104.208 Y123.386 E19.67977
G1 X108.886 Y118.708 E19.96068
G1 X108.886 Y118.192 E19.98257
G1 X103.692 Y123.386 E20.29445
G1 X103.176 Y123.386 E20.31635
G1 X108.886 Y117.676 E20.65920
G1 X108.886 Y117.161 E20.68110
G1 X102.661 Y123.386 E21.05491
G1 X102.145 Y123.386 E21.07681
G1 X108.886 Y116.645 E21.48160
G1 X108.886 Y116.129 E21.50350
G1 X101.629 Y123.386 E21.93925
G1 X101.113 Y123.386 E21.96115
G1 X108.886 Y115.613 E22.42787
G1 X108.886 Y115.097 E22.44977
G1 X100.597 Y123.386 E22.94746
G1 X100.082 Y123.386 E22.96936
G1 X108.886 Y114.582 E23.49802
G1 X108.886 Y114.066 E23.51992
G1 X99.566 Y123.386 E24.07955
G1 X99.050 Y123.386 E24.10145
G1 X108.886 Y113.550 E24.69205
G1 X108.886 Y113.034 E24.71394
G1 X98.534 Y123.386 E25.33551
G1 X98.019 Y123.386 E25.35741
G1 X108.886 Y112.519 E26.00995
G1 X108.886 Y112.003 E26.03185
G1 X97.503 Y123.386 E26.71535
G1 X96.987 Y123.386 E26.73725
G1 X108.886 Y111.487 E27.45172
G1 X108.886 Y110.971 E27.47362
G1 X96.471 Y123.386 E28.21906
G1 X95.955 Y123.386 E28.24096
G1 X108.886 Y110.455 E29.01737
G1 X108.886 Y109.940 E29.03927
G1 X95.440 Y123.386 E29.84665
G1 X94.924 Y123.386 E29.86855
G1 X108.886 Y109.424 E30.70690
G1 X108.886 Y108.908 E30.72880
G1 X94.408 Y123.386 E31.59812
G1 X93.892 Y123.386 E31.62001
G1 X108.886 Y108.392 E32.52030
G1 X108.886 Y107.876 E32.54220
G1 X93.376 Y123.386 E33.47346
G1 X92.861 Y123.386 E33.49535
G1 X108.886 Y107.361 E34.45758
G1 X108.886 Y106.845 E34.47948
G1 X92.345 Y123.386 E35.47267
G1 X91.829 Y123.386 E35.49457
G1 X108.886 Y106.329 E36.51873
G1 X108.886 Y105.813 E36.54063
G1 X91.313 Y123.386 E37.59576
G1 X91.114 Y123.070 E37.61163
G1 X108.886 Y105.298 E38.67876
G1 X108.886 Y104.782 E38.70066
G1 X91.114 Y122.555 E39.76778
G1 X91.114 Y122.039 E39.78968
G1 X108.886 Y104.266 E40.85681
G1 X108.886 Y103.750 E40.87871
G1 X91.114 Y121.523 E41.94583
G1 X91.114 Y121.007 E41.96773
G1 X108.886 Y103.234 E43.03486
G1 X108.886 Y102.719 E43.05675
G1 X91.114 Y120.491 E44.12388
G1 X91.114 Y119.976 E44.14578
G1 X108.886 Y102.203 E45.21290
G1 X108.886 Y101.687 E45.23480
G1 X91.114 Y119.460 E46.30193
G1 X91.114 Y118.944 E46.32383
G1 X108.886 Y101.171 E47.39095
G1 X108.886 Y100.656 E47.41285
G1 X91.114 Y118.428 E48.47998
G1 X91.114 Y117.913 E48.50187
G1 X108.886 Y100.140 E49.56900
G1 X108.886 Y99.624 E49.59090
G1 X91.114 Y117.397 E50.65802
G1 X91.114 Y116.881 E50.67992
G1 X108.886 Y99.108 E51.74705
G1 X108.886 Y98.592 E51.76895
G1 X91.114 Y116.365 E52.83607
G1 X91.114 Y115.849 E52.85797
G1 X108.886 Y98.077 E53.92509
G1 X108.886 Y97.561 E53.94699
G1 X91.114 Y115.334 E55.01412
G1 X91.114 Y114.818 E55.03602
G1 X108.886 Y97.045 E56.10314
G1 X108.886 Y96.529 E56.12504
G1 X91.114 Y114.302 E57.19217
G1 X91.114 Y113.786 E57.21406
G1 X108.886 Y96.013 E58.28119
G1 X108.886 Y95.498 E58.30309
G1 X91.114 Y113.271 E59.37021
G1 X91.114 Y112.755 E59.39211
G1 X108.886 Y94.982 E60.45924
G1 X108.886 Y94.466 E60.48114
G1 X91.114 Y112.239 E61.54826
G1 X91.114 Y111.723 E61.57016
G1 X108.886 Y93.950 E62.63729
G1 X108.886 Y93.435 E62.65918
G1 X91.114 Y111.207 E63.72631
G1 X91.114 Y110.692 E63.74821
G1 X108.886 Y92.919 E64.81533
G1 X108.886 Y92.403 E64.83723
G1 X91.114 Y110.176 E65.90436
G1 X91.114 Y109.660 E65.92626
G1 X108.886 Y91.887 E66.99338
G1 X108.886 Y91.371 E67.01528
G1 X91.114 Y109.144 E68.08241
G1 X91.114 Y108.628 E68.10430
G1 X108.886 Y90.856 E69.17143
G1 X108.886 Y90.340 E69.19333
G1 X91.114 Y108.113 E70.26045
G1 X91.114 Y107.597 E70.28235
G1 X108.886 Y89.824 E71.34948
G1 X108.886 Y89.308 E71.37138
G1 X91.114 Y107.081 E72.43850
G1 X91.114 Y106.565 E72.46040
G1 X108.886 Y88.793 E73.52753
