; generated by Slic3r 1.0.0RC2 on 2014-10-08 at 22:15:00

; layer_height = 0.35
; perimeters = 3
; top_solid_layers = 3
; bottom_solid_layers = 3
; fill_density = 0.4
; perimeter_speed = 100
; infill_speed = 100
; travel_speed = 130
; nozzle_diameter = 0.35
; filament_diameter = 1.75
; extrusion_multiplier = 0.8
; perimeters extrusion width = 0.35mm
; infill extrusion width = 0.37mm
; solid infill extrusion width = 0.37mm
; top infill extrusion width = 0.37mm

G21 ; set units to millimeters
M107
M190 S50 ; wait for bed temperature to be reached
M104 S235 ; set temperature
G28 ; home all axes
G1 Z5 F5000 ; lift nozzle
M109 S235 ; wait for temperature to be reached
G90 ; use absolute coordinates
G92 E0
M82 ; use absolute distances for extrusion
G1 F1800.000 E-1.00000
G92 E0
G1 Z0.350 F7800.000
G1 X87.430 Y51.280 F7800.000
G1 E2.00000 F1800.000
G1 X88.260 Y50.260 E2.05358 F4800.000
G1 X89.280 Y49.430 E2.10716
G1 X90.440 Y48.810 E2.16075
G1 X91.690 Y48.430 E2.21398
G1 X93.000 Y48.300 E2.26762
G1 X107.000 Y48.300 E2.83803
G1 X108.310 Y48.430 E2.89166
G1 X109.560 Y48.810 E2.94489
G1 X110.720 Y49.430 E2.99848
G1 X111.740 Y50.260 E3.05206
G1 X112.570 Y51.280 E3.10564
G1 X113.190 Y52.440 E3.15923
G1 X113.570 Y53.690 E3.21246
G1 X113.700 Y55.000 E3.26610
G1 X113.700 Y145.000 E6.93303
G1 X113.570 Y146.310 E6.98667
G1 X113.190 Y147.560 E7.03990
G1 X112.570 Y148.720 E7.09349
G1 X111.740 Y149.740 E7.14707
G1 X110.720 Y150.570 E7.20064
G1 X109.560 Y151.190 E7.25423
G1 X108.310 Y151.570 E7.30747
G1 X107.000 Y151.700 E7.36110
G1 X93.000 Y151.700 E7.93151
G1 X91.690 Y151.570 E7.98515
G1 X90.440 Y151.190 E8.03838
G1 X89.280 Y150.570 E8.09197
G1 X88.260 Y149.740 E8.14555
G1 X87.430 Y148.720 E8.19913
G1 X86.810 Y147.560 E8.25272
G1 X86.430 Y146.310 E8.30595
G1 X86.300 Y145.000 E8.35959
G1 X86.300 Y55.000 E12.02652
G1 X86.430 Y53.690 E12.08015
G1 X86.810 Y52.440 E12.13338
G1 X87.405 Y51.326 E12.18483
G1 X87.720 Y51.470 F7800.000
G1 X88.510 Y50.510 E12.23549 F4800.000
G1 X89.470 Y49.720 E12.28614
G1 X90.570 Y49.130 E12.33700
G1 X91.760 Y48.770 E12.38766
G1 X93.000 Y48.650 E12.43842
G1 X107.000 Y48.650 E13.00883
G1 X108.240 Y48.770 E13.05958
G1 X109.430 Y49.130 E13.11024
G1 X110.530 Y49.720 E13.16110
G1 X111.490 Y50.510 E13.21175
G1 X112.280 Y51.470 E13.26241
G1 X112.870 Y52.570 E13.31327
G1 X113.230 Y53.760 E13.36392
G1 X113.350 Y55.000 E13.41468
G1 X113.350 Y145.000 E17.08161
G1 X113.230 Y146.240 E17.13237
G1 X112.870 Y147.430 E17.18302
G1 X112.280 Y148.530 E17.23388
G1 X111.490 Y149.490 E17.28453
G1 X110.530 Y150.280 E17.33519
G1 X109.430 Y150.870 E17.38605
G1 X108.240 Y151.230 E17.43670
G1 X107.000 Y151.350 E17.48746
G1 X93.000 Y151.350 E18.05787
G1 X91.760 Y151.230 E18.10863
G1 X90.570 Y150.870 E18.15929
G1 X89.470 Y150.280 E18.21014
G1 X88.510 Y149.490 E18.26080
G1 X87.720 Y148.530 E18.31145
G1 X87.130 Y147.430 E18.36231
G1 X86.770 Y146.240 E18.41297
G1 X86.650 Y145.000 E18.46372
G1 X86.650 Y55.000 E22.13065
G1 X86.770 Y53.760 E22.18141
G1 X87.130 Y52.570 E22.23207
G1 X87.695 Y51.516 E22.28079
G1 F1800.000 E21.28079
G92 E0
G1 X96.600 Y63.761 F7800.000
G1 E2.00000 F1800.000
G1 X97.027 Y63.543 E2.01952 F4800.000
G1 X97.500 Y63.468 E2.03905
G1 X97.973 Y63.543 E2.05857
G1 X98.400 Y63.761 E2.07810
G1 X98.739 Y64.100 E2.09762
G1 X98.957 Y64.527 E2.11714
G1 X99.032 Y65.000 E2.13667
G1 X98.957 Y65.473 E2.15619
G1 X98.739 Y65.900 E2.17571
G1 X98.400 Y66.239 E2.19523
G1 X97.973 Y66.457 E2.21476
G1 X97.500 Y66.532 E2.23428
G1 X97.027 Y66.457 E2.25381
G1 X96.600 Y66.239 E2.27333
G1 X96.261 Y65.900 E2.29285
G1 X96.043 Y65.473 E2.31238
G1 X95.968 Y65.000 E2.33190
G1 X96.043 Y64.527 E2.35142
G1 X96.261 Y64.100 E2.37095
G1 X96.563 Y63.798 E2.38833
G1 X96.808 Y64.048 F7800.000
G1 X97.136 Y63.880 E2.40333 F4800.000
G1 X97.500 Y63.823 E2.41834
G1 X97.864 Y63.880 E2.43335
G1 X98.192 Y64.048 E2.44835
G1 X98.452 Y64.308 E2.46336
G1 X98.620 Y64.636 E2.47837
G1 X98.677 Y65.000 E2.49337
G1 X98.620 Y65.364 E2.50838
G1 X98.452 Y65.692 E2.52338
G1 X98.192 Y65.952 E2.53839
G1 X97.864 Y66.120 E2.55340
G1 X97.500 Y66.177 E2.56840
G1 X97.136 Y66.120 E2.58341
G1 X96.808 Y65.952 E2.59842
G1 X96.548 Y65.692 E2.61342
G1 X96.380 Y65.364 E2.62843
G1 X96.323 Y65.000 E2.64343
G1 X96.380 Y64.636 E2.65844
G1 X96.548 Y64.308 E2.67345
G1 X96.771 Y64.085 E2.68631
G1 X96.790 Y63.698 F7800.000
G1 X101.043 Y64.527 F7800.000
G1 X101.261 Y64.100 E2.70584 F4800.000
G1 X101.600 Y63.761 E2.72536
G1 X102.027 Y63.543 E2.74488
G1 X102.500 Y63.468 E2.76441
G1 X102.973 Y63.543 E2.78393
G1 X103.400 Y63.761 E2.80345
G1 X103.739 Y64.100 E2.82298
G1 X103.957 Y64.527 E2.84250
G1 X104.032 Y65.000 E2.86202
G1 X103.957 Y65.473 E2.88154
G1 X103.739 Y65.900 E2.90107
G1 X103.400 Y66.239 E2.92059
G1 X102.973 Y66.457 E2.94012
G1 X102.500 Y66.532 E2.95964
G1 X102.027 Y66.457 E2.97916
G1 X101.600 Y66.239 E2.99869
G1 X101.261 Y65.900 E3.01821
G1 X101.043 Y65.473 E3.03773
G1 X100.968 Y65.000 E3.05726
G1 X101.035 Y64.579 E3.07464
G1 X101.380 Y64.636 F7800.000
G1 X101.548 Y64.308 E3.08965 F4800.000
G1 X101.808 Y64.048 E3.10465
G1 X102.136 Y63.880 E3.11966
G1 X102.500 Y63.823 E3.13466
G1 X102.864 Y63.880 E3.14967
G1 X103.192 Y64.048 E3.16468
G1 X103.452 Y64.308 E3.17968
G1 X103.620 Y64.636 E3.19469
G1 X103.677 Y65.000 E3.20969
G1 X103.620 Y65.364 E3.22470
G1 X103.452 Y65.692 E3.23971
G1 X103.192 Y65.952 E3.25471
G1 X102.864 Y66.120 E3.26972
G1 X102.500 Y66.177 E3.28473
G1 X102.136 Y66.120 E3.29973
G1 X101.808 Y65.952 E3.31474
G1 X101.548 Y65.692 E3.32974
G1 X101.380 Y65.364 E3.34475
G1 X101.323 Y65.000 E3.35976
G1 X101.372 Y64.688 E3.37262
G1 X101.160 Y64.364 F7800.000
G1 X100.122 Y96.127 F7800.000
G1 X100.726 Y96.194 E3.39739 F4800.000
G1 X101.298 Y96.349 E3.42153
G1 X101.759 Y96.547 E3.44199
G1 X102.278 Y96.865 E3.46677
G1 X102.641 Y97.165 E3.48596
G1 X102.907 Y97.437 E3.50147
G1 X104.256 Y99.116 E3.58922
G1 X103.779 Y99.116 E3.60867
G1 X103.858 Y99.635 E3.63008
G1 X103.875 Y100.000 E3.64497
G1 X103.845 Y100.486 E3.66479
G1 X103.753 Y100.964 E3.68462
G1 X103.603 Y101.427 E3.70445
G1 X103.396 Y101.867 E3.72427
G1 X103.135 Y102.278 E3.74410
G1 X102.825 Y102.653 E3.76393
G1 X102.470 Y102.986 E3.78376
G1 X102.178 Y103.205 E3.79864
G1 X101.867 Y103.396 E3.81351
G1 X101.426 Y103.603 E3.83334
G1 X100.964 Y103.753 E3.85316
G1 X100.606 Y103.827 E3.86804
G1 X100.243 Y103.867 E3.88291
G1 X99.878 Y103.873 E3.89780
G1 X99.394 Y103.827 E3.91761
G1 X99.036 Y103.753 E3.93249
G1 X98.687 Y103.646 E3.94736
G1 X98.350 Y103.506 E3.96223
G1 X98.027 Y103.335 E3.97711
G1 X97.722 Y103.135 E3.99198
G1 X97.437 Y102.907 E4.00686
G1 X97.175 Y102.653 E4.02174
G1 X96.865 Y102.278 E4.04156
G1 X96.665 Y101.973 E4.05643
G1 X96.494 Y101.650 E4.07130
G1 X96.354 Y101.312 E4.08619
G1 X96.247 Y100.964 E4.10106
G1 X96.173 Y100.606 E4.11593
G1 X96.133 Y100.244 E4.13080
G1 X96.127 Y99.878 E4.14570
G1 X96.155 Y99.515 E4.16055
G1 X96.218 Y99.154 E4.17544
G1 X96.315 Y98.802 E4.19032
G1 X96.487 Y98.364 E4.20950
G1 X96.665 Y98.027 E4.22502
G1 X96.865 Y97.722 E4.23989
G1 X97.093 Y97.437 E4.25477
G1 X97.347 Y97.175 E4.26964
G1 X97.625 Y96.938 E4.28452
G1 X97.924 Y96.728 E4.29940
G1 X98.241 Y96.547 E4.31426
G1 X98.574 Y96.397 E4.32914
G1 X98.919 Y96.279 E4.34402
G1 X99.274 Y96.194 E4.35888
G1 X99.635 Y96.142 E4.37376
G1 X100.069 Y96.126 E4.39146
G1 X100.100 Y96.477 F7800.000
G1 X100.442 Y96.503 E4.40540 F4800.000
G1 X100.769 Y96.560 E4.41894
G1 X101.089 Y96.647 E4.43247
G1 X101.400 Y96.765 E4.44599
G1 X101.698 Y96.911 E4.45953
G1 X102.064 Y97.142 E4.47715
G1 X102.331 Y97.356 E4.49110
G1 X102.570 Y97.587 E4.50463
G1 X103.527 Y98.766 E4.56651
G1 X103.308 Y98.766 E4.57545
G1 X103.414 Y99.123 E4.59065
G1 X103.482 Y99.449 E4.60418
G1 X103.518 Y99.779 E4.61772
G1 X103.523 Y100.111 E4.63125
G1 X103.497 Y100.442 E4.64478
G1 X103.414 Y100.877 E4.66282
G1 X103.317 Y101.194 E4.67635
G1 X103.190 Y101.501 E4.68988
G1 X103.034 Y101.795 E4.70342
G1 X102.852 Y102.072 E4.71694
G1 X102.644 Y102.331 E4.73048
G1 X102.413 Y102.570 E4.74401
G1 X102.160 Y102.785 E4.75754
G1 X101.889 Y102.976 E4.77107
G1 X101.600 Y103.141 E4.78460
G1 X101.297 Y103.278 E4.79814
G1 X100.983 Y103.385 E4.81166
G1 X100.660 Y103.463 E4.82519
G1 X100.321 Y103.510 E4.83914
G1 X99.889 Y103.523 E4.85677
G1 X99.449 Y103.482 E4.87479
G1 X99.123 Y103.414 E4.88833
G1 X98.806 Y103.317 E4.90186
G1 X98.499 Y103.190 E4.91538
G1 X98.206 Y103.034 E4.92892
G1 X97.928 Y102.852 E4.94245
G1 X97.669 Y102.644 E4.95598
G1 X97.430 Y102.413 E4.96951
G1 X97.215 Y102.161 E4.98305
G1 X97.024 Y101.889 E4.99657
G1 X96.859 Y101.600 E5.01011
G1 X96.722 Y101.298 E5.02364
G1 X96.615 Y100.983 E5.03717
G1 X96.536 Y100.650 E5.05112
G1 X96.482 Y100.221 E5.06873
G1 X96.477 Y99.889 E5.08228
G1 X96.503 Y99.558 E5.09579
G1 X96.560 Y99.231 E5.10934
G1 X96.648 Y98.910 E5.12287
G1 X96.806 Y98.508 E5.14048
G1 X96.966 Y98.206 E5.15443
G1 X97.148 Y97.928 E5.16796
G1 X97.356 Y97.669 E5.18149
G1 X97.587 Y97.430 E5.19503
G1 X97.840 Y97.215 E5.20856
G1 X98.111 Y97.024 E5.22209
G1 X98.400 Y96.859 E5.23562
G1 X98.702 Y96.722 E5.24915
G1 X99.017 Y96.615 E5.26268
G1 X99.339 Y96.537 E5.27621
G1 X99.668 Y96.491 E5.28974
G1 X100.048 Y96.476 E5.30522
G1 X100.000 Y96.825 F7800.000
G1 X100.299 Y96.839 E5.31741 F4800.000
G1 X100.595 Y96.881 E5.32960
G1 X100.886 Y96.951 E5.34179
G1 X101.169 Y97.048 E5.35397
G1 X101.441 Y97.171 E5.36616
G1 X101.785 Y97.374 E5.38241
G1 X102.024 Y97.554 E5.39459
G1 X102.245 Y97.755 E5.40678
G1 X102.799 Y98.416 E5.44190
G1 X102.768 Y98.416 E5.44315
G1 X102.987 Y98.924 E5.46572
G1 X103.099 Y99.307 E5.48197
G1 X103.161 Y99.701 E5.49821
G1 X103.175 Y100.000 E5.51040
G1 X103.161 Y100.299 E5.52259
G1 X103.119 Y100.595 E5.53478
G1 X103.049 Y100.886 E5.54697
G1 X102.952 Y101.169 E5.55915
G1 X102.782 Y101.530 E5.57540
G1 X102.626 Y101.785 E5.58759
G1 X102.446 Y102.024 E5.59977
G1 X102.245 Y102.245 E5.61196
G1 X102.024 Y102.446 E5.62415
G1 X101.785 Y102.626 E5.63634
G1 X101.530 Y102.782 E5.64852
G1 X101.169 Y102.952 E5.66477
G1 X100.886 Y103.049 E5.67696
G1 X100.595 Y103.119 E5.68914
G1 X100.299 Y103.161 E5.70133
G1 X100.000 Y103.175 E5.71352
G1 X99.701 Y103.161 E5.72571
G1 X99.405 Y103.119 E5.73790
G1 X99.114 Y103.049 E5.75008
G1 X98.827 Y102.950 E5.76246
G1 X98.470 Y102.782 E5.77852
G1 X98.215 Y102.626 E5.79070
G1 X97.976 Y102.446 E5.80289
G1 X97.755 Y102.245 E5.81508
G1 X97.554 Y102.024 E5.82726
G1 X97.374 Y101.785 E5.83945
G1 X97.218 Y101.530 E5.85164
G1 X97.048 Y101.169 E5.86789
G1 X96.951 Y100.886 E5.88007
G1 X96.881 Y100.595 E5.89226
G1 X96.839 Y100.299 E5.90445
G1 X96.825 Y100.000 E5.91664
G1 X96.839 Y99.701 E5.92882
G1 X96.881 Y99.405 E5.94101
G1 X96.951 Y99.114 E5.95320
G1 X97.048 Y98.831 E5.96539
G1 X97.215 Y98.475 E5.98144
G1 X97.374 Y98.215 E5.99382
G1 X97.554 Y97.976 E6.00601
G1 X97.755 Y97.755 E6.01819
G1 X97.976 Y97.554 E6.03038
G1 X98.215 Y97.374 E6.04257
G1 X98.470 Y97.218 E6.05476
G1 X98.739 Y97.086 E6.06695
G1 X99.019 Y96.980 E6.07913
G1 X99.307 Y96.901 E6.09132
G1 X99.602 Y96.850 E6.10351
G1 X99.948 Y96.826 E6.11762
G1 X100.152 Y96.568 F7800.000
G1 F1800.000 E5.11762
G92 E0
G1 X97.500 Y133.468 F7800.000
G1 E2.00000 F1800.000
G1 X97.973 Y133.543 E2.01952 F4800.000
G1 X98.400 Y133.761 E2.03905
G1 X98.739 Y134.100 E2.05857
G1 X98.957 Y134.527 E2.07809
G1 X99.032 Y135.000 E2.09762
G1 X98.957 Y135.473 E2.11714
G1 X98.739 Y135.900 E2.13666
G1 X98.400 Y136.239 E2.15618
G1 X97.973 Y136.457 E2.17571
G1 X97.500 Y136.532 E2.19523
G1 X97.027 Y136.457 E2.21476
G1 X96.600 Y136.239 E2.23428
G1 X96.261 Y135.900 E2.25380
G1 X96.043 Y135.473 E2.27333
G1 X95.968 Y135.000 E2.29285
G1 X96.043 Y134.527 E2.31237
G1 X96.261 Y134.100 E2.33190
G1 X96.600 Y133.761 E2.35142
G1 X97.027 Y133.543 E2.37094
G1 X97.448 Y133.477 E2.38833
G1 X97.500 Y133.823 F7800.000
G1 X97.864 Y133.880 E2.40333 F4800.000
G1 X98.192 Y134.048 E2.41834
G1 X98.452 Y134.308 E2.43335
G1 X98.620 Y134.636 E2.44835
G1 X98.677 Y135.000 E2.46336
G1 X98.620 Y135.364 E2.47836
G1 X98.452 Y135.692 E2.49337
G1 X98.192 Y135.952 E2.50838
G1 X97.864 Y136.120 E2.52338
G1 X97.500 Y136.177 E2.53839
G1 X97.136 Y136.120 E2.55340
G1 X96.808 Y135.952 E2.56840
G1 X96.548 Y135.692 E2.58341
G1 X96.380 Y135.364 E2.59841
G1 X96.323 Y135.000 E2.61342
G1 X96.380 Y134.636 E2.62842
G1 X96.548 Y134.308 E2.64343
G1 X96.808 Y134.048 E2.65844
G1 X97.136 Y133.880 E2.67344
G1 X97.448 Y133.831 E2.68631
G1 X97.691 Y133.529 F7800.000
G1 X101.043 Y134.527 F7800.000
G1 X101.261 Y134.100 E2.70584 F4800.000
G1 X101.600 Y133.761 E2.72536
G1 X102.027 Y133.543 E2.74488
G1 X102.500 Y133.468 E2.76441
G1 X102.973 Y133.543 E2.78393
G1 X103.400 Y133.761 E2.80345
G1 X103.739 Y134.100 E2.82298
G1 X103.957 Y134.527 E2.84250
G1 X104.032 Y135.000 E2.86202
G1 X103.957 Y135.473 E2.88154
G1 X103.739 Y135.900 E2.90107
G1 X103.400 Y136.239 E2.92059
G1 X102.973 Y136.457 E2.94012
G1 X102.500 Y136.532 E2.95964
G1 X102.027 Y136.457 E2.97916
G1 X101.600 Y136.239 E2.99869
G1 X101.261 Y135.900 E3.01821
G1 X101.043 Y135.473 E3.03773
G1 X100.968 Y135.000 E3.05726
G1 X101.035 Y134.579 E3.07464
G1 X101.380 Y134.636 F7800.000
G1 X101.548 Y134.308 E3.08965 F4800.000
G1 X101.808 Y134.048 E3.10465
G1 X102.136 Y133.880 E3.11966
G1 X102.500 Y133.823 E3.13466
G1 X102.864 Y133.880 E3.14967
G1 X103.192 Y134.048 E3.16468
G1 X103.452 Y134.308 E3.17968
G1 X103.620 Y134.636 E3.19469
G1 X103.677 Y135.000 E3.20969
G1 X103.620 Y135.364 E3.22470
G1 X103.452 Y135.692 E3.23971
G1 X103.192 Y135.952 E3.25471
G1 X102.864 Y136.120 E3.26972
G1 X102.500 Y136.177 E3.28473
G1 X102.136 Y136.120 E3.29973
G1 X101.808 Y135.952 E3.31474
G1 X101.548 Y135.692 E3.32974
G1 X101.380 Y135.364 E3.34475
G1 X101.323 Y135.000 E3.35976
G1 X101.372 Y134.688 E3.37262
G1 X101.160 Y134.364 F7800.000
G1 X100.706 Y134.417 F7800.000
G1 X100.614 Y135.000 E3.39666 F4800.000
G1 X100.706 Y135.583 E3.42070
G1 X100.974 Y136.109 E3.44474
G1 X101.391 Y136.526 E3.46878
G1 X101.917 Y136.794 E3.49282
G1 X102.500 Y136.886 E3.51686
G1 X103.083 Y136.794 E3.54090
G1 X103.609 Y136.526 E3.56495
G1 X104.125 Y136.009 E3.59470
G1 X104.125 Y142.125 E3.84388
G1 X106.125 Y142.125 E3.92537
G1 X106.125 Y144.125 E4.00685
G1 X93.875 Y144.125 E4.50596
G1 X93.875 Y142.125 E4.58745
G1 X95.875 Y142.125 E4.66894
G1 X95.875 Y136.009 E4.91812
G1 X96.391 Y136.526 E4.94787
G1 X96.917 Y136.794 E4.97191
G1 X97.500 Y136.886 E4.99596
G1 X98.083 Y136.794 E5.02000
G1 X98.609 Y136.526 E5.04404
G1 X99.026 Y136.109 E5.06808
G1 X99.294 Y135.583 E5.09212
G1 X99.386 Y135.000 E5.11616
G1 X99.294 Y134.417 E5.14020
G1 X99.026 Y133.891 E5.16424
G1 X98.609 Y133.474 E5.18828
G1 X98.083 Y133.206 E5.21232
G1 X97.500 Y133.114 E5.23636
G1 X96.917 Y133.206 E5.26040
G1 X96.391 Y133.474 E5.28444
G1 X95.875 Y133.991 E5.31420
G1 X95.875 Y127.875 E5.56338
G1 X94.892 Y127.875 E5.60341
G1 X95.364 Y126.541 E5.66106
G1 X95.649 Y125.614 E5.70058
G1 X95.905 Y124.678 E5.74010
G1 X96.132 Y123.735 E5.77962
G1 X96.328 Y122.785 E5.81914
G1 X96.495 Y121.830 E5.85865
G1 X96.632 Y120.870 E5.89817
G1 X96.738 Y119.906 E5.93769
G1 X96.814 Y118.939 E5.97721
G1 X96.860 Y117.970 E6.01673
G1 X96.875 Y117.000 E6.05625
G1 X96.860 Y116.030 E6.09576
G1 X96.814 Y115.061 E6.13528
G1 X96.738 Y114.094 E6.17480
G1 X96.632 Y113.130 E6.21432
G1 X96.495 Y112.170 E6.25384
G1 X96.328 Y111.215 E6.29336
G1 X96.132 Y110.265 E6.33288
G1 X95.905 Y109.322 E6.37239
G1 X95.649 Y108.386 E6.41191
G1 X95.364 Y107.459 E6.45143
G1 X95.050 Y106.541 E6.49095
G1 X94.707 Y105.634 E6.53047
G1 X94.336 Y104.738 E6.56999
G1 X93.875 Y103.728 E6.61521
G1 X93.875 Y96.272 E6.91901
G1 X94.336 Y95.262 E6.96424
G1 X94.707 Y94.366 E7.00375
G1 X95.050 Y93.459 E7.04327
G1 X95.364 Y92.541 E7.08279
G1 X95.649 Y91.614 E7.12231
G1 X95.905 Y90.678 E7.16183
G1 X96.132 Y89.735 E7.20135
G1 X96.328 Y88.785 E7.24087
G1 X96.495 Y87.830 E7.28039
G1 X96.632 Y86.870 E7.31990
G1 X96.738 Y85.906 E7.35942
G1 X96.814 Y84.939 E7.39894
G1 X96.860 Y83.970 E7.43846
G1 X96.875 Y83.000 E7.47798
G1 X96.860 Y82.030 E7.51750
G1 X96.814 Y81.061 E7.55701
G1 X96.738 Y80.094 E7.59653
G1 X96.632 Y79.130 E7.63605
G1 X96.495 Y78.170 E7.67557
G1 X96.328 Y77.215 E7.71509
G1 X96.132 Y76.265 E7.75461
G1 X95.905 Y75.322 E7.79412
