; generated by Slic3r 1.0.0RC2 on 2014-10-09 at 02:48:54

; layer_height = 0.35
; perimeters = 3
; top_solid_layers = 3
; bottom_solid_layers = 3
; fill_density = 0.4
; perimeter_speed = 100
; infill_speed = 100
; travel_speed = 130
; nozzle_diameter = 0.35
; filament_diameter = 1.75
; extrusion_multiplier = 0.8
; perimeters extrusion width = 0.35mm
; infill extrusion width = 0.37mm
; solid infill extrusion width = 0.37mm
; top infill extrusion width = 0.37mm

G21 ; set units to millimeters
M107
M190 S50 ; wait for bed temperature to be reached
M104 S235 ; set temperature
G28 ; home all axes
G1 Z5 F5000 ; lift nozzle
M109 S235 ; wait for temperature to be reached
G90 ; use absolute coordinates
G92 E0
M82 ; use absolute distances for extrusion
G1 F1800.000 E-1.00000
G92 E0
G1 Z0.350 F7800.000
G1 X70.760 Y81.760 F7800.000
G1 E2.00000 F1800.000
G1 X71.780 Y80.930 E2.05358 F4800.000
G1 X72.940 Y80.310 E2.10717
G1 X74.190 Y79.930 E2.16040
G1 X75.500 Y79.800 E2.21404
G1 X124.500 Y79.800 E4.21048
G1 X125.810 Y79.930 E4.26411
G1 X127.060 Y80.310 E4.31734
G1 X128.220 Y80.930 E4.37093
G1 X129.240 Y81.760 E4.42451
G1 X130.070 Y82.780 E4.47809
G1 X130.690 Y83.940 E4.53168
G1 X131.070 Y85.190 E4.58491
G1 X131.200 Y86.500 E4.63855
G1 X131.200 Y113.500 E5.73863
G1 X131.070 Y114.810 E5.79226
G1 X130.690 Y116.060 E5.84549
G1 X130.070 Y117.220 E5.89908
G1 X129.240 Y118.240 E5.95266
G1 X128.220 Y119.070 E6.00624
G1 X127.060 Y119.690 E6.05983
G1 X125.810 Y120.070 E6.11306
G1 X124.500 Y120.200 E6.16670
G1 X75.500 Y120.200 E8.16314
G1 X74.190 Y120.070 E8.21678
G1 X72.940 Y119.690 E8.27001
G1 X71.780 Y119.070 E8.32360
G1 X70.760 Y118.240 E8.37718
G1 X69.930 Y117.220 E8.43076
G1 X69.310 Y116.060 E8.48435
G1 X68.930 Y114.810 E8.53758
G1 X68.800 Y113.500 E8.59121
G1 X68.800 Y86.500 E9.69129
G1 X68.930 Y85.190 E9.74493
G1 X69.310 Y83.940 E9.79816
G1 X69.930 Y82.780 E9.85175
G1 X70.727 Y81.801 E9.90319
G1 X71.010 Y82.010 F7800.000
G1 X71.970 Y81.220 E9.95384 F4800.000
G1 X73.070 Y80.630 E10.00470
G1 X74.260 Y80.270 E10.05536
G1 X75.500 Y80.150 E10.10611
G1 X124.500 Y80.150 E12.10255
G1 X125.740 Y80.270 E12.15331
G1 X126.930 Y80.630 E12.20397
G1 X128.030 Y81.220 E12.25483
G1 X128.990 Y82.010 E12.30548
G1 X129.780 Y82.970 E12.35614
G1 X130.370 Y84.070 E12.40699
G1 X130.730 Y85.260 E12.45765
G1 X130.850 Y86.500 E12.50841
G1 X130.850 Y113.500 E13.60849
G1 X130.730 Y114.740 E13.65924
G1 X130.370 Y115.930 E13.70990
G1 X129.780 Y117.030 E13.76076
G1 X128.990 Y117.990 E13.81141
G1 X128.030 Y118.780 E13.86207
G1 X126.930 Y119.370 E13.91292
G1 X125.740 Y119.730 E13.96358
G1 X124.500 Y119.850 E14.01434
G1 X75.500 Y119.850 E16.01078
G1 X74.260 Y119.730 E16.06154
G1 X73.070 Y119.370 E16.11219
G1 X71.970 Y118.780 E16.16305
G1 X71.010 Y117.990 E16.21370
G1 X70.220 Y117.030 E16.26436
G1 X69.630 Y115.930 E16.31522
G1 X69.270 Y114.740 E16.36587
G1 X69.150 Y113.500 E16.41663
G1 X69.150 Y86.500 E17.51671
G1 X69.270 Y85.260 E17.56747
G1 X69.630 Y84.070 E17.61812
G1 X70.220 Y82.970 E17.66898
G1 X70.977 Y82.051 E17.71750
G1 F1800.000 E16.71750
G92 E0
G1 X77.625 Y88.625 F7800.000
G1 E2.00000 F1800.000
G1 X122.375 Y88.625 E3.82328 F4800.000
G1 X122.375 Y108.375 E4.62797
G1 X77.625 Y108.375 E6.45125
G1 X77.625 Y88.677 E7.25379
G1 X77.975 Y88.975 F7800.000
G1 X122.025 Y88.975 E9.04855 F4800.000
G1 X122.025 Y108.025 E9.82472
G1 X77.975 Y108.025 E11.61948
G1 X77.975 Y89.028 E12.39351
G1 X78.325 Y89.325 F7800.000
G1 X121.675 Y89.325 E14.15974 F4320.000
G1 X121.675 Y107.675 E14.90739
G1 X78.325 Y107.675 E16.67363
G1 X78.325 Y89.377 E17.41913
G1 X78.325 Y88.975 F7800.000
G1 X76.375 Y87.375 F7800.000
G1 X123.625 Y87.375 E19.34427 F4800.000
G1 X123.625 Y112.625 E20.37305
G1 X76.375 Y112.625 E22.29819
G1 X76.375 Y87.427 E23.32483
G1 X76.025 Y87.025 F7800.000
G1 X123.975 Y87.025 E25.27849 F4800.000
G1 X123.975 Y112.975 E26.33578
G1 X76.025 Y112.975 E28.28944
G1 X76.025 Y87.078 E29.34460
G1 X75.675 Y86.675 F7800.000
G1 X124.325 Y86.675 E31.32678 F4320.000
G1 X124.325 Y113.325 E32.41260
G1 X75.675 Y113.325 E34.39478
G1 X75.675 Y86.728 E35.47846
G1 X75.978 Y86.850 F7800.000
G1 X77.386 Y107.944 F7800.000
G1 X76.614 Y107.171 E35.52506 F4800.000
G1 X76.614 Y106.653 E35.54714
G1 X77.386 Y107.426 E35.59375
G1 X77.386 Y106.908 E35.61583
G1 X76.614 Y106.135 E35.66243
G1 X76.614 Y105.617 E35.68451
G1 X77.386 Y106.390 E35.73111
G1 X77.386 Y105.872 E35.75319
G1 X76.614 Y105.099 E35.79980
G1 X76.614 Y104.581 E35.82188
G1 X77.386 Y105.354 E35.86848
G1 X77.386 Y104.836 E35.89056
G1 X76.614 Y104.063 E35.93717
G1 X76.614 Y103.545 E35.95925
G1 X77.386 Y104.318 E36.00585
G1 X77.386 Y103.800 E36.02793
G1 X76.614 Y103.027 E36.07453
G1 X76.614 Y102.509 E36.09661
G1 X77.386 Y103.282 E36.14322
G1 X77.386 Y102.764 E36.16530
G1 X76.614 Y101.991 E36.21190
G1 X76.614 Y101.474 E36.23398
G1 X77.386 Y102.247 E36.28058
G1 X77.386 Y101.729 E36.30266
G1 X76.614 Y100.956 E36.34927
G1 X76.614 Y100.438 E36.37135
G1 X77.386 Y101.211 E36.41795
G1 X77.386 Y100.693 E36.44003
G1 X76.614 Y99.920 E36.48664
G1 X76.614 Y99.402 E36.50872
G1 X77.386 Y100.175 E36.55532
G1 X77.386 Y99.657 E36.57740
G1 X76.614 Y98.884 E36.62400
G1 X76.614 Y98.366 E36.64608
G1 X77.386 Y99.139 E36.69269
G1 X77.386 Y98.621 E36.71477
G1 X76.614 Y97.848 E36.76137
G1 X76.614 Y97.330 E36.78345
G1 X77.386 Y98.103 E36.83006
G1 X77.386 Y97.585 E36.85214
G1 X76.614 Y96.812 E36.89874
G1 X76.614 Y96.294 E36.92082
G1 X77.386 Y97.067 E36.96742
G1 X77.386 Y96.549 E36.98950
G1 X76.614 Y95.776 E37.03611
G1 X76.614 Y95.259 E37.05819
G1 X77.386 Y96.032 E37.10479
G1 X77.386 Y95.514 E37.12687
G1 X76.614 Y94.741 E37.17347
G1 X76.614 Y94.223 E37.19555
G1 X77.386 Y94.996 E37.24216
G1 X77.386 Y94.478 E37.26424
G1 X76.614 Y93.705 E37.31084
G1 X76.614 Y93.187 E37.33292
G1 X77.386 Y93.960 E37.37953
G1 X77.386 Y93.442 E37.40161
G1 X76.614 Y92.669 E37.44821
G1 X76.614 Y92.151 E37.47029
G1 X77.386 Y92.924 E37.51689
G1 X77.386 Y92.406 E37.53897
G1 X76.614 Y91.633 E37.58558
G1 X76.614 Y91.115 E37.60766
G1 X77.386 Y91.888 E37.65426
G1 X77.386 Y91.370 E37.67634
G1 X76.614 Y90.597 E37.72295
G1 X76.614 Y90.079 E37.74503
G1 X77.386 Y90.852 E37.79163
G1 X77.386 Y90.334 E37.81371
G1 X76.614 Y89.561 E37.86031
G1 X76.614 Y89.044 E37.88239
G1 X77.386 Y89.816 E37.92900
G1 X77.386 Y89.299 E37.95108
G1 X76.614 Y88.526 E37.99768
G1 X76.614 Y88.008 E38.01976
G1 X77.386 Y88.781 E38.06636
G1 X77.510 Y88.386 E38.08398
G1 X76.737 Y87.614 E38.13058
G1 X77.255 Y87.614 E38.15266
G1 X78.028 Y88.386 E38.19927
G1 X78.546 Y88.386 E38.22135
G1 X77.773 Y87.614 E38.26795
G1 X78.291 Y87.614 E38.29003
G1 X79.064 Y88.386 E38.33663
G1 X79.582 Y88.386 E38.35871
G1 X78.809 Y87.614 E38.40532
G1 X79.327 Y87.614 E38.42740
G1 X80.100 Y88.386 E38.47400
G1 X80.618 Y88.386 E38.49608
G1 X79.845 Y87.614 E38.54268
G1 X80.363 Y87.614 E38.56476
G1 X81.136 Y88.386 E38.61137
G1 X81.654 Y88.386 E38.63345
G1 X80.881 Y87.614 E38.68005
G1 X81.399 Y87.614 E38.70213
G1 X82.172 Y88.386 E38.74874
G1 X82.689 Y88.386 E38.77082
G1 X81.916 Y87.614 E38.81742
G1 X82.434 Y87.614 E38.83950
G1 X83.207 Y88.386 E38.88610
G1 X83.725 Y88.386 E38.90818
G1 X82.952 Y87.614 E38.95479
G1 X83.470 Y87.614 E38.97687
G1 X84.243 Y88.386 E39.02347
G1 X84.761 Y88.386 E39.04555
G1 X83.988 Y87.614 E39.09215
G1 X84.506 Y87.614 E39.11423
G1 X85.279 Y88.386 E39.16084
G1 X85.797 Y88.386 E39.18292
G1 X85.024 Y87.614 E39.22952
G1 X85.542 Y87.614 E39.25160
G1 X86.315 Y88.386 E39.29821
G1 X86.833 Y88.386 E39.32029
G1 X86.060 Y87.614 E39.36689
G1 X86.578 Y87.614 E39.38897
G1 X87.351 Y88.386 E39.43557
G1 X87.869 Y88.386 E39.45765
G1 X87.096 Y87.614 E39.50426
G1 X87.614 Y87.614 E39.52634
G1 X88.387 Y88.386 E39.57294
G1 X88.904 Y88.386 E39.59502
G1 X88.131 Y87.614 E39.64163
G1 X88.649 Y87.614 E39.66371
G1 X89.422 Y88.386 E39.71031
G1 X89.940 Y88.386 E39.73239
G1 X89.167 Y87.614 E39.77899
G1 X89.685 Y87.614 E39.80107
G1 X90.458 Y88.386 E39.84768
G1 X90.976 Y88.386 E39.86976
G1 X90.203 Y87.614 E39.91636
G1 X90.721 Y87.614 E39.93844
G1 X91.494 Y88.386 E39.98504
G1 X92.012 Y88.386 E40.00712
G1 X91.239 Y87.614 E40.05373
G1 X91.757 Y87.614 E40.07581
G1 X92.530 Y88.386 E40.12241
G1 X93.048 Y88.386 E40.14449
G1 X92.275 Y87.614 E40.19110
G1 X92.793 Y87.614 E40.21318
G1 X93.566 Y88.386 E40.25978
G1 X94.084 Y88.386 E40.28186
G1 X93.311 Y87.614 E40.32846
G1 X93.829 Y87.614 E40.35054
G1 X94.602 Y88.386 E40.39715
G1 X95.119 Y88.386 E40.41923
G1 X94.347 Y87.614 E40.46583
G1 X94.864 Y87.614 E40.48791
G1 X95.637 Y88.386 E40.53451
G1 X96.155 Y88.386 E40.55659
G1 X95.382 Y87.614 E40.60320
G1 X95.900 Y87.614 E40.62528
G1 X96.673 Y88.386 E40.67188
G1 X97.191 Y88.386 E40.69396
G1 X96.418 Y87.614 E40.74057
G1 X96.936 Y87.614 E40.76265
G1 X97.709 Y88.386 E40.80925
G1 X98.227 Y88.386 E40.83133
G1 X97.454 Y87.614 E40.87793
G1 X97.972 Y87.614 E40.90001
G1 X98.745 Y88.386 E40.94662
G1 X99.263 Y88.386 E40.96870
G1 X98.490 Y87.614 E41.01530
G1 X99.008 Y87.614 E41.03738
G1 X99.781 Y88.386 E41.08399
G1 X100.299 Y88.386 E41.10607
G1 X99.526 Y87.614 E41.15267
G1 X100.044 Y87.614 E41.17475
G1 X100.817 Y88.386 E41.22135
G1 X101.335 Y88.386 E41.24343
G1 X100.562 Y87.614 E41.29004
G1 X101.079 Y87.614 E41.31212
G1 X101.852 Y88.386 E41.35872
G1 X102.370 Y88.386 E41.38080
G1 X101.597 Y87.614 E41.42740
G1 X102.115 Y87.614 E41.44948
G1 X102.888 Y88.386 E41.49609
G1 X103.406 Y88.386 E41.51817
G1 X102.633 Y87.614 E41.56477
G1 X103.151 Y87.614 E41.58685
G1 X103.924 Y88.386 E41.63346
G1 X104.442 Y88.386 E41.65554
G1 X103.669 Y87.614 E41.70214
G1 X104.187 Y87.614 E41.72422
G1 X104.960 Y88.386 E41.77082
G1 X105.478 Y88.386 E41.79290
G1 X104.705 Y87.614 E41.83951
G1 X105.223 Y87.614 E41.86159
G1 X105.996 Y88.386 E41.90819
G1 X106.514 Y88.386 E41.93027
G1 X105.741 Y87.614 E41.97687
G1 X106.259 Y87.614 E41.99896
G1 X107.032 Y88.386 E42.04556
G1 X107.550 Y88.386 E42.06764
G1 X106.777 Y87.614 E42.11424
G1 X107.294 Y87.614 E42.13632
G1 X108.067 Y88.386 E42.18293
G1 X108.585 Y88.386 E42.20501
G1 X107.812 Y87.614 E42.25161
G1 X108.330 Y87.614 E42.27369
G1 X109.103 Y88.386 E42.32029
G1 X109.621 Y88.386 E42.34237
G1 X108.848 Y87.614 E42.38898
G1 X109.366 Y87.614 E42.41106
G1 X110.139 Y88.386 E42.45766
G1 X110.657 Y88.386 E42.47974
G1 X109.884 Y87.614 E42.52635
G1 X110.402 Y87.614 E42.54843
G1 X111.175 Y88.386 E42.59503
G1 X111.693 Y88.386 E42.61711
G1 X110.920 Y87.614 E42.66371
G1 X111.438 Y87.614 E42.68579
G1 X112.211 Y88.386 E42.73240
G1 X112.729 Y88.386 E42.75448
G1 X111.956 Y87.614 E42.80108
G1 X112.474 Y87.614 E42.82316
G1 X113.247 Y88.386 E42.86977
G1 X113.765 Y88.386 E42.89185
G1 X112.992 Y87.614 E42.93845
G1 X113.509 Y87.614 E42.96053
G1 X114.282 Y88.386 E43.00713
G1 X114.800 Y88.386 E43.02921
G1 X114.027 Y87.614 E43.07582
G1 X114.545 Y87.614 E43.09790
G1 X115.318 Y88.386 E43.14450
G1 X115.836 Y88.386 E43.16658
G1 X115.063 Y87.614 E43.21318
G1 X115.581 Y87.614 E43.23526
G1 X116.354 Y88.386 E43.28187
G1 X116.872 Y88.386 E43.30395
G1 X116.099 Y87.614 E43.35055
G1 X116.617 Y87.614 E43.37263
G1 X117.390 Y88.386 E43.41924
G1 X117.908 Y88.386 E43.44132
G1 X117.135 Y87.614 E43.48792
G1 X117.653 Y87.614 E43.51000
G1 X118.426 Y88.386 E43.55660
G1 X118.944 Y88.386 E43.57868
G1 X118.171 Y87.614 E43.62529
G1 X118.689 Y87.614 E43.64737
G1 X119.462 Y88.386 E43.69397
G1 X119.980 Y88.386 E43.71605
G1 X119.207 Y87.614 E43.76266
G1 X119.725 Y87.614 E43.78474
G1 X120.498 Y88.386 E43.83134
G1 X121.015 Y88.386 E43.85342
G1 X120.242 Y87.614 E43.90002
G1 X120.760 Y87.614 E43.92210
G1 X121.533 Y88.386 E43.96871
G1 X122.051 Y88.386 E43.99079
G1 X121.278 Y87.614 E44.03739
G1 X121.796 Y87.614 E44.05947
G1 X122.569 Y88.386 E44.10607
G1 X123.350 Y87.614 F7800.000
G1 X123.386 Y87.650 E44.10828 F4800.000
G1 X123.386 Y88.168 E44.13036
G1 X122.832 Y87.614 E44.16379
G1 X122.314 Y87.614 E44.18587
G1 X123.386 Y88.686 E44.25052
G1 X123.386 Y89.204 E44.27260
G1 X122.614 Y88.431 E44.31920
G1 X122.614 Y88.949 E44.34128
G1 X123.386 Y89.722 E44.38789
G1 X123.386 Y90.240 E44.40997
G1 X122.614 Y89.467 E44.45657
G1 X122.614 Y89.985 E44.47865
G1 X123.386 Y90.758 E44.52526
G1 X123.386 Y91.275 E44.54734
G1 X122.614 Y90.502 E44.59394
G1 X122.614 Y91.020 E44.61602
G1 X123.386 Y91.793 E44.66262
G1 X123.386 Y92.311 E44.68470
G1 X122.614 Y91.538 E44.73131
G1 X122.614 Y92.056 E44.75339
G1 X123.386 Y92.829 E44.79999
G1 X123.386 Y93.347 E44.82207
G1 X122.614 Y92.574 E44.86867
G1 X122.614 Y93.092 E44.89075
G1 X123.386 Y93.865 E44.93736
G1 X123.386 Y94.383 E44.95944
G1 X122.614 Y93.610 E45.00604
G1 X122.614 Y94.128 E45.02812
G1 X123.386 Y94.901 E45.07473
G1 X123.386 Y95.419 E45.09681
G1 X122.614 Y94.646 E45.14341
G1 X122.614 Y95.164 E45.16549
G1 X123.386 Y95.937 E45.21209
G1 X123.386 Y96.455 E45.23417
G1 X122.614 Y95.682 E45.28078
G1 X122.614 Y96.200 E45.30286
G1 X123.386 Y96.973 E45.34946
G1 X123.386 Y97.490 E45.37154
G1 X122.614 Y96.718 E45.41814
G1 X122.614 Y97.235 E45.44022
G1 X123.386 Y98.008 E45.48683
G1 X123.386 Y98.526 E45.50891
G1 X122.614 Y97.753 E45.55551
G1 X122.614 Y98.271 E45.57759
G1 X123.386 Y99.044 E45.62420
G1 X123.386 Y99.562 E45.64628
G1 X122.614 Y98.789 E45.69288
G1 X122.614 Y99.307 E45.71496
G1 X123.386 Y100.080 E45.76156
G1 X123.386 Y100.598 E45.78364
G1 X122.614 Y99.825 E45.83025
G1 X122.614 Y100.343 E45.85233
G1 X123.386 Y101.116 E45.89893
G1 X123.386 Y101.634 E45.92101
G1 X122.614 Y100.861 E45.96762
G1 X122.614 Y101.379 E45.98970
G1 X123.386 Y102.152 E46.03630
G1 X123.386 Y102.670 E46.05838
G1 X122.614 Y101.897 E46.10498
G1 X122.614 Y102.415 E46.12706
G1 X123.386 Y103.188 E46.17367
G1 X123.386 Y103.706 E46.19575
G1 X122.614 Y102.933 E46.24235
G1 X122.614 Y103.450 E46.26443
G1 X123.386 Y104.223 E46.31103
G1 X123.386 Y104.741 E46.33311
G1 X122.614 Y103.968 E46.37972
G1 X122.614 Y104.486 E46.40180
G1 X123.386 Y105.259 E46.44840
G1 X123.386 Y105.777 E46.47048
G1 X122.614 Y105.004 E46.51709
G1 X122.614 Y105.522 E46.53917
G1 X123.386 Y106.295 E46.58577
G1 X123.386 Y106.813 E46.60785
G1 X122.614 Y106.040 E46.65445
G1 X122.614 Y106.558 E46.67653
G1 X123.386 Y107.331 E46.72314
G1 X123.386 Y107.849 E46.74522
G1 X122.614 Y107.076 E46.79182
G1 X122.614 Y107.594 E46.81390
G1 X123.386 Y108.367 E46.86051
G1 X123.386 Y108.885 E46.88259
G1 X122.614 Y108.112 E46.92919
G1 X122.597 Y108.614 E46.95059
G1 X123.386 Y109.403 E46.99817
G1 X123.386 Y109.921 E47.02025
G1 X122.079 Y108.614 E47.09905
G1 X121.562 Y108.614 E47.12113
G1 X123.386 Y110.438 E47.23116
G1 X123.386 Y110.956 E47.25324
G1 X121.044 Y108.614 E47.39450
G1 X120.526 Y108.614 E47.41658
G1 X123.386 Y111.474 E47.58906
G1 X123.386 Y111.992 E47.61114
G1 X120.008 Y108.614 E47.81484
G1 X119.490 Y108.614 E47.83692
G1 X123.263 Y112.386 E48.06440
G1 X122.745 Y112.386 E48.08648
G1 X118.972 Y108.614 E48.31396
G1 X118.454 Y108.614 E48.33604
G1 X122.227 Y112.386 E48.56352
G1 X121.709 Y112.386 E48.58560
G1 X117.936 Y108.614 E48.81307
G1 X117.418 Y108.614 E48.83515
G1 X121.191 Y112.386 E49.06263
G1 X120.673 Y112.386 E49.08471
G1 X116.900 Y108.614 E49.31219
G1 X116.382 Y108.614 E49.33427
G1 X120.155 Y112.386 E49.56175
G1 X119.637 Y112.386 E49.58383
G1 X115.864 Y108.614 E49.81130
G1 X115.347 Y108.614 E49.83338
G1 X119.119 Y112.386 E50.06086
G1 X118.602 Y112.386 E50.08294
G1 X114.829 Y108.614 E50.31042
G1 X114.311 Y108.614 E50.33250
G1 X118.084 Y112.386 E50.55997
G1 X117.566 Y112.386 E50.58205
G1 X113.793 Y108.614 E50.80953
G1 X113.275 Y108.614 E50.83161
G1 X117.048 Y112.386 E51.05909
G1 X116.530 Y112.386 E51.08117
G1 X112.757 Y108.614 E51.30865
G1 X112.239 Y108.614 E51.33073
G1 X116.012 Y112.386 E51.55820
G1 X115.494 Y112.386 E51.58028
G1 X111.721 Y108.614 E51.80776
G1 X111.203 Y108.614 E51.82984
G1 X114.976 Y112.386 E52.05732
G1 X114.458 Y112.386 E52.07940
G1 X110.685 Y108.614 E52.30688
G1 X110.167 Y108.614 E52.32896
G1 X113.940 Y112.386 E52.55643
G1 X113.422 Y112.386 E52.57851
G1 X109.649 Y108.614 E52.80599
G1 X109.131 Y108.614 E52.82807
G1 X112.904 Y112.386 E53.05555
G1 X112.387 Y112.386 E53.07763
G1 X108.614 Y108.614 E53.30511
G1 X108.096 Y108.614 E53.32719
G1 X111.869 Y112.386 E53.55466
G1 X111.351 Y112.386 E53.57674
G1 X107.578 Y108.614 E53.80422
G1 X107.060 Y108.614 E53.82630
