; generated by Slic3r 1.0.0RC2 on 2014-10-07 at 14:46:36

; layer_height = 0.35
; perimeters = 3
; top_solid_layers = 3
; bottom_solid_layers = 3
; fill_density = 0.4
; perimeter_speed = 80
; infill_speed = 80
; travel_speed = 130
; nozzle_diameter = 0.35
; filament_diameter = 1.75
; extrusion_multiplier = 0.8
; perimeters extrusion width = 0.35mm
; infill extrusion width = 0.37mm
; solid infill extrusion width = 0.37mm
; top infill extrusion width = 0.37mm

G21 ; set units to millimeters
M107
M190 S50 ; wait for bed temperature to be reached
M104 S235 ; set temperature
G28 ; home all axes
G1 Z5 F5000 ; lift nozzle
M109 S235 ; wait for temperature to be reached
G90 ; use absolute coordinates
G92 E0
M82 ; use absolute distances for extrusion
G1 F1800.000 E-1.00000
G92 E0
G1 Z0.350 F7800.000
G1 X74.760 Y77.760 F7800.000
G1 E2.00000 F1800.000
G1 X75.780 Y76.930 E2.05358 F3840.000
G1 X76.940 Y76.310 E2.10717
G1 X78.190 Y75.930 E2.16040
G1 X79.500 Y75.800 E2.21404
G1 X120.500 Y75.800 E3.88453
G1 X121.810 Y75.930 E3.93816
G1 X123.060 Y76.310 E3.99139
G1 X124.220 Y76.930 E4.04498
G1 X125.240 Y77.760 E4.09856
G1 X126.070 Y78.780 E4.15214
G1 X126.690 Y79.940 E4.20573
G1 X127.070 Y81.190 E4.25896
G1 X127.200 Y82.500 E4.31260
G1 X127.200 Y117.500 E5.73863
G1 X127.070 Y118.810 E5.79226
G1 X126.690 Y120.060 E5.84549
G1 X126.070 Y121.220 E5.89908
G1 X125.240 Y122.240 E5.95266
G1 X124.220 Y123.070 E6.00624
G1 X123.060 Y123.690 E6.05983
G1 X121.810 Y124.070 E6.11306
G1 X120.500 Y124.200 E6.16670
G1 X79.500 Y124.200 E7.83719
G1 X78.190 Y124.070 E7.89083
G1 X76.940 Y123.690 E7.94406
G1 X75.780 Y123.070 E7.99765
G1 X74.760 Y122.240 E8.05123
G1 X73.930 Y121.220 E8.10481
G1 X73.310 Y120.060 E8.15840
G1 X72.930 Y118.810 E8.21163
G1 X72.800 Y117.500 E8.26526
G1 X72.800 Y82.500 E9.69129
G1 X72.930 Y81.190 E9.74493
G1 X73.310 Y79.940 E9.79816
G1 X73.930 Y78.780 E9.85175
G1 X74.727 Y77.801 E9.90319
G1 X75.010 Y78.010 F7800.000
G1 X75.970 Y77.220 E9.95384 F3840.000
G1 X77.070 Y76.630 E10.00470
G1 X78.260 Y76.270 E10.05536
G1 X79.500 Y76.150 E10.10611
G1 X120.500 Y76.150 E11.77660
G1 X121.740 Y76.270 E11.82736
G1 X122.930 Y76.630 E11.87802
G1 X124.030 Y77.220 E11.92888
G1 X124.990 Y78.010 E11.97953
G1 X125.780 Y78.970 E12.03019
G1 X126.370 Y80.070 E12.08104
G1 X126.730 Y81.260 E12.13170
G1 X126.850 Y82.500 E12.18246
G1 X126.850 Y117.500 E13.60849
G1 X126.730 Y118.740 E13.65924
G1 X126.370 Y119.930 E13.70990
G1 X125.780 Y121.030 E13.76076
G1 X124.990 Y121.990 E13.81141
G1 X124.030 Y122.780 E13.86207
G1 X122.930 Y123.370 E13.91292
G1 X121.740 Y123.730 E13.96358
G1 X120.500 Y123.850 E14.01434
G1 X79.500 Y123.850 E15.68483
G1 X78.260 Y123.730 E15.73559
G1 X77.070 Y123.370 E15.78624
G1 X75.970 Y122.780 E15.83710
G1 X75.010 Y121.990 E15.88775
G1 X74.220 Y121.030 E15.93841
G1 X73.630 Y119.930 E15.98927
G1 X73.270 Y118.740 E16.03992
G1 X73.150 Y117.500 E16.09068
G1 X73.150 Y82.500 E17.51671
G1 X73.270 Y81.260 E17.56747
G1 X73.630 Y80.070 E17.61812
G1 X74.220 Y78.970 E17.66898
G1 X74.977 Y78.051 E17.71750
G1 F1800.000 E16.71750
G92 E0
G1 X111.071 Y84.325 F7800.000
G1 E2.00000 F1800.000
G1 X112.355 Y83.907 E2.05503 F3840.000
G1 X113.149 Y85.000 E2.11006
G1 X112.355 Y86.093 E2.16509
G1 X111.071 Y85.675 E2.22012
G1 X111.071 Y84.377 E2.27301
G1 X111.421 Y84.579 F7800.000
G1 X112.221 Y84.319 E2.30732 F3840.000
G1 X112.716 Y85.000 E2.34163
G1 X112.221 Y85.681 E2.37594
G1 X111.421 Y85.421 E2.41025
G1 X111.421 Y84.631 E2.44242
G1 X111.348 Y84.237 F7800.000
G1 X104.875 Y87.375 F7800.000
G1 X119.125 Y87.375 E3.02302 F3840.000
G1 X119.125 Y112.625 E4.05179
G1 X104.875 Y112.625 E4.63239
G1 X104.875 Y87.427 E5.65903
G1 X105.225 Y87.725 F7800.000
G1 X118.775 Y87.725 E6.21111 F3840.000
G1 X118.775 Y112.275 E7.21136
G1 X105.225 Y112.275 E7.76344
G1 X105.225 Y87.778 E8.76156
G1 X105.575 Y88.075 F7800.000
G1 X118.425 Y88.075 E9.28511 F2688.000
G1 X118.425 Y111.925 E10.25685
G1 X105.575 Y111.925 E10.78041
G1 X105.575 Y88.127 E11.75000
G1 X105.575 Y87.725 F7800.000
G1 F1800.000 E10.75000
G92 E0
G1 X112.355 Y113.907 F7800.000
G1 E2.00000 F1800.000
G1 X113.149 Y115.000 E2.05503 F3840.000
G1 X112.355 Y116.093 E2.11006
G1 X111.071 Y115.675 E2.16509
G1 X111.071 Y114.325 E2.22012
G1 X112.305 Y113.924 E2.27301
G1 X112.221 Y114.319 F7800.000
G1 X112.716 Y115.000 E2.30732 F3840.000
G1 X112.221 Y115.681 E2.34163
G1 X111.421 Y115.421 E2.37594
G1 X111.421 Y114.579 E2.41025
G1 X112.171 Y114.335 E2.44242
G1 X112.524 Y114.144 F7800.000
G1 X112.489 Y113.496 F7800.000
G1 X110.721 Y114.070 E2.51816 F3840.000
G1 X110.721 Y115.930 E2.59392
G1 X112.236 Y116.422 E2.65886
G1 X112.204 Y116.625 E2.66723
G1 X80.375 Y116.625 E3.96407
G1 X80.375 Y114.375 E4.05574
G1 X97.875 Y114.375 E4.76876
G1 X97.875 Y114.339 E4.77021
G1 X98.091 Y114.365 E4.77907
G1 X100.284 Y113.534 E4.87465
G1 X101.840 Y111.778 E4.97022
G1 X102.375 Y109.606 E5.06135
G1 X102.375 Y90.394 E5.84414
G1 X101.840 Y88.222 E5.93525
G1 X100.284 Y86.466 E6.03083
G1 X98.091 Y85.635 E6.12641
G1 X97.875 Y85.661 E6.13527
G1 X97.875 Y85.625 E6.13672
G1 X80.375 Y85.625 E6.84974
G1 X80.375 Y83.375 E6.94141
G1 X112.204 Y83.375 E8.23825
G1 X112.236 Y83.578 E8.24662
G1 X110.721 Y84.070 E8.31155
G1 X110.721 Y85.930 E8.38730
G1 X112.489 Y86.504 E8.46306
G1 X113.582 Y85.000 E8.53881
G1 X112.401 Y83.375 E8.62065
G1 X119.625 Y83.375 E8.91498
G1 X119.625 Y116.625 E10.26971
G1 X112.401 Y116.625 E10.56405
G1 X113.582 Y115.000 E10.64589
G1 X112.520 Y113.538 E10.71950
G1 X119.975 Y116.975 F7800.000
G1 X80.025 Y116.975 E12.34721 F3840.000
G1 X80.025 Y114.025 E12.46740
G1 X97.525 Y114.025 E13.18042
G1 X97.525 Y113.944 E13.18371
G1 X98.047 Y114.008 E13.20515
G1 X100.079 Y113.237 E13.29370
G1 X101.521 Y111.610 E13.38224
G1 X102.025 Y109.564 E13.46812
G1 X102.025 Y90.436 E14.24745
G1 X101.521 Y88.390 E14.33332
G1 X100.079 Y86.763 E14.42187
G1 X98.047 Y85.992 E14.51042
G1 X97.525 Y86.056 E14.53185
G1 X97.525 Y85.975 E14.53515
G1 X80.025 Y85.975 E15.24816
G1 X80.025 Y83.025 E15.36836
G1 X119.975 Y83.025 E16.99607
G1 X119.975 Y116.923 E18.37717
G1 X120.325 Y117.325 F7800.000
G1 X79.675 Y117.325 E20.03340 F2688.000
G1 X79.675 Y113.675 E20.18212
G1 X97.175 Y113.675 E20.89513
G1 X97.175 Y113.549 E20.90026
G1 X98.004 Y113.650 E20.93428
G1 X99.875 Y112.940 E21.01580
G1 X101.201 Y111.443 E21.09732
G1 X101.675 Y109.521 E21.17795
G1 X101.675 Y90.479 E21.95381
G1 X101.201 Y88.557 E22.03444
G1 X99.875 Y87.060 E22.11595
G1 X98.004 Y86.350 E22.19748
G1 X97.175 Y86.451 E22.23149
G1 X97.175 Y86.325 E22.23662
G1 X79.675 Y86.325 E22.94964
G1 X79.675 Y82.675 E23.09835
G1 X120.325 Y82.675 E24.75458
G1 X120.325 Y117.273 E26.16421
G1 X120.022 Y117.150 F7800.000
G1 X119.254 Y113.039 F7800.000
G1 X119.386 Y113.171 E26.17222 F3840.000
G1 X119.386 Y113.689 E26.19430
G1 X118.561 Y112.864 E26.24409
G1 X118.043 Y112.864 E26.26617
G1 X119.386 Y114.207 E26.34719
G1 X119.386 Y114.725 E26.36927
G1 X117.525 Y112.864 E26.48151
G1 X117.007 Y112.864 E26.50359
G1 X119.386 Y115.243 E26.64706
G1 X119.386 Y115.761 E26.66914
G1 X116.489 Y112.864 E26.84383
G1 X115.971 Y112.864 E26.86591
G1 X119.386 Y116.279 E27.07183
G1 X118.976 Y116.386 E27.08992
G1 X115.453 Y112.864 E27.30232
G1 X114.935 Y112.864 E27.32440
G1 X118.458 Y116.386 E27.53681
G1 X117.940 Y116.386 E27.55889
G1 X114.417 Y112.864 E27.77129
G1 X113.899 Y112.864 E27.79337
G1 X117.422 Y116.386 E28.00578
G1 X116.904 Y116.386 E28.02786
G1 X113.381 Y112.864 E28.24026
G1 X112.864 Y112.864 E28.26234
G1 X116.387 Y116.386 E28.47474
G1 X115.869 Y116.386 E28.49682
G1 X112.346 Y112.864 E28.70923
G1 X112.278 Y113.314 E28.72864
G1 X111.828 Y112.864 E28.75577
G1 X111.310 Y112.864 E28.77785
G1 X111.887 Y113.441 E28.81265
G1 X111.496 Y113.568 E28.83017
G1 X110.792 Y112.864 E28.87262
G1 X110.274 Y112.864 E28.89470
G1 X111.105 Y113.695 E28.94481
G1 X110.714 Y113.822 E28.96234
G1 X109.756 Y112.864 E29.02010
G1 X109.238 Y112.864 E29.04218
G1 X110.482 Y114.107 E29.11717
G1 X110.482 Y114.625 E29.13925
G1 X108.720 Y112.864 E29.24547
G1 X108.202 Y112.864 E29.26755
G1 X110.482 Y115.143 E29.40500
G1 X110.482 Y115.661 E29.42708
G1 X107.684 Y112.864 E29.59575
G1 X107.166 Y112.864 E29.61783
G1 X110.307 Y116.004 E29.80718
G1 X110.172 Y116.386 E29.82448
G1 X106.649 Y112.864 E30.03688
G1 X106.131 Y112.864 E30.05896
G1 X109.654 Y116.386 E30.27137
G1 X109.136 Y116.386 E30.29345
G1 X105.613 Y112.864 E30.50585
G1 X105.095 Y112.864 E30.52793
G1 X108.618 Y116.386 E30.74033
G1 X108.100 Y116.386 E30.76241
G1 X102.363 Y110.650 E31.10827
G1 X102.261 Y111.066 E31.12652
G1 X107.582 Y116.386 E31.44732
G1 X107.064 Y116.386 E31.46940
G1 X102.159 Y111.481 E31.76516
G1 X102.055 Y111.895 E31.78336
G1 X106.546 Y116.386 E32.05416
G1 X106.028 Y116.386 E32.07624
G1 X101.811 Y112.170 E32.33048
G1 X101.568 Y112.444 E32.34612
G1 X105.510 Y116.386 E32.58380
G1 X104.992 Y116.386 E32.60588
G1 X101.325 Y112.719 E32.82701
G1 X101.081 Y112.993 E32.84265
G1 X104.474 Y116.386 E33.04722
G1 X103.956 Y116.386 E33.06930
G1 X100.838 Y113.268 E33.25732
G1 X100.595 Y113.543 E33.27296
G1 X103.439 Y116.386 E33.44441
G1 X102.921 Y116.386 E33.46649
G1 X100.312 Y113.778 E33.62376
G1 X99.937 Y113.920 E33.64088
G1 X102.403 Y116.386 E33.78956
G1 X101.885 Y116.386 E33.81164
G1 X99.561 Y114.063 E33.95173
G1 X99.186 Y114.205 E33.96886
G1 X101.367 Y116.386 E34.10036
G1 X100.849 Y116.386 E34.12244
G1 X98.810 Y114.348 E34.24537
G1 X98.435 Y114.490 E34.26249
G1 X100.331 Y116.386 E34.37683
G1 X99.813 Y116.386 E34.39891
G1 X98.040 Y114.614 E34.50580
G1 X97.522 Y114.614 E34.52788
G1 X99.295 Y116.386 E34.63478
G1 X98.777 Y116.386 E34.65686
G1 X97.004 Y114.614 E34.76375
G1 X96.486 Y114.614 E34.78583
G1 X98.259 Y116.386 E34.89273
G1 X97.741 Y116.386 E34.91481
G1 X95.968 Y114.614 E35.02170
G1 X95.451 Y114.614 E35.04378
G1 X97.224 Y116.386 E35.15068
G1 X96.706 Y116.386 E35.17276
G1 X94.933 Y114.614 E35.27965
G1 X94.415 Y114.614 E35.30173
G1 X96.188 Y116.386 E35.40863
G1 X95.670 Y116.386 E35.43071
G1 X93.897 Y114.614 E35.53760
G1 X93.379 Y114.614 E35.55968
G1 X95.152 Y116.386 E35.66658
G1 X94.634 Y116.386 E35.68866
G1 X92.861 Y114.614 E35.79555
G1 X92.343 Y114.614 E35.81763
G1 X94.116 Y116.386 E35.92453
G1 X93.598 Y116.386 E35.94661
G1 X91.825 Y114.614 E36.05350
G1 X91.307 Y114.614 E36.07558
G1 X93.080 Y116.386 E36.18248
G1 X92.562 Y116.386 E36.20456
G1 X90.789 Y114.614 E36.31145
G1 X90.271 Y114.614 E36.33353
G1 X92.044 Y116.386 E36.44043
G1 X91.526 Y116.386 E36.46251
G1 X89.753 Y114.614 E36.56940
G1 X89.236 Y114.614 E36.59148
G1 X91.009 Y116.386 E36.69838
G1 X90.491 Y116.386 E36.72046
G1 X88.718 Y114.614 E36.82735
G1 X88.200 Y114.614 E36.84943
G1 X89.973 Y116.386 E36.95633
G1 X89.455 Y116.386 E36.97841
G1 X87.682 Y114.614 E37.08530
G1 X87.164 Y114.614 E37.10738
G1 X88.937 Y116.386 E37.21428
G1 X88.419 Y116.386 E37.23636
G1 X86.646 Y114.614 E37.34325
G1 X86.128 Y114.614 E37.36533
G1 X87.901 Y116.386 E37.47223
G1 X87.383 Y116.386 E37.49431
G1 X85.610 Y114.614 E37.60120
G1 X85.092 Y114.614 E37.62328
G1 X86.865 Y116.386 E37.73018
G1 X86.347 Y116.386 E37.75226
G1 X84.574 Y114.614 E37.85915
G1 X84.056 Y114.614 E37.88123
G1 X85.829 Y116.386 E37.98813
G1 X85.311 Y116.386 E38.01021
G1 X83.538 Y114.614 E38.11710
G1 X83.021 Y114.614 E38.13918
G1 X84.793 Y116.386 E38.24608
G1 X84.276 Y116.386 E38.26816
G1 X82.503 Y114.614 E38.37505
G1 X81.985 Y114.614 E38.39713
G1 X83.758 Y116.386 E38.50403
G1 X83.240 Y116.386 E38.52611
G1 X81.467 Y114.614 E38.63300
G1 X80.949 Y114.614 E38.65508
G1 X82.722 Y116.386 E38.76198
G1 X82.204 Y116.386 E38.78406
G1 X80.614 Y114.796 E38.87994
G1 X80.614 Y115.314 E38.90202
G1 X81.686 Y116.386 E38.96668
G1 X81.168 Y116.386 E38.98876
G1 X80.614 Y115.832 E39.02220
G1 X80.614 Y116.350 E39.04428
G1 X80.650 Y116.386 E39.04648
G1 X104.636 Y112.405 F7800.000
G1 X102.466 Y110.235 E39.17736 F3840.000
G1 X102.568 Y109.819 E39.19560
G1 X104.636 Y111.887 E39.32030
G1 X104.636 Y111.369 E39.34238
G1 X102.614 Y109.346 E39.46435
G1 X102.614 Y108.828 E39.48643
G1 X104.636 Y110.851 E39.60840
G1 X104.636 Y110.334 E39.63048
G1 X102.614 Y108.311 E39.75245
G1 X102.614 Y107.793 E39.77453
G1 X104.636 Y109.816 E39.89649
G1 X104.636 Y109.298 E39.91857
G1 X102.614 Y107.275 E40.04054
G1 X102.614 Y106.757 E40.06262
G1 X104.636 Y108.780 E40.18459
G1 X104.636 Y108.262 E40.20667
G1 X102.614 Y106.239 E40.32864
G1 X102.614 Y105.721 E40.35072
G1 X104.636 Y107.744 E40.47268
G1 X104.636 Y107.226 E40.49476
G1 X102.614 Y105.203 E40.61673
G1 X102.614 Y104.685 E40.63881
G1 X104.636 Y106.708 E40.76078
G1 X104.636 Y106.190 E40.78286
G1 X102.614 Y104.167 E40.90483
G1 X102.614 Y103.649 E40.92691
G1 X104.636 Y105.672 E41.04888
G1 X104.636 Y105.154 E41.07096
G1 X102.614 Y103.131 E41.19292
G1 X102.614 Y102.613 E41.21500
G1 X104.636 Y104.636 E41.33697
G1 X104.636 Y104.119 E41.35905
G1 X102.614 Y102.096 E41.48102
G1 X102.614 Y101.578 E41.50310
G1 X104.636 Y103.601 E41.62507
G1 X104.636 Y103.083 E41.64715
G1 X102.614 Y101.060 E41.76911
G1 X102.614 Y100.542 E41.79119
G1 X104.636 Y102.565 E41.91316
G1 X104.636 Y102.047 E41.93524
G1 X102.614 Y100.024 E42.05721
G1 X102.614 Y99.506 E42.07929
G1 X104.636 Y101.529 E42.20126
G1 X104.636 Y101.011 E42.22334
G1 X102.614 Y98.988 E42.34531
G1 X102.614 Y98.470 E42.36739
G1 X104.636 Y100.493 E42.48935
G1 X104.636 Y99.975 E42.51143
G1 X102.614 Y97.952 E42.63340
G1 X102.614 Y97.434 E42.65548
G1 X104.636 Y99.457 E42.77745
G1 X104.636 Y98.939 E42.79953
G1 X102.614 Y96.916 E42.92150
G1 X102.614 Y96.398 E42.94358
G1 X104.636 Y98.421 E43.06554
G1 X104.636 Y97.903 E43.08762
G1 X102.614 Y95.881 E43.20959
G1 X102.614 Y95.363 E43.23167
G1 X104.636 Y97.386 E43.35364
G1 X104.636 Y96.868 E43.37572
G1 X102.614 Y94.845 E43.49769
G1 X102.614 Y94.327 E43.51977
G1 X104.636 Y96.350 E43.64174
G1 X104.636 Y95.832 E43.66382
G1 X102.614 Y93.809 E43.78578
G1 X102.614 Y93.291 E43.80786
G1 X104.636 Y95.314 E43.92983
G1 X104.636 Y94.796 E43.95191
G1 X102.614 Y92.773 E44.07388
G1 X102.614 Y92.255 E44.09596
G1 X104.636 Y94.278 E44.21793
G1 X104.636 Y93.760 E44.24001
G1 X102.614 Y91.737 E44.36198
G1 X102.614 Y91.219 E44.38406
G1 X104.636 Y93.242 E44.50602
G1 X104.636 Y92.724 E44.52810
G1 X102.614 Y90.701 E44.65007
G1 X102.554 Y90.124 E44.67481
G1 X104.636 Y92.206 E44.80035
G1 X104.636 Y91.688 E44.82243
G1 X102.385 Y89.437 E44.95819
G1 X102.215 Y88.749 E44.98837
G1 X104.636 Y91.171 E45.13435
G1 X104.636 Y90.653 E45.15643
G1 X101.788 Y87.804 E45.32819
G1 X100.141 Y86.157 F7800.000
G1 X97.597 Y83.614 E45.48153 F3840.000
G1 X98.115 Y83.614 E45.50361
G1 X104.636 Y90.135 E45.89678
G1 X104.636 Y89.617 E45.91886
G1 X98.633 Y83.614 E46.28081
G1 X99.151 Y83.614 E46.30289
G1 X104.636 Y89.099 E46.63361
G1 X104.636 Y88.581 E46.65569
G1 X99.669 Y83.614 E46.95518
G1 X100.187 Y83.614 E46.97726
G1 X104.636 Y88.063 E47.24553
G1 X104.636 Y87.545 E47.26761
G1 X100.705 Y83.614 E47.50465
G1 X101.223 Y83.614 E47.52673
G1 X104.746 Y87.136 E47.73913
G1 X105.264 Y87.136 E47.76122
G1 X101.741 Y83.614 E47.97362
G1 X102.259 Y83.614 E47.99570
G1 X105.782 Y87.136 E48.20810
G1 X106.300 Y87.136 E48.23018
G1 X102.777 Y83.614 E48.44259
G1 X103.294 Y83.614 E48.46467
G1 X106.817 Y87.136 E48.67707
G1 X107.335 Y87.136 E48.69915
G1 X103.812 Y83.614 E48.91156
G1 X104.330 Y83.614 E48.93364
G1 X107.853 Y87.136 E49.14604
G1 X108.371 Y87.136 E49.16812
G1 X104.848 Y83.614 E49.38053
G1 X105.366 Y83.614 E49.40261
G1 X108.889 Y87.136 E49.61501
G1 X109.407 Y87.136 E49.63709
G1 X105.884 Y83.614 E49.84950
G1 X106.402 Y83.614 E49.87158
G1 X109.925 Y87.136 E50.08398
G1 X110.443 Y87.136 E50.10606
G1 X106.920 Y83.614 E50.31847
G1 X107.438 Y83.614 E50.34055
G1 X110.961 Y87.136 E50.55295
G1 X111.479 Y87.136 E50.57503
G1 X107.956 Y83.614 E50.78743
G1 X108.474 Y83.614 E50.80951
G1 X110.482 Y85.622 E50.93060
G1 X110.482 Y85.104 E50.95268
G1 X108.992 Y83.614 E51.04254
G1 X109.510 Y83.614 E51.06462
G1 X110.482 Y84.586 E51.12325
G1 X110.307 Y83.893 E51.15372
G1 X110.027 Y83.614 E51.17057
G1 X111.195 Y86.334 F7800.000
G1 X111.997 Y87.136 E51.21893 F3840.000
G1 X112.515 Y87.136 E51.24101
G1 X111.962 Y86.584 E51.27434
G1 X112.622 Y86.726 E51.30314
G1 X113.032 Y87.136 E51.32788
G1 X113.550 Y87.136 E51.34996
