; generated by Slic3r 1.0.0RC2 on 2014-10-07 at 14:46:20

; layer_height = 0.35
; perimeters = 3
; top_solid_layers = 3
; bottom_solid_layers = 3
; fill_density = 0.4
; perimeter_speed = 80
; infill_speed = 80
; travel_speed = 130
; nozzle_diameter = 0.35
; filament_diameter = 1.75
; extrusion_multiplier = 0.8
; perimeters extrusion width = 0.35mm
; infill extrusion width = 0.37mm
; solid infill extrusion width = 0.37mm
; top infill extrusion width = 0.37mm

G21 ; set units to millimeters
M107
M190 S50 ; wait for bed temperature to be reached
M104 S235 ; set temperature
G28 ; home all axes
G1 Z5 F5000 ; lift nozzle
M109 S235 ; wait for temperature to be reached
G90 ; use absolute coordinates
G92 E0
M82 ; use absolute distances for extrusion
G1 F1800.000 E-1.00000
G92 E0
G1 Z0.350 F7800.000
G1 X60.260 Y70.260 F7800.000
G1 E2.00000 F1800.000
G1 X61.280 Y69.430 E2.05358 F3840.000
G1 X62.440 Y68.810 E2.10717
G1 X63.690 Y68.430 E2.16040
G1 X65.000 Y68.300 E2.21404
G1 X106.000 Y68.300 E3.88453
G1 X107.580 Y68.490 E3.94937
G1 X109.080 Y69.050 E4.01460
G1 X138.080 Y84.050 E5.34487
G1 X139.300 Y84.860 E5.40453
G1 X140.310 Y85.910 E5.46389
G1 X141.070 Y87.160 E5.52350
G1 X141.540 Y88.550 E5.58328
G1 X141.700 Y90.000 E5.64272
G1 X141.700 Y125.000 E7.06875
G1 X141.570 Y126.310 E7.12238
G1 X141.190 Y127.560 E7.17561
G1 X140.570 Y128.720 E7.22920
G1 X139.740 Y129.740 E7.28278
G1 X138.720 Y130.570 E7.33636
G1 X137.560 Y131.190 E7.38995
G1 X136.310 Y131.570 E7.44318
G1 X135.000 Y131.700 E7.49682
G1 X94.000 Y131.700 E9.16731
G1 X92.420 Y131.510 E9.23215
G1 X90.920 Y130.950 E9.29738
G1 X61.920 Y115.950 E10.62765
G1 X60.700 Y115.140 E10.68732
G1 X59.690 Y114.090 E10.74668
G1 X58.930 Y112.840 E10.80628
G1 X58.460 Y111.450 E10.86606
G1 X58.300 Y110.000 E10.92550
G1 X58.300 Y75.000 E12.35153
G1 X58.430 Y73.690 E12.40517
G1 X58.810 Y72.440 E12.45840
G1 X59.430 Y71.280 E12.51199
G1 X60.227 Y70.301 E12.56343
G1 X60.510 Y70.510 F7800.000
G1 X61.470 Y69.720 E12.61408 F3840.000
G1 X62.570 Y69.130 E12.66494
G1 X63.760 Y68.770 E12.71559
G1 X65.000 Y68.650 E12.76635
G1 X106.000 Y68.650 E14.43684
G1 X107.500 Y68.830 E14.49840
G1 X108.920 Y69.360 E14.56015
G1 X137.920 Y84.360 E15.89042
G1 X139.070 Y85.130 E15.94681
G1 X140.030 Y86.130 E16.00329
G1 X140.750 Y87.310 E16.05961
G1 X141.200 Y88.620 E16.11604
G1 X141.350 Y90.000 E16.17260
G1 X141.350 Y125.000 E17.59863
G1 X141.230 Y126.240 E17.64939
G1 X140.870 Y127.430 E17.70004
G1 X140.280 Y128.530 E17.75090
G1 X139.490 Y129.490 E17.80155
G1 X138.530 Y130.280 E17.85221
G1 X137.430 Y130.870 E17.90307
G1 X136.240 Y131.230 E17.95372
G1 X135.000 Y131.350 E18.00448
G1 X94.000 Y131.350 E19.67497
G1 X92.500 Y131.170 E19.73652
G1 X91.080 Y130.640 E19.79828
G1 X62.080 Y115.640 E21.12855
G1 X60.930 Y114.870 E21.18493
G1 X59.970 Y113.870 E21.24141
G1 X59.250 Y112.690 E21.29773
G1 X58.800 Y111.380 E21.35417
G1 X58.650 Y110.000 E21.41073
G1 X58.650 Y75.000 E22.83675
G1 X58.770 Y73.760 E22.88751
G1 X59.130 Y72.570 E22.93817
G1 X59.720 Y71.470 E22.98903
G1 X60.477 Y70.551 E23.03754
G1 F1800.000 E22.03754
G92 E0
G1 X125.247 Y91.590 F7800.000
G1 E2.00000 F1800.000
G1 X126.979 Y91.027 E2.07419 F3840.000
G1 X128.049 Y92.500 E2.14838
G1 X126.979 Y93.973 E2.22257
G1 X125.247 Y93.410 E2.29676
G1 X125.247 Y91.642 E2.36881
G1 X125.597 Y91.844 F7800.000
G1 X126.845 Y91.438 E2.42227 F3840.000
G1 X127.616 Y92.500 E2.47574
G1 X126.845 Y93.562 E2.52921
G1 X125.597 Y93.156 E2.58268
G1 X125.597 Y91.896 E2.63401
G1 X125.524 Y91.501 F7800.000
G1 X119.375 Y94.875 F7800.000
G1 X133.625 Y94.875 E3.21460 F3840.000
G1 X133.625 Y120.125 E4.24338
G1 X119.375 Y120.125 E4.82398
G1 X119.375 Y94.927 E5.85062
G1 X119.725 Y95.225 F7800.000
G1 X133.275 Y95.225 E6.40269 F3840.000
G1 X133.275 Y119.775 E7.40295
G1 X119.725 Y119.775 E7.95503
G1 X119.725 Y95.278 E8.95314
G1 X120.075 Y95.575 F7800.000
G1 X132.925 Y95.575 E9.47670 F2688.000
G1 X132.925 Y119.425 E10.44844
G1 X120.075 Y119.425 E10.97199
G1 X120.075 Y95.627 E11.94159
G1 X120.075 Y95.225 F7800.000
G1 F1800.000 E10.94159
G92 E0
G1 X126.979 Y121.027 F7800.000
G1 E2.00000 F1800.000
G1 X128.049 Y122.500 E2.07419 F3840.000
G1 X126.979 Y123.973 E2.14838
G1 X125.247 Y123.410 E2.22257
G1 X125.247 Y121.590 E2.29676
G1 X126.929 Y121.043 E2.36881
G1 X126.845 Y121.438 F7800.000
G1 X127.616 Y122.500 E2.42228 F3840.000
G1 X126.845 Y123.562 E2.47575
G1 X125.597 Y123.156 E2.52922
G1 X125.597 Y121.844 E2.58269
G1 X126.795 Y121.454 E2.63401
G1 X127.148 Y121.263 F7800.000
G1 X127.112 Y120.615 F7800.000
G1 X124.897 Y121.335 E2.72893 F3840.000
G1 X124.897 Y123.665 E2.82383
G1 X125.689 Y123.922 E2.85777
G1 X125.657 Y124.125 E2.86614
G1 X94.875 Y124.125 E4.12031
G1 X94.875 Y121.875 E4.21199
G1 X112.375 Y121.875 E4.92500
G1 X112.375 Y121.839 E4.92646
G1 X112.591 Y121.865 E4.93531
G1 X114.784 Y121.034 E5.03089
G1 X116.340 Y119.278 E5.12647
G1 X116.875 Y117.106 E5.21759
G1 X116.875 Y97.894 E6.00038
G1 X116.340 Y95.722 E6.09150
G1 X115.153 Y94.383 E6.16439
G1 X115.153 Y94.106 E6.17567
G1 X112.591 Y93.135 E6.28734
G1 X112.375 Y93.161 E6.29619
G1 X112.375 Y93.125 E6.29765
G1 X94.875 Y93.125 E7.01066
G1 X94.875 Y90.875 E7.10234
G1 X125.657 Y90.875 E8.35651
G1 X125.689 Y91.078 E8.36487
G1 X124.897 Y91.335 E8.39881
G1 X124.897 Y93.665 E8.49372
G1 X127.112 Y94.385 E8.58863
G1 X128.482 Y92.500 E8.68354
G1 X127.301 Y90.875 E8.76538
G1 X134.125 Y90.875 E9.04342
G1 X134.125 Y124.125 E10.39815
G1 X127.301 Y124.125 E10.67618
G1 X128.482 Y122.500 E10.75802
G1 X127.143 Y120.658 E10.85080
G1 X134.475 Y124.475 F7800.000
G1 X94.525 Y124.475 E12.47851 F3840.000
G1 X94.525 Y121.525 E12.59870
G1 X112.025 Y121.525 E13.31171
G1 X112.025 Y121.444 E13.31501
G1 X112.547 Y121.508 E13.33644
G1 X114.579 Y120.737 E13.42499
G1 X116.021 Y119.110 E13.51354
G1 X116.525 Y117.064 E13.59942
G1 X116.525 Y97.936 E14.37874
G1 X116.021 Y95.890 E14.46462
G1 X114.803 Y94.516 E14.53940
G1 X114.803 Y94.348 E14.54624
G1 X112.547 Y93.492 E14.64455
G1 X112.025 Y93.556 E14.66599
G1 X112.025 Y93.475 E14.66928
G1 X94.525 Y93.475 E15.38230
G1 X94.525 Y90.525 E15.50249
G1 X134.475 Y90.525 E17.13020
G1 X134.475 Y124.423 E18.51131
G1 X134.825 Y124.825 F7800.000
G1 X94.175 Y124.825 E20.16754 F2688.000
G1 X94.175 Y121.175 E20.31625
G1 X111.675 Y121.175 E21.02927
G1 X111.675 Y121.049 E21.03439
G1 X112.504 Y121.150 E21.06841
G1 X114.375 Y120.440 E21.14993
G1 X115.701 Y118.943 E21.23145
G1 X116.175 Y117.021 E21.31208
G1 X116.175 Y97.979 E22.08794
G1 X115.701 Y96.057 E22.16857
G1 X114.453 Y94.649 E22.24525
G1 X114.453 Y94.590 E22.24766
G1 X112.504 Y93.850 E22.33261
G1 X111.675 Y93.951 E22.36663
G1 X111.675 Y93.825 E22.37175
G1 X94.175 Y93.825 E23.08477
G1 X94.175 Y90.175 E23.23348
G1 X134.825 Y90.175 E24.88971
G1 X134.825 Y124.773 E26.29934
G1 X134.522 Y124.650 F7800.000
G1 F1800.000 E25.29934
G92 E0
G1 X74.753 Y78.410 F7800.000
G1 E2.00000 F1800.000
G1 X73.021 Y78.973 E2.07419 F3840.000
G1 X71.951 Y77.500 E2.14838
G1 X73.021 Y76.027 E2.22257
G1 X74.753 Y76.590 E2.29676
G1 X74.753 Y78.358 E2.36881
G1 X74.403 Y78.156 F7800.000
G1 X73.155 Y78.562 E2.42228 F3840.000
G1 X72.384 Y77.500 E2.47575
G1 X73.155 Y76.438 E2.52922
G1 X74.403 Y76.844 E2.58269
G1 X74.403 Y78.104 E2.63401
G1 X74.476 Y78.498 F7800.000
G1 X80.625 Y79.875 F7800.000
G1 X80.625 Y105.125 E3.66279 F3840.000
G1 X66.375 Y105.125 E4.24339
G1 X66.375 Y79.875 E5.27217
G1 X80.573 Y79.875 E5.85062
G1 X80.275 Y80.225 F7800.000
G1 X80.275 Y104.775 E6.85088 F3840.000
G1 X66.725 Y104.775 E7.40296
G1 X66.725 Y80.225 E8.40322
G1 X80.222 Y80.225 E8.95315
G1 X79.925 Y80.575 F7800.000
G1 X79.925 Y104.425 E9.92489 F2688.000
G1 X67.075 Y104.425 E10.44845
G1 X67.075 Y80.575 E11.42018
G1 X79.873 Y80.575 E11.94160
G1 X80.275 Y80.575 F7800.000
G1 F1800.000 E10.94160
G92 E0
G1 X73.021 Y106.027 F7800.000
G1 E2.00000 F1800.000
G1 X74.753 Y106.590 E2.07419 F3840.000
G1 X74.753 Y108.410 E2.14838
G1 X73.021 Y108.973 E2.22257
G1 X71.951 Y107.500 E2.29676
G1 X72.991 Y106.069 E2.36881
G1 X73.155 Y106.438 F7800.000
G1 X74.403 Y106.844 E2.42228 F3840.000
G1 X74.403 Y108.156 E2.47575
G1 X73.155 Y108.562 E2.52921
G1 X72.384 Y107.500 E2.58268
G1 X73.124 Y106.481 E2.63401
G1 X73.297 Y106.119 F7800.000
G1 X72.888 Y105.615 F7800.000
G1 X71.518 Y107.500 E2.72893 F3840.000
G1 X72.699 Y109.125 E2.81077
G1 X65.875 Y109.125 E3.08880
G1 X65.875 Y75.875 E4.44353
G1 X72.699 Y75.875 E4.72157
G1 X71.518 Y77.500 E4.80340
G1 X72.888 Y79.385 E4.89832
G1 X75.103 Y78.665 E4.99323
G1 X75.103 Y76.335 E5.08813
G1 X74.311 Y76.078 E5.12208
G1 X74.343 Y75.875 E5.13044
G1 X105.125 Y75.875 E6.38461
G1 X105.125 Y78.125 E6.47629
G1 X87.625 Y78.125 E7.18930
G1 X87.625 Y78.161 E7.19076
G1 X87.409 Y78.135 E7.19961
G1 X85.216 Y78.966 E7.29520
G1 X83.660 Y80.722 E7.39077
G1 X83.125 Y82.894 E7.48189
G1 X83.125 Y102.106 E8.26468
G1 X83.660 Y104.278 E8.35580
G1 X85.216 Y106.034 E8.45138
G1 X87.409 Y106.865 E8.54696
G1 X87.625 Y106.839 E8.55581
G1 X87.625 Y106.875 E8.55727
G1 X105.125 Y106.875 E9.27029
G1 X105.125 Y109.125 E9.36196
G1 X74.343 Y109.125 E10.61613
G1 X74.311 Y108.922 E10.62450
G1 X75.103 Y108.665 E10.65844
G1 X75.103 Y106.335 E10.75335
G1 X72.938 Y105.632 E10.84612
G1 X65.525 Y109.475 F7800.000
G1 X65.525 Y75.525 E12.22937 F3840.000
G1 X105.475 Y75.525 E13.85708
G1 X105.475 Y78.475 E13.97727
G1 X87.975 Y78.475 E14.69028
G1 X87.975 Y78.556 E14.69358
G1 X87.453 Y78.492 E14.71501
G1 X85.421 Y79.263 E14.80356
G1 X83.979 Y80.890 E14.89211
G1 X83.475 Y82.936 E14.97799
G1 X83.475 Y102.064 E15.75731
G1 X83.979 Y104.110 E15.84318
G1 X85.421 Y105.737 E15.93173
G1 X87.453 Y106.508 E16.02028
G1 X87.975 Y106.444 E16.04172
G1 X87.975 Y106.525 E16.04501
G1 X105.475 Y106.525 E16.75803
G1 X105.475 Y109.475 E16.87822
G1 X65.578 Y109.475 E18.50379
G1 X65.175 Y109.825 F7800.000
G1 X65.175 Y75.175 E19.91556 F2688.000
G1 X105.825 Y75.175 E21.57179
G1 X105.825 Y78.825 E21.72050
G1 X88.325 Y78.825 E22.43352
G1 X88.325 Y78.951 E22.43865
G1 X87.496 Y78.850 E22.47266
G1 X85.625 Y79.560 E22.55419
G1 X84.299 Y81.057 E22.63570
G1 X83.825 Y82.979 E22.71633
G1 X83.825 Y102.021 E23.49219
G1 X84.299 Y103.943 E23.57282
G1 X85.625 Y105.440 E23.65434
G1 X87.496 Y106.150 E23.73586
G1 X88.325 Y106.049 E23.76988
G1 X88.325 Y106.175 E23.77501
G1 X105.825 Y106.175 E24.48802
G1 X105.825 Y109.825 E24.63673
G1 X65.228 Y109.825 E26.29083
G1 X65.350 Y109.522 F7800.000
G1 F1800.000 E25.29083
G92 E0
G1 X128.073 Y121.532 F7800.000
G1 E2.00000 F1800.000
G1 X130.427 Y123.887 E2.14273 F3840.000
G1 X130.948 Y123.887 E2.16506
G1 X127.600 Y120.538 E2.36805
G1 X128.121 Y120.538 E2.39038
G1 X131.469 Y123.887 E2.59337
G1 X131.990 Y123.887 E2.61569
G1 X128.642 Y120.538 E2.81869
G1 X129.162 Y120.538 E2.84101
G1 X132.511 Y123.887 E3.04401
G1 X133.031 Y123.887 E3.06633
G1 X129.683 Y120.538 E3.26933
G1 X130.204 Y120.538 E3.29165
G1 X133.552 Y123.887 E3.49465
G1 X133.887 Y123.700 E3.51106
G1 X130.725 Y120.538 E3.70274
G1 X131.246 Y120.538 E3.72507
G1 X133.887 Y123.179 E3.88518
G1 X133.887 Y122.658 E3.90750
G1 X131.767 Y120.538 E4.03604
G1 X132.287 Y120.538 E4.05836
G1 X133.887 Y122.138 E4.15532
G1 X133.887 Y121.617 E4.17765
G1 X132.808 Y120.538 E4.24303
G1 X133.329 Y120.538 E4.26536
G1 X133.887 Y121.096 E4.29917
G1 X133.887 Y120.575 E4.32149
G1 X133.850 Y120.538 E4.32373
G1 X128.668 Y122.648 F7800.000
G1 X129.907 Y123.887 E4.39880 F3840.000
G1 X129.386 Y123.887 E4.42112
G1 X128.449 Y122.950 E4.47790
G1 X128.230 Y123.252 E4.49389
G1 X128.865 Y123.887 E4.53238
G1 X128.344 Y123.887 E4.55471
G1 X128.011 Y123.553 E4.57491
G1 X127.792 Y123.855 E4.59090
G1 X127.823 Y123.887 E4.59281
G1 X126.853 Y124.239 F7800.000
G1 X126.836 Y124.222 E4.59334 F960.000
G1 X126.029 Y124.143 F7800.000
G1 X125.996 Y124.110 E4.59523 F960.000
G1 F1800.000 E3.59523
G92 E0
G1 X126.138 Y120.582 F7800.000
G1 E2.00000 F1800.000
G1 X126.104 Y120.547 E2.00201 F960.000
G1 X126.937 Y120.400 F7800.000
G1 X126.956 Y120.418 E2.00258 F960.000
G1 X133.861 Y120.221 F7800.000
G1 X133.889 Y119.987 E2.00767 F960.000
G1 X133.861 Y119.958 E2.00854 F960.000
G1 X133.889 Y119.724 E2.01364 F960.000
G1 X133.861 Y119.696 E2.01451 F960.000
G1 X133.889 Y119.462 E2.01961 F960.000
G1 X133.861 Y119.433 E2.02048 F960.000
G1 X133.889 Y119.199 E2.02558 F960.000
G1 X133.861 Y119.170 E2.02645 F960.000
G1 X133.889 Y118.936 E2.03155 F960.000
G1 X133.861 Y118.908 E2.03242 F960.000
G1 X133.889 Y118.674 E2.03752 F960.000
G1 X133.861 Y118.645 E2.03839 F960.000
G1 X133.889 Y118.411 E2.04348 F960.000
G1 X133.861 Y118.383 E2.04436 F960.000
G1 X133.889 Y118.149 E2.04945 F960.000
G1 X133.861 Y118.120 E2.05033 F960.000
G1 X133.889 Y117.886 E2.05542 F960.000
G1 X133.861 Y117.858 E2.05629 F960.000
G1 X133.889 Y117.624 E2.06139 F960.000
G1 X133.861 Y117.595 E2.06226 F960.000
G1 X133.889 Y117.361 E2.06736 F960.000
G1 X133.861 Y117.332 E2.06823 F960.000
G1 X133.889 Y117.098 E2.07333 F960.000
G1 X133.861 Y117.070 E2.07420 F960.000
G1 X133.889 Y116.836 E2.07930 F960.000
G1 X133.861 Y116.807 E2.08017 F960.000
G1 X133.889 Y116.573 E2.08526 F960.000
G1 X133.861 Y116.545 E2.08614 F960.000
G1 X133.889 Y116.311 E2.09123 F960.000
G1 X133.861 Y116.282 E2.09211 F960.000
G1 X133.889 Y116.048 E2.09720 F960.000
G1 X133.861 Y116.019 E2.09808 F960.000
G1 X133.889 Y115.785 E2.10317 F960.000
G1 X133.861 Y115.757 E2.10404 F960.000
G1 X133.889 Y115.523 E2.10914 F960.000
G1 X133.861 Y115.494 E2.11001 F960.000
G1 X133.889 Y115.260 E2.11511 F960.000
G1 X133.861 Y115.232 E2.11598 F960.000
G1 X133.889 Y114.998 E2.12108 F960.000
G1 X133.861 Y114.969 E2.12195 F960.000
G1 X133.889 Y114.735 E2.12705 F960.000
G1 X133.861 Y114.707 E2.12792 F960.000
G1 X133.889 Y114.473 E2.13301 F960.000
G1 X133.861 Y114.444 E2.13389 F960.000
G1 X133.889 Y114.210 E2.13898 F960.000
G1 X133.861 Y114.181 E2.13986 F960.000
G1 X133.889 Y113.947 E2.14495 F960.000
G1 X133.861 Y113.919 E2.14582 F960.000
G1 X133.889 Y113.685 E2.15092 F960.000
G1 X133.861 Y113.656 E2.15179 F960.000
G1 X133.889 Y113.422 E2.15689 F960.000
G1 X133.861 Y113.394 E2.15776 F960.000
G1 X133.889 Y113.160 E2.16286 F960.000
G1 X133.861 Y113.131 E2.16373 F960.000
G1 X133.889 Y112.897 E2.16883 F960.000
G1 X133.861 Y112.869 E2.16970 F960.000
G1 X133.889 Y112.635 E2.17479 F960.000
G1 X133.861 Y112.606 E2.17567 F960.000
G1 X133.889 Y112.372 E2.18076 F960.000
G1 X133.861 Y112.343 E2.18164 F960.000
G1 X133.889 Y112.109 E2.18673 F960.000
G1 X133.861 Y112.081 E2.18761 F960.000
G1 X133.889 Y111.847 E2.19270 F960.000
G1 X133.861 Y111.818 E2.19357 F960.000
G1 X133.889 Y111.584 E2.19867 F960.000
G1 X133.861 Y111.556 E2.19954 F960.000
G1 X133.889 Y111.322 E2.20464 F960.000
G1 X133.861 Y111.293 E2.20551 F960.000
G1 X133.889 Y111.059 E2.21061 F960.000
G1 X133.861 Y111.030 E2.21148 F960.000
G1 X133.889 Y110.796 E2.21658 F960.000
G1 X133.861 Y110.768 E2.21745 F960.000
G1 X133.889 Y110.534 E2.22254 F960.000
G1 X133.861 Y110.505 E2.22342 F960.000
G1 X133.889 Y110.271 E2.22851 F960.000
G1 X133.861 Y110.243 E2.22939 F960.000
G1 X133.889 Y110.009 E2.23448 F960.000
G1 X133.861 Y109.980 E2.23536 F960.000
G1 X133.889 Y109.746 E2.24045 F960.000
G1 X133.861 Y109.718 E2.24132 F960.000
G1 X133.889 Y109.484 E2.24642 F960.000
G1 X133.861 Y109.455 E2.24729 F960.000
G1 X133.889 Y109.221 E2.25239 F960.000
G1 X133.861 Y109.192 E2.25326 F960.000
G1 X133.889 Y108.958 E2.25836 F960.000
G1 X133.861 Y108.930 E2.25923 F960.000
G1 X133.889 Y108.696 E2.26433 F960.000
G1 X133.861 Y108.667 E2.26520 F960.000
G1 X133.889 Y108.433 E2.27029 F960.000
G1 X133.861 Y108.405 E2.27117 F960.000
G1 X133.889 Y108.171 E2.27626 F960.000
G1 X133.861 Y108.142 E2.27714 F960.000
G1 X133.889 Y107.908 E2.28223 F960.000
G1 X133.861 Y107.880 E2.28310 F960.000
G1 X133.889 Y107.646 E2.28820 F960.000
G1 X133.861 Y107.617 E2.28907 F960.000
G1 X133.889 Y107.383 E2.29417 F960.000
G1 X133.861 Y107.354 E2.29504 F960.000
G1 X133.889 Y107.120 E2.30014 F960.000
G1 X133.861 Y107.092 E2.30101 F960.000
G1 X133.889 Y106.858 E2.30611 F960.000
G1 X133.861 Y106.829 E2.30698 F960.000
G1 X133.889 Y106.595 E2.31207 F960.000
G1 X133.861 Y106.567 E2.31295 F960.000
G1 X133.889 Y106.333 E2.31804 F960.000
G1 X133.861 Y106.304 E2.31892 F960.000
