; generated by Slic3r 1.0.0RC2 on 2014-10-08 at 01:15:42

; layer_height = 0.35
; perimeters = 3
; top_solid_layers = 3
; bottom_solid_layers = 3
; fill_density = 0.4
; perimeter_speed = 100
; infill_speed = 100
; travel_speed = 130
; nozzle_diameter = 0.35
; filament_diameter = 1.75
; extrusion_multiplier = 0.8
; perimeters extrusion width = 0.35mm
; infill extrusion width = 0.37mm
; solid infill extrusion width = 0.37mm
; top infill extrusion width = 0.37mm

G21 ; set units to millimeters
M107
M190 S50 ; wait for bed temperature to be reached
M104 S235 ; set temperature
G28 ; home all axes
G1 Z5 F5000 ; lift nozzle
M109 S235 ; wait for temperature to be reached
G90 ; use absolute coordinates
G92 E0
M82 ; use absolute distances for extrusion
G1 F1800.000 E-1.00000
G92 E0
G1 Z0.350 F7800.000
G1 X75.030 Y77.510 F7800.000
G1 E2.00000 F1800.000
G1 X76.170 Y76.690 E2.05722 F4800.000
G1 X77.460 Y76.120 E2.11468
G1 X78.830 Y75.830 E2.17173
G1 X93.830 Y74.330 E2.78594
G1 X94.500 Y74.300 E2.81326
G1 X99.500 Y74.300 E3.01698
G1 X99.980 Y74.320 E3.03655
G1 X120.980 Y75.820 E3.89435
G1 X122.390 Y76.070 E3.95270
G1 X123.710 Y76.620 E4.01096
G1 X124.890 Y77.440 E4.06950
G1 X125.860 Y78.480 E4.12745
G1 X126.590 Y79.720 E4.18608
G1 X127.050 Y81.080 E4.24457
G1 X127.200 Y82.500 E4.30275
G1 X127.200 Y117.500 E5.72878
G1 X127.050 Y118.920 E5.78695
G1 X126.590 Y120.280 E5.84545
G1 X125.860 Y121.520 E5.90408
G1 X124.890 Y122.560 E5.96202
G1 X123.710 Y123.380 E6.02057
G1 X122.390 Y123.930 E6.07883
G1 X120.980 Y124.180 E6.13717
G1 X99.980 Y125.680 E6.99497
G1 X99.500 Y125.700 E7.01455
G1 X94.500 Y125.700 E7.21826
G1 X93.830 Y125.670 E7.24559
G1 X78.830 Y124.170 E7.85979
G1 X77.460 Y123.880 E7.91685
G1 X76.170 Y123.310 E7.97431
G1 X75.030 Y122.490 E8.03153
G1 X74.090 Y121.450 E8.08864
G1 X73.380 Y120.230 E8.14615
G1 X72.950 Y118.900 E8.20310
G1 X72.800 Y117.500 E8.26047
G1 X72.800 Y82.500 E9.68650
G1 X72.950 Y81.100 E9.74387
G1 X73.380 Y79.770 E9.80082
G1 X74.090 Y78.550 E9.85833
G1 X74.995 Y77.549 E9.91331
G1 X75.260 Y77.770 F7800.000
G1 X76.340 Y76.990 E9.96759 F4800.000
G1 X77.560 Y76.450 E10.02195
G1 X78.870 Y76.180 E10.07644
G1 X93.870 Y74.680 E10.69065
G1 X94.500 Y74.650 E10.71634
G1 X99.500 Y74.650 E10.92006
G1 X99.950 Y74.670 E10.93842
G1 X120.950 Y76.170 E11.79621
G1 X122.290 Y76.410 E11.85168
G1 X123.540 Y76.930 E11.90684
G1 X124.660 Y77.700 E11.96221
G1 X125.580 Y78.690 E12.01728
G1 X126.280 Y79.860 E12.07283
G1 X126.700 Y81.150 E12.12810
G1 X126.850 Y82.500 E12.18345
G1 X126.850 Y117.500 E13.60948
G1 X126.700 Y118.850 E13.66482
G1 X126.280 Y120.140 E13.72009
G1 X125.580 Y121.310 E13.77564
G1 X124.660 Y122.300 E13.83071
G1 X123.540 Y123.070 E13.88608
G1 X122.290 Y123.590 E13.94125
G1 X120.950 Y123.830 E13.99671
G1 X99.500 Y125.350 E14.87285
G1 X94.500 Y125.350 E15.07657
G1 X93.870 Y125.320 E15.10227
G1 X78.870 Y123.820 E15.71647
G1 X77.560 Y123.550 E15.77097
G1 X76.340 Y123.010 E15.82533
G1 X75.260 Y122.230 E15.87961
G1 X74.370 Y121.240 E15.93385
G1 X73.700 Y120.090 E15.98807
G1 X73.290 Y118.820 E16.04245
G1 X73.150 Y117.500 E16.09653
G1 X73.150 Y82.500 E17.52256
G1 X73.290 Y81.180 E17.57664
G1 X73.700 Y79.910 E17.63102
G1 X74.370 Y78.760 E17.68524
G1 X75.225 Y77.809 E17.73734
G1 F1800.000 E16.73734
G92 E0
G1 X86.227 Y85.215 F7800.000
G1 E2.00000 F1800.000
G1 X87.501 Y83.463 E2.08827 F4800.000
G1 X89.308 Y84.050 E2.16568
G1 X89.308 Y85.950 E2.24310
G1 X87.501 Y86.537 E2.32051
G1 X86.540 Y85.215 E2.38708
G1 X86.280 Y85.215 E2.39770
G1 X85.907 Y85.073 F7800.000
G1 X81.225 Y87.725 F7800.000
G1 X94.775 Y87.725 E2.94977 F4800.000
G1 X94.775 Y112.275 E3.95003
G1 X81.225 Y112.275 E4.50211
G1 X81.225 Y87.778 E5.50022
G1 X81.575 Y88.075 F7800.000
G1 X94.425 Y88.075 E6.02378 F4320.000
G1 X94.425 Y111.925 E6.99552
G1 X81.575 Y111.925 E7.51907
G1 X81.575 Y88.127 E8.48867
G1 X81.575 Y87.725 F7800.000
G1 F1800.000 E7.48867
G92 E0
G1 X87.501 Y113.463 F7800.000
G1 E2.00000 F1800.000
G1 X89.308 Y114.050 E2.07742 F4800.000
G1 X89.308 Y115.950 E2.15483
G1 X87.501 Y116.537 E2.23225
G1 X86.384 Y115.000 E2.30966
G1 X87.470 Y113.505 E2.38494
G1 X87.643 Y113.143 F7800.000
G1 X87.812 Y112.828 F7800.000
G1 X87.844 Y112.625 E2.39331 F4800.000
G1 X95.125 Y112.625 E2.68997
G1 X95.125 Y87.375 E3.71875
G1 X87.844 Y87.375 E4.01541
G1 X87.812 Y87.172 E4.02378
G1 X90.008 Y86.459 E4.11785
G1 X90.008 Y83.375 E4.24349
G1 X95.375 Y83.375 E4.46217
G1 X95.375 Y81.875 E4.52329
G1 X98.625 Y81.875 E4.65571
G1 X98.625 Y83.375 E4.71682
G1 X119.625 Y83.375 E5.57244
G1 X119.625 Y85.625 E5.66411
G1 X102.125 Y85.625 E6.37713
G1 X102.125 Y85.661 E6.37858
G1 X101.909 Y85.635 E6.38744
G1 X99.716 Y86.466 E6.48302
G1 X98.160 Y88.222 E6.57860
G1 X97.625 Y90.394 E6.66972
G1 X97.625 Y109.606 E7.45250
G1 X98.160 Y111.778 E7.54362
G1 X99.716 Y113.534 E7.63920
G1 X101.909 Y114.365 E7.73479
G1 X102.125 Y114.339 E7.74364
G1 X102.125 Y114.375 E7.74510
G1 X119.625 Y114.375 E8.45811
G1 X119.625 Y116.625 E8.54978
G1 X98.625 Y116.625 E9.40540
G1 X98.625 Y118.125 E9.46652
G1 X95.375 Y118.125 E9.59893
G1 X95.375 Y116.625 E9.66005
G1 X90.008 Y116.625 E9.87874
G1 X90.008 Y113.541 E10.00437
G1 X87.862 Y112.844 E10.09631
G1 X87.244 Y112.625 F7800.000
G1 X85.518 Y115.000 E10.21592 F4800.000
G1 X86.699 Y116.625 E10.29775
G1 X80.375 Y116.625 E10.55542
G1 X80.375 Y83.375 E11.91015
G1 X86.699 Y83.375 E12.16781
G1 X84.853 Y85.915 E12.29575
G1 X86.184 Y85.915 E12.34995
G1 X87.244 Y87.375 E12.42346
G1 X80.875 Y87.375 E12.68295
G1 X80.875 Y112.625 E13.71173
G1 X87.191 Y112.625 E13.96909
G1 X87.367 Y113.051 F7800.000
G1 X85.951 Y115.000 E14.06723 F4800.000
G1 X87.386 Y116.975 E14.16669
G1 X80.025 Y116.975 E14.46661
G1 X80.025 Y83.025 E15.84985
G1 X87.386 Y83.025 E16.14977
G1 X85.540 Y85.565 E16.27771
G1 X86.362 Y85.565 E16.31118
G1 X87.367 Y86.949 E16.38085
G1 X89.658 Y86.204 E16.47898
G1 X89.658 Y83.796 E16.57712
G1 X87.910 Y83.228 E16.65198
G1 X87.942 Y83.025 E16.66035
G1 X95.025 Y83.025 E16.94892
G1 X95.025 Y81.525 E17.01004
G1 X98.975 Y81.525 E17.17098
G1 X98.975 Y83.025 E17.23209
G1 X119.975 Y83.025 E18.08771
G1 X119.975 Y85.975 E18.20790
G1 X102.475 Y85.975 E18.92092
G1 X102.475 Y86.056 E18.92421
G1 X101.953 Y85.992 E18.94565
G1 X99.921 Y86.763 E19.03420
G1 X98.479 Y88.390 E19.12274
G1 X97.975 Y90.436 E19.20862
G1 X97.975 Y109.564 E19.98794
G1 X98.479 Y111.610 E20.07382
G1 X99.921 Y113.237 E20.16236
G1 X101.953 Y114.008 E20.25092
G1 X102.475 Y113.944 E20.27235
G1 X102.475 Y114.025 E20.27565
G1 X119.975 Y114.025 E20.98866
G1 X119.975 Y116.975 E21.10885
G1 X98.975 Y116.975 E21.96447
G1 X98.975 Y118.475 E22.02559
G1 X95.025 Y118.475 E22.18652
G1 X95.025 Y116.975 E22.24764
G1 X87.942 Y116.975 E22.53621
G1 X87.910 Y116.772 E22.54458
G1 X89.658 Y116.204 E22.61944
G1 X89.658 Y113.796 E22.71758
G1 X87.417 Y113.068 E22.81358
G1 X94.675 Y117.325 F7800.000
G1 X79.675 Y117.325 E23.42473 F4320.000
G1 X79.675 Y82.675 E24.83650
G1 X94.675 Y82.675 E25.44766
G1 X94.675 Y81.175 E25.50877
G1 X99.325 Y81.175 E25.69823
G1 X99.325 Y82.675 E25.75935
G1 X120.325 Y82.675 E26.61496
G1 X120.325 Y86.325 E26.76368
G1 X102.825 Y86.325 E27.47669
G1 X102.825 Y86.451 E27.48182
G1 X101.996 Y86.350 E27.51584
G1 X100.125 Y87.060 E27.59736
G1 X98.799 Y88.557 E27.67888
G1 X98.325 Y90.479 E27.75950
G1 X98.325 Y109.521 E28.53537
G1 X98.799 Y111.443 E28.61599
G1 X100.125 Y112.940 E28.69751
G1 X101.996 Y113.650 E28.77903
G1 X102.825 Y113.549 E28.81305
G1 X102.825 Y113.675 E28.81818
G1 X120.325 Y113.675 E29.53119
G1 X120.325 Y117.325 E29.67991
G1 X99.325 Y117.325 E30.53553
G1 X99.325 Y118.825 E30.59664
G1 X94.675 Y118.825 E30.78610
G1 X94.675 Y117.378 E30.84508
G1 X94.675 Y116.975 F7800.000
G1 X95.614 Y117.595 F7800.000
G1 X95.905 Y117.886 E30.86258 F4800.000
G1 X96.421 Y117.886 E30.88444
G1 X95.614 Y117.079 E30.93285
G1 X95.614 Y116.564 E30.95471
G1 X96.936 Y117.886 E31.03404
G1 X97.451 Y117.886 E31.05590
G1 X92.429 Y112.864 E31.35722
G1 X91.913 Y112.864 E31.37908
G1 X95.436 Y116.386 E31.59042
G1 X94.921 Y116.386 E31.61228
G1 X91.398 Y112.864 E31.82361
G1 X90.883 Y112.864 E31.84547
G1 X94.405 Y116.386 E32.05680
G1 X93.890 Y116.386 E32.07866
G1 X90.367 Y112.864 E32.29000
G1 X90.097 Y113.109 E32.30548
G1 X93.375 Y116.386 E32.50212
G1 X92.859 Y116.386 E32.52398
G1 X90.246 Y113.773 E32.68074
G1 X90.246 Y114.289 E32.70260
G1 X92.344 Y116.386 E32.82845
G1 X91.829 Y116.386 E32.85031
G1 X90.246 Y114.804 E32.94524
G1 X90.246 Y115.319 E32.96710
G1 X91.313 Y116.386 E33.03111
G1 X90.798 Y116.386 E33.05297
G1 X90.246 Y115.835 E33.08608
G1 X90.246 Y116.350 E33.10794
G1 X90.283 Y116.386 E33.11012
G1 X97.967 Y117.886 F7800.000
G1 X92.944 Y112.864 E33.41144 F4800.000
G1 X93.459 Y112.864 E33.43330
G1 X98.386 Y117.791 E33.72889
G1 X98.386 Y117.275 E33.75075
G1 X93.975 Y112.864 E34.01542
G1 X94.490 Y112.864 E34.03728
G1 X98.386 Y116.760 E34.27103
G1 X98.528 Y116.386 E34.28798
G1 X95.005 Y112.864 E34.49932
G1 X95.364 Y112.707 E34.51591
G1 X99.043 Y116.386 E34.73666
G1 X99.559 Y116.386 E34.75852
G1 X95.364 Y112.191 E35.01019
G1 X95.364 Y111.676 E35.03205
G1 X100.074 Y116.386 E35.31463
G1 X100.589 Y116.386 E35.33649
G1 X95.364 Y111.161 E35.64998
G1 X95.364 Y110.645 E35.67184
G1 X101.105 Y116.386 E36.01625
G1 X101.620 Y116.386 E36.03811
G1 X95.364 Y110.130 E36.41343
G1 X95.364 Y109.615 E36.43529
G1 X102.135 Y116.386 E36.84153
G1 X102.651 Y116.386 E36.86339
G1 X100.259 Y113.995 E37.00687
G1 X101.089 Y114.310 F7800.000
G1 X103.166 Y116.386 E37.13145 F4800.000
G1 X103.681 Y116.386 E37.15332
G1 X101.909 Y114.614 E37.25967
G1 X102.424 Y114.614 E37.28153
G1 X104.197 Y116.386 E37.38788
G1 X104.712 Y116.386 E37.40974
G1 X102.939 Y114.614 E37.51609
G1 X103.455 Y114.614 E37.53795
G1 X105.227 Y116.386 E37.64430
G1 X105.743 Y116.386 E37.66616
G1 X103.970 Y114.614 E37.77251
G1 X104.485 Y114.614 E37.79437
G1 X106.258 Y116.386 E37.90072
G1 X106.773 Y116.386 E37.92258
G1 X105.001 Y114.614 E38.02893
G1 X105.516 Y114.614 E38.05079
G1 X107.289 Y116.386 E38.15714
G1 X107.804 Y116.386 E38.17900
G1 X106.031 Y114.614 E38.28535
G1 X106.547 Y114.614 E38.30721
G1 X108.319 Y116.386 E38.41356
G1 X108.835 Y116.386 E38.43542
G1 X107.062 Y114.614 E38.54178
G1 X107.577 Y114.614 E38.56364
G1 X109.350 Y116.386 E38.66999
G1 X109.865 Y116.386 E38.69185
G1 X108.093 Y114.614 E38.79820
G1 X108.608 Y114.614 E38.82006
G1 X110.381 Y116.386 E38.92641
G1 X110.896 Y116.386 E38.94827
G1 X109.123 Y114.614 E39.05462
G1 X109.639 Y114.614 E39.07648
G1 X111.411 Y116.386 E39.18283
G1 X111.927 Y116.386 E39.20469
G1 X110.154 Y114.614 E39.31104
G1 X110.669 Y114.614 E39.33290
G1 X112.442 Y116.386 E39.43925
G1 X112.957 Y116.386 E39.46111
G1 X111.185 Y114.614 E39.56746
G1 X111.700 Y114.614 E39.58932
G1 X113.473 Y116.386 E39.69567
G1 X113.988 Y116.386 E39.71753
G1 X112.215 Y114.614 E39.82388
G1 X112.731 Y114.614 E39.84575
G1 X114.503 Y116.386 E39.95210
G1 X115.019 Y116.386 E39.97396
G1 X113.246 Y114.614 E40.08031
G1 X113.761 Y114.614 E40.10217
G1 X115.534 Y116.386 E40.20852
G1 X116.049 Y116.386 E40.23038
G1 X114.277 Y114.614 E40.33673
G1 X114.792 Y114.614 E40.35859
G1 X116.565 Y116.386 E40.46494
G1 X117.080 Y116.386 E40.48680
G1 X115.307 Y114.614 E40.59315
G1 X115.823 Y114.614 E40.61501
G1 X117.595 Y116.386 E40.72136
G1 X118.111 Y116.386 E40.74322
G1 X116.338 Y114.614 E40.84957
G1 X116.853 Y114.614 E40.87143
G1 X118.626 Y116.386 E40.97778
G1 X119.141 Y116.386 E40.99964
G1 X117.369 Y114.614 E41.10599
G1 X117.884 Y114.614 E41.12785
G1 X119.386 Y116.116 E41.21799
G1 X119.386 Y115.601 E41.23985
G1 X118.399 Y114.614 E41.29907
G1 X118.915 Y114.614 E41.32093
G1 X119.386 Y115.085 E41.34923
G1 F1800.000 E40.34923
G92 E0
G1 X97.873 Y111.609 F7800.000
G1 E2.00000 F1800.000
G1 X95.364 Y109.099 E2.15053 F4800.000
G1 X95.364 Y108.584 E2.17239
G1 X97.704 Y110.925 E2.31280
G1 X97.536 Y110.241 E2.34268
G1 X95.364 Y108.069 E2.47298
G1 X95.364 Y107.553 E2.49484
G1 X97.386 Y109.576 E2.61619
G1 X97.386 Y109.061 E2.63805
G1 X95.364 Y107.038 E2.75940
G1 X95.364 Y106.523 E2.78126
G1 X97.386 Y108.545 E2.90261
G1 X97.386 Y108.030 E2.92447
G1 X95.364 Y106.007 E3.04582
G1 X95.364 Y105.492 E3.06768
G1 X97.386 Y107.515 E3.18903
G1 X97.386 Y106.999 E3.21089
G1 X95.364 Y104.977 E3.33223
G1 X95.364 Y104.461 E3.35409
G1 X97.386 Y106.484 E3.47544
G1 X97.386 Y105.969 E3.49730
G1 X95.364 Y103.946 E3.61865
G1 X95.364 Y103.431 E3.64051
G1 X97.386 Y105.453 E3.76186
G1 X97.386 Y104.938 E3.78372
G1 X95.364 Y102.915 E3.90507
G1 X95.364 Y102.400 E3.92693
G1 X97.386 Y104.423 E4.04828
G1 X97.386 Y103.907 E4.07014
G1 X95.364 Y101.885 E4.19148
G1 X95.364 Y101.369 E4.21335
G1 X97.386 Y103.392 E4.33469
G1 X97.386 Y102.877 E4.35655
G1 X95.364 Y100.854 E4.47790
G1 X95.364 Y100.339 E4.49976
G1 X97.386 Y102.361 E4.62111
G1 X97.386 Y101.846 E4.64297
G1 X95.364 Y99.823 E4.76432
G1 X95.364 Y99.308 E4.78618
G1 X97.386 Y101.331 E4.90753
G1 X97.386 Y100.815 E4.92939
G1 X95.364 Y98.793 E5.05074
G1 X95.364 Y98.277 E5.07260
G1 X97.386 Y100.300 E5.19394
G1 X97.386 Y99.785 E5.21580
G1 X95.364 Y97.762 E5.33715
G1 X95.364 Y97.247 E5.35901
G1 X97.386 Y99.269 E5.48036
G1 X97.386 Y98.754 E5.50222
G1 X95.364 Y96.731 E5.62357
G1 X95.364 Y96.216 E5.64543
G1 X97.386 Y98.239 E5.76678
G1 X97.386 Y97.723 E5.78864
G1 X95.364 Y95.701 E5.90999
G1 X95.364 Y95.185 E5.93185
G1 X97.386 Y97.208 E6.05320
G1 X97.386 Y96.693 E6.07506
G1 X95.364 Y94.670 E6.19640
G1 X95.364 Y94.155 E6.21826
G1 X97.386 Y96.177 E6.33961
G1 X97.386 Y95.662 E6.36147
G1 X95.364 Y93.639 E6.48282
G1 X95.364 Y93.124 E6.50468
G1 X97.386 Y95.147 E6.62603
G1 X97.386 Y94.631 E6.64789
G1 X95.364 Y92.609 E6.76924
G1 X95.364 Y92.093 E6.79110
G1 X97.386 Y94.116 E6.91245
G1 X97.386 Y93.601 E6.93431
G1 X95.364 Y91.578 E7.05566
G1 X95.364 Y91.063 E7.07752
G1 X97.386 Y93.085 E7.19886
G1 X97.386 Y92.570 E7.22072
G1 X95.364 Y90.547 E7.34207
G1 X95.364 Y90.032 E7.36393
G1 X97.386 Y92.055 E7.48528
G1 X97.386 Y91.539 E7.50714
G1 X95.364 Y89.517 E7.62849
G1 X95.364 Y89.001 E7.65035
G1 X97.386 Y91.024 E7.77170
G1 X97.386 Y90.509 E7.79356
G1 X95.364 Y88.486 E7.91491
G1 X95.364 Y87.971 E7.93677
G1 X97.460 Y90.067 E8.06252
G1 X97.562 Y89.653 E8.08058
G1 X91.522 Y83.614 E8.44291
G1 X92.037 Y83.614 E8.46477
G1 X97.664 Y89.240 E8.80230
G1 X97.766 Y88.827 E8.82036
G1 X92.553 Y83.614 E9.13309
G1 X93.068 Y83.614 E9.15495
G1 X97.867 Y88.413 E9.44287
G1 X98.006 Y88.036 E9.45990
G1 X93.583 Y83.614 E9.72523
G1 X94.099 Y83.614 E9.74709
G1 X98.248 Y87.763 E9.99602
G1 X98.490 Y87.490 E10.01151
G1 X94.614 Y83.614 E10.24405
G1 X95.129 Y83.614 E10.26591
G1 X98.732 Y87.217 E10.48206
G1 X98.974 Y86.943 E10.49755
G1 X95.614 Y83.583 E10.69916
G1 X95.614 Y83.067 E10.72102
G1 X99.217 Y86.670 E10.93716
G1 X99.459 Y86.397 E10.95265
G1 X95.614 Y82.552 E11.18331
G1 X95.691 Y82.114 E11.20219
G1 X99.768 Y86.191 E11.44681
G1 X100.142 Y86.050 E11.46377
G1 X96.206 Y82.114 E11.69989
G1 X96.721 Y82.114 E11.72175
G1 X100.516 Y85.908 E11.94937
G1 X100.889 Y85.766 E11.96632
G1 X98.737 Y83.614 E12.09546
G1 X98.386 Y83.263 F7800.000
G1 X97.237 Y82.114 E12.16443 F4800.000
G1 X97.752 Y82.114 E12.18629
G1 X98.386 Y82.748 E12.22435
G1 X98.386 Y82.233 E12.24621
G1 X98.267 Y82.114 E12.25336
G1 X99.252 Y83.614 F7800.000
G1 X101.263 Y85.625 E12.37399 F4800.000
G1 X101.637 Y85.483 E12.39094
G1 X99.767 Y83.614 E12.50308
G1 X100.283 Y83.614 E12.52494
G1 X102.055 Y85.386 E12.63129
G1 X102.571 Y85.386 E12.65315
G1 X100.798 Y83.614 E12.75950
G1 X101.313 Y83.614 E12.78136
G1 X103.086 Y85.386 E12.88771
G1 X103.601 Y85.386 E12.90957
G1 X101.829 Y83.614 E13.01592
G1 X102.344 Y83.614 E13.03778
G1 X104.117 Y85.386 E13.14413
G1 X104.632 Y85.386 E13.16600
G1 X102.859 Y83.614 E13.27235
G1 X103.375 Y83.614 E13.29421
G1 X105.147 Y85.386 E13.40056
G1 X105.663 Y85.386 E13.42242
G1 X103.890 Y83.614 E13.52877
G1 X104.405 Y83.614 E13.55063
G1 X106.178 Y85.386 E13.65698
G1 X106.693 Y85.386 E13.67884
G1 X104.921 Y83.614 E13.78519
G1 X105.436 Y83.614 E13.80705
G1 X107.209 Y85.386 E13.91340
G1 X107.724 Y85.386 E13.93526
G1 X105.951 Y83.614 E14.04161
G1 X106.467 Y83.614 E14.06347
G1 X108.239 Y85.386 E14.16982
G1 X108.755 Y85.386 E14.19168
G1 X106.982 Y83.614 E14.29803
G1 X107.497 Y83.614 E14.31989
