; generated by Slic3r 1.0.0RC2 on 2014-10-07 at 23:35:43

; layer_height = 0.35
; perimeters = 3
; top_solid_layers = 3
; bottom_solid_layers = 3
; fill_density = 0.4
; perimeter_speed = 80
; infill_speed = 80
; travel_speed = 130
; nozzle_diameter = 0.35
; filament_diameter = 1.75
; extrusion_multiplier = 0.8
; perimeters extrusion width = 0.35mm
; infill extrusion width = 0.37mm
; solid infill extrusion width = 0.37mm
; top infill extrusion width = 0.37mm

G21 ; set units to millimeters
M107
M190 S50 ; wait for bed temperature to be reached
M104 S235 ; set temperature
G28 ; home all axes
G1 Z5 F5000 ; lift nozzle
M109 S235 ; wait for temperature to be reached
G90 ; use absolute coordinates
G92 E0
M82 ; use absolute distances for extrusion
G1 F1800.000 E-1.00000
G92 E0
G1 Z0.350 F7800.000
G1 X74.760 Y77.010 F7800.000
G1 E2.00000 F1800.000
G1 X75.780 Y76.180 E2.05358 F3840.000
G1 X76.940 Y75.560 E2.10717
G1 X78.190 Y75.180 E2.16040
G1 X79.500 Y75.050 E2.21404
G1 X120.500 Y75.050 E3.88453
G1 X121.810 Y75.180 E3.93816
G1 X123.060 Y75.560 E3.99139
G1 X124.220 Y76.180 E4.04498
G1 X125.240 Y77.010 E4.09856
G1 X126.070 Y78.030 E4.15214
G1 X126.690 Y79.190 E4.20573
G1 X127.070 Y80.440 E4.25896
G1 X127.200 Y81.750 E4.31260
G1 X127.200 Y116.750 E5.73863
G1 X127.050 Y118.150 E5.79600
G1 X126.620 Y119.480 E5.85295
G1 X125.910 Y120.700 E5.91046
G1 X124.970 Y121.740 E5.96757
G1 X123.830 Y122.560 E6.02479
G1 X122.540 Y123.130 E6.08225
G1 X121.170 Y123.420 E6.13931
G1 X106.170 Y124.920 E6.75351
G1 X105.500 Y124.950 E6.78084
G1 X100.500 Y124.950 E6.98455
G1 X100.020 Y124.930 E7.00413
G1 X79.020 Y123.430 E7.86193
G1 X77.610 Y123.180 E7.92027
G1 X76.290 Y122.630 E7.97853
G1 X75.110 Y121.810 E8.03708
G1 X74.140 Y120.770 E8.09502
G1 X73.410 Y119.530 E8.15365
G1 X72.950 Y118.170 E8.21215
G1 X72.800 Y116.750 E8.27032
G1 X72.800 Y81.750 E9.69635
G1 X72.930 Y80.440 E9.74999
G1 X73.310 Y79.190 E9.80322
G1 X73.930 Y78.030 E9.85681
G1 X74.727 Y77.051 E9.90825
G1 X75.010 Y77.260 F7800.000
G1 X75.970 Y76.470 E9.95890 F3840.000
G1 X77.070 Y75.880 E10.00976
G1 X78.260 Y75.520 E10.06042
G1 X79.500 Y75.400 E10.11117
G1 X120.500 Y75.400 E11.78167
G1 X121.740 Y75.520 E11.83242
G1 X122.930 Y75.880 E11.88308
G1 X124.030 Y76.470 E11.93394
G1 X124.990 Y77.260 E11.98459
G1 X125.780 Y78.220 E12.03525
G1 X126.370 Y79.320 E12.08610
G1 X126.730 Y80.510 E12.13676
G1 X126.850 Y81.750 E12.18752
G1 X126.850 Y116.750 E13.61355
G1 X126.710 Y118.070 E13.66763
G1 X126.300 Y119.340 E13.72200
G1 X125.630 Y120.490 E13.77623
G1 X124.740 Y121.480 E13.83047
G1 X123.660 Y122.260 E13.88475
G1 X122.440 Y122.800 E13.93911
G1 X121.130 Y123.070 E13.99360
G1 X106.130 Y124.570 E14.60781
G1 X105.500 Y124.600 E14.63351
G1 X100.500 Y124.600 E14.83722
G1 X100.050 Y124.580 E14.85558
G1 X79.050 Y123.080 E15.71337
G1 X77.710 Y122.840 E15.76884
G1 X76.460 Y122.320 E15.82400
G1 X75.340 Y121.550 E15.87938
G1 X74.420 Y120.560 E15.93444
G1 X73.720 Y119.390 E15.98999
G1 X73.300 Y118.100 E16.04527
G1 X73.150 Y116.750 E16.10061
G1 X73.150 Y81.750 E17.52664
G1 X73.270 Y80.510 E17.57739
G1 X73.630 Y79.320 E17.62805
G1 X74.220 Y78.220 E17.67891
G1 X74.977 Y77.301 E17.72742
G1 F1800.000 E16.72742
G92 E0
G1 X110.198 Y84.250 F7800.000
G1 E2.00000 F1800.000
G1 X111.099 Y82.689 E2.07342 F3840.000
G1 X112.901 Y82.689 E2.14685
G1 X113.802 Y84.250 E2.22027
G1 X112.901 Y85.811 E2.29369
G1 X111.099 Y85.811 E2.36712
G1 X110.224 Y84.295 E2.43840
G1 X109.930 Y84.025 F7800.000
G1 X105.225 Y86.975 F7800.000
G1 X118.775 Y86.975 E2.99048 F3840.000
G1 X118.775 Y111.525 E3.99073
G1 X105.225 Y111.525 E4.54281
G1 X105.225 Y87.028 E5.54093
G1 X105.575 Y87.325 F7800.000
G1 X118.425 Y87.325 E6.06448 F2688.000
G1 X118.425 Y111.175 E7.03622
G1 X105.575 Y111.175 E7.55978
G1 X105.575 Y87.377 E8.52937
G1 X105.575 Y86.975 F7800.000
G1 F1800.000 E7.52937
G92 E0
G1 X111.099 Y112.689 F7800.000
G1 E2.00000 F1800.000
G1 X112.901 Y112.689 E2.07342 F3840.000
G1 X113.802 Y114.250 E2.14684
G1 X112.901 Y115.811 E2.22027
G1 X111.099 Y115.811 E2.29369
G1 X110.198 Y114.250 E2.36711
G1 X111.073 Y112.735 E2.43839
G1 X111.160 Y112.345 F7800.000
G1 X110.761 Y111.875 F7800.000
G1 X109.390 Y114.250 E2.55013 F3840.000
G1 X110.328 Y115.875 E2.62658
G1 X104.625 Y115.875 E2.85894
G1 X104.625 Y117.375 E2.92005
G1 X101.375 Y117.375 E3.05247
G1 X101.375 Y115.875 E3.11359
G1 X80.375 Y115.875 E3.96920
G1 X80.375 Y113.625 E4.06088
G1 X97.875 Y113.625 E4.77389
G1 X97.875 Y113.589 E4.77535
G1 X98.091 Y113.615 E4.78420
G1 X100.284 Y112.784 E4.87978
G1 X101.840 Y111.028 E4.97536
G1 X102.375 Y108.856 E5.06648
G1 X102.375 Y89.644 E5.84927
G1 X101.840 Y87.472 E5.94039
G1 X100.284 Y85.716 E6.03597
G1 X98.091 Y84.885 E6.13155
G1 X97.875 Y84.911 E6.14040
G1 X97.875 Y84.875 E6.14186
G1 X80.375 Y84.875 E6.85487
G1 X80.375 Y82.625 E6.94655
G1 X110.328 Y82.625 E8.16693
G1 X109.390 Y84.250 E8.24339
G1 X110.761 Y86.625 E8.35512
G1 X104.875 Y86.625 E8.59493
G1 X104.875 Y111.875 E9.62371
G1 X110.708 Y111.875 E9.86138
G1 X113.239 Y111.875 F7800.000
G1 X119.125 Y111.875 E10.10120 F3840.000
G1 X119.125 Y86.625 E11.12997
G1 X113.239 Y86.625 E11.36979
G1 X114.610 Y84.250 E11.48152
G1 X113.672 Y82.625 E11.55797
G1 X119.625 Y82.625 E11.80051
G1 X119.625 Y115.875 E13.15524
G1 X113.672 Y115.875 E13.39778
G1 X114.610 Y114.250 E13.47423
G1 X113.265 Y111.920 E13.58383
G1 X113.103 Y112.339 F7800.000
G1 X110.897 Y112.339 E13.67372 F3840.000
G1 X109.794 Y114.250 E13.76361
G1 X110.934 Y116.225 E13.85653
G1 X104.975 Y116.225 E14.09932
G1 X104.975 Y117.725 E14.16044
G1 X101.025 Y117.725 E14.32137
G1 X101.025 Y116.225 E14.38249
G1 X80.025 Y116.225 E15.23811
G1 X80.025 Y113.275 E15.35830
G1 X97.525 Y113.275 E16.07131
G1 X97.525 Y113.194 E16.07461
G1 X98.047 Y113.258 E16.09604
G1 X100.079 Y112.487 E16.18459
G1 X101.521 Y110.860 E16.27314
G1 X102.025 Y108.814 E16.35902
G1 X102.025 Y89.686 E17.13834
G1 X101.521 Y87.640 E17.22422
G1 X100.079 Y86.013 E17.31276
G1 X98.047 Y85.242 E17.40132
G1 X97.525 Y85.306 E17.42275
G1 X97.525 Y85.225 E17.42604
G1 X80.025 Y85.225 E18.13906
G1 X80.025 Y82.275 E18.25925
G1 X110.934 Y82.275 E19.51860
G1 X109.794 Y84.250 E19.61152
G1 X110.897 Y86.161 E19.70141
G1 X113.103 Y86.161 E19.79130
G1 X114.206 Y84.250 E19.88119
G1 X113.066 Y82.275 E19.97410
G1 X119.975 Y82.275 E20.25560
G1 X119.975 Y116.225 E21.63885
G1 X113.066 Y116.225 E21.92035
G1 X114.206 Y114.250 E22.01327
G1 X113.129 Y112.385 E22.10102
G1 X120.325 Y116.575 F7800.000
G1 X105.325 Y116.575 E22.71217 F2688.000
G1 X105.325 Y118.075 E22.77329
G1 X100.675 Y118.075 E22.96275
G1 X100.675 Y116.575 E23.02386
G1 X79.675 Y116.575 E23.87948
G1 X79.675 Y112.925 E24.02820
G1 X97.175 Y112.925 E24.74121
G1 X97.175 Y112.799 E24.74634
G1 X98.004 Y112.900 E24.78035
G1 X99.875 Y112.190 E24.86188
G1 X101.201 Y110.693 E24.94339
G1 X101.675 Y108.771 E25.02402
G1 X101.675 Y89.729 E25.79988
G1 X101.201 Y87.807 E25.88051
G1 X99.875 Y86.310 E25.96203
G1 X98.004 Y85.600 E26.04355
G1 X97.175 Y85.701 E26.07757
G1 X97.175 Y85.575 E26.08270
G1 X79.675 Y85.575 E26.79571
G1 X79.675 Y81.925 E26.94443
G1 X120.325 Y81.925 E28.60066
G1 X120.325 Y116.523 E30.01029
G1 X120.022 Y116.400 F7800.000
G1 F1800.000 E29.01029
G92 E0
G1 X109.669 Y115.212 F7800.000
G1 E2.00000 F1800.000
G1 X106.571 Y112.114 E2.18630 F3840.000
G1 X106.055 Y112.114 E2.20826
G1 X109.578 Y115.636 E2.42010
G1 X109.061 Y115.636 E2.44207
G1 X105.538 Y112.114 E2.65391
G1 X105.022 Y112.114 E2.67588
G1 X108.545 Y115.636 E2.88772
G1 X108.028 Y115.636 E2.90968
G1 X102.349 Y109.958 E3.25116
G1 X102.247 Y110.372 E3.26931
G1 X107.511 Y115.636 E3.58588
G1 X106.995 Y115.636 E3.60784
G1 X102.145 Y110.787 E3.89948
G1 X102.023 Y111.181 E3.91704
G1 X106.478 Y115.636 E4.18496
G1 X105.962 Y115.636 E4.20693
G1 X101.780 Y111.455 E4.45838
G1 X101.537 Y111.729 E4.47394
G1 X105.445 Y115.636 E4.70893
G1 X104.929 Y115.636 E4.73089
G1 X101.295 Y112.003 E4.94940
G1 X101.052 Y112.277 E4.96496
G1 X104.412 Y115.636 E5.16700
G1 X104.386 Y116.127 E5.18791
G1 X100.809 Y112.550 E5.40301
G1 X100.567 Y112.824 E5.41857
G1 X104.386 Y116.644 E5.64825
G1 X104.362 Y117.136 E5.66922
G1 X100.270 Y113.044 E5.91530
G1 X99.895 Y113.186 E5.93234
G1 X103.846 Y117.136 E6.16988
G1 X103.329 Y117.136 E6.19185
G1 X99.521 Y113.328 E6.42085
G1 X99.146 Y113.470 E6.43788
G1 X101.313 Y115.636 E6.56814
G1 X100.796 Y115.636 E6.59011
G1 X98.772 Y113.612 E6.71183
G1 X98.397 Y113.754 E6.72886
G1 X100.279 Y115.636 E6.84204
G1 X99.763 Y115.636 E6.86401
G1 X97.990 Y113.864 E6.97062
G1 X97.473 Y113.864 E6.99258
G1 X99.246 Y115.636 E7.09919
G1 X98.730 Y115.636 E7.12116
G1 X96.957 Y113.864 E7.22777
G1 X96.440 Y113.864 E7.24973
G1 X98.213 Y115.636 E7.35634
G1 X97.697 Y115.636 E7.37830
G1 X95.924 Y113.864 E7.48491
G1 X95.407 Y113.864 E7.50688
G1 X97.180 Y115.636 E7.61349
G1 X96.664 Y115.636 E7.63545
G1 X94.891 Y113.864 E7.74206
G1 X94.374 Y113.864 E7.76403
G1 X96.147 Y115.636 E7.87064
G1 X95.630 Y115.636 E7.89260
G1 X93.858 Y113.864 E7.99921
G1 X93.341 Y113.864 E8.02118
G1 X95.114 Y115.636 E8.12778
G1 X94.597 Y115.636 E8.14975
G1 X92.824 Y113.864 E8.25636
G1 X92.308 Y113.864 E8.27832
G1 X94.081 Y115.636 E8.38493
G1 X93.564 Y115.636 E8.40690
G1 X91.791 Y113.864 E8.51351
G1 X91.275 Y113.864 E8.53547
G1 X93.048 Y115.636 E8.64208
G1 X92.531 Y115.636 E8.66405
G1 X90.758 Y113.864 E8.77066
G1 X90.242 Y113.864 E8.79262
G1 X92.014 Y115.636 E8.89923
G1 X91.498 Y115.636 E8.92119
G1 X89.725 Y113.864 E9.02780
G1 X89.208 Y113.864 E9.04977
G1 X90.981 Y115.636 E9.15638
G1 X90.465 Y115.636 E9.17834
G1 X88.692 Y113.864 E9.28495
G1 X88.175 Y113.864 E9.30692
G1 X89.948 Y115.636 E9.41353
G1 X89.432 Y115.636 E9.43549
G1 X87.659 Y113.864 E9.54210
G1 X87.142 Y113.864 E9.56407
G1 X88.915 Y115.636 E9.67067
G1 X88.399 Y115.636 E9.69264
G1 X86.626 Y113.864 E9.79925
G1 X86.109 Y113.864 E9.82121
G1 X87.882 Y115.636 E9.92782
G1 X87.365 Y115.636 E9.94979
G1 X85.593 Y113.864 E10.05640
G1 X85.076 Y113.864 E10.07836
G1 X86.849 Y115.636 E10.18497
G1 X86.332 Y115.636 E10.20694
G1 X84.559 Y113.864 E10.31355
G1 X84.043 Y113.864 E10.33551
G1 X85.816 Y115.636 E10.44212
G1 X85.299 Y115.636 E10.46408
G1 X83.526 Y113.864 E10.57069
G1 X83.010 Y113.864 E10.59266
G1 X84.783 Y115.636 E10.69927
G1 X84.266 Y115.636 E10.72123
G1 X82.493 Y113.864 E10.82784
G1 X81.977 Y113.864 E10.84981
G1 X83.749 Y115.636 E10.95642
G1 X83.233 Y115.636 E10.97838
G1 X81.460 Y113.864 E11.08499
G1 X80.943 Y113.864 E11.10696
G1 X82.716 Y115.636 E11.21356
G1 X82.200 Y115.636 E11.23553
G1 X80.614 Y114.050 E11.33091
G1 X80.614 Y114.567 E11.35288
G1 X81.683 Y115.636 E11.41720
G1 X81.167 Y115.636 E11.43917
G1 X80.614 Y115.083 E11.47242
G1 X80.614 Y115.600 E11.49439
G1 X80.650 Y115.636 E11.49659
G1 X101.614 Y115.937 F7800.000
G1 X102.813 Y117.136 E11.56869 F3840.000
G1 X102.296 Y117.136 E11.59065
G1 X101.614 Y116.454 E11.63169
G1 X101.614 Y116.971 E11.65366
G1 X101.779 Y117.136 E11.66364
G1 X104.636 Y111.728 F7800.000
G1 X102.451 Y109.543 E11.79503 F3840.000
G1 X102.554 Y109.129 E11.81318
G1 X104.636 Y111.212 E11.93844
G1 X104.636 Y110.695 E11.96040
G1 X102.614 Y108.672 E12.08204
G1 X102.614 Y108.156 E12.10401
G1 X104.636 Y110.179 E12.22565
G1 X104.636 Y109.662 E12.24762
G1 X102.614 Y107.639 E12.36926
G1 X102.614 Y107.123 E12.39122
G1 X104.636 Y109.146 E12.51287
G1 X104.636 Y108.629 E12.53483
G1 X102.614 Y106.606 E12.65647
G1 X102.614 Y106.090 E12.67844
G1 X104.636 Y108.112 E12.80008
G1 X104.636 Y107.596 E12.82205
G1 X102.614 Y105.573 E12.94369
G1 X102.614 Y105.056 E12.96565
G1 X104.636 Y107.079 E13.08730
G1 X104.636 Y106.563 E13.10926
G1 X102.614 Y104.540 E13.23090
G1 X102.614 Y104.023 E13.25287
G1 X104.636 Y106.046 E13.37451
G1 X104.636 Y105.530 E13.39648
G1 X102.614 Y103.507 E13.51812
G1 X102.614 Y102.990 E13.54008
G1 X104.636 Y105.013 E13.66173
G1 X104.636 Y104.496 E13.68369
G1 X102.614 Y102.474 E13.80533
G1 X102.614 Y101.957 E13.82730
G1 X104.636 Y103.980 E13.94894
G1 X104.636 Y103.463 E13.97091
G1 X102.614 Y101.440 E14.09255
G1 X102.614 Y100.924 E14.11451
G1 X104.636 Y102.947 E14.23616
G1 X104.636 Y102.430 E14.25812
G1 X102.614 Y100.407 E14.37976
G1 X102.614 Y99.891 E14.40173
G1 X104.636 Y101.914 E14.52337
G1 X104.636 Y101.397 E14.54534
G1 X102.614 Y99.374 E14.66698
G1 X102.614 Y98.858 E14.68894
G1 X104.636 Y100.881 E14.81059
G1 X104.636 Y100.364 E14.83255
G1 X102.614 Y98.341 E14.95419
G1 X102.614 Y97.825 E14.97616
G1 X104.636 Y99.847 E15.09780
G1 X104.636 Y99.331 E15.11977
G1 X102.614 Y97.308 E15.24141
G1 X102.614 Y96.791 E15.26337
G1 X104.636 Y98.814 E15.38502
G1 X104.636 Y98.298 E15.40698
G1 X102.614 Y96.275 E15.52862
G1 X102.614 Y95.758 E15.55059
G1 X104.636 Y97.781 E15.67223
G1 X104.636 Y97.265 E15.69420
G1 X102.614 Y95.242 E15.81584
G1 X102.614 Y94.725 E15.83780
G1 X104.636 Y96.748 E15.95945
G1 X104.636 Y96.231 E15.98141
G1 X102.614 Y94.209 E16.10305
G1 X102.614 Y93.692 E16.12502
G1 X104.636 Y95.715 E16.24666
G1 X104.636 Y95.198 E16.26863
G1 X102.614 Y93.175 E16.39027
G1 X102.614 Y92.659 E16.41223
G1 X104.636 Y94.682 E16.53388
G1 X104.636 Y94.165 E16.55584
G1 X102.614 Y92.142 E16.67748
G1 X102.614 Y91.626 E16.69945
G1 X104.636 Y93.649 E16.82109
G1 X104.636 Y93.132 E16.84306
G1 X102.614 Y91.109 E16.96470
G1 X102.614 Y90.593 E16.98666
G1 X104.636 Y92.616 E17.10831
G1 X104.636 Y92.099 E17.13027
G1 X102.614 Y90.076 E17.25191
G1 X102.595 Y89.541 E17.27466
G1 X104.636 Y91.582 E17.39739
G1 X104.636 Y91.066 E17.41935
G1 X102.427 Y88.856 E17.55224
G1 X102.258 Y88.170 E17.58227
G1 X104.636 Y90.549 E17.72532
G1 X104.636 Y90.033 E17.74728
G1 X102.089 Y87.485 E17.90050
G1 X104.636 Y87.450 F7800.000
G1 X100.050 Y82.864 E18.17629 F3840.000
G1 X99.534 Y82.864 E18.19826
G1 X104.636 Y87.966 E18.50511
G1 X104.636 Y88.483 E18.52707
G1 X99.017 Y82.864 E18.86499
G1 X98.500 Y82.864 E18.88696
G1 X104.636 Y89.000 E19.25594
G1 X104.636 Y89.516 E19.27790
G1 X97.984 Y82.864 E19.67794
G1 X97.467 Y82.864 E19.69991
G1 X99.931 Y85.327 E19.84806
G1 X99.099 Y85.012 F7800.000
G1 X96.951 Y82.864 E19.97724 F3840.000
G1 X96.434 Y82.864 E19.99920
G1 X98.267 Y84.696 E20.10941
G1 X97.690 Y84.636 E20.13404
G1 X95.918 Y82.864 E20.24065
G1 X95.401 Y82.864 E20.26262
G1 X97.174 Y84.636 E20.36923
G1 X96.657 Y84.636 E20.39119
G1 X94.884 Y82.864 E20.49780
G1 X94.368 Y82.864 E20.51977
G1 X96.141 Y84.636 E20.62638
G1 X95.624 Y84.636 E20.64834
G1 X93.851 Y82.864 E20.75495
G1 X93.335 Y82.864 E20.77691
G1 X95.108 Y84.636 E20.88352
G1 X94.591 Y84.636 E20.90549
G1 X92.818 Y82.864 E21.01210
G1 X92.302 Y82.864 E21.03406
G1 X94.075 Y84.636 E21.14067
G1 X93.558 Y84.636 E21.16264
G1 X91.785 Y82.864 E21.26925
G1 X91.269 Y82.864 E21.29121
G1 X93.041 Y84.636 E21.39782
G1 X92.525 Y84.636 E21.41978
G1 X90.752 Y82.864 E21.52639
G1 X90.235 Y82.864 E21.54836
G1 X92.008 Y84.636 E21.65497
G1 X91.492 Y84.636 E21.67693
G1 X89.719 Y82.864 E21.78354
G1 X89.202 Y82.864 E21.80551
G1 X90.975 Y84.636 E21.91212
G1 X90.459 Y84.636 E21.93408
G1 X88.686 Y82.864 E22.04069
G1 X88.169 Y82.864 E22.06266
G1 X89.942 Y84.636 E22.16927
G1 X89.425 Y84.636 E22.19123
G1 X87.653 Y82.864 E22.29784
G1 X87.136 Y82.864 E22.31980
G1 X88.909 Y84.636 E22.42641
G1 X88.392 Y84.636 E22.44838
G1 X86.619 Y82.864 E22.55499
G1 X86.103 Y82.864 E22.57695
G1 X87.876 Y84.636 E22.68356
G1 X87.359 Y84.636 E22.70553
G1 X85.586 Y82.864 E22.81214
G1 X85.070 Y82.864 E22.83410
G1 X86.843 Y84.636 E22.94071
G1 X86.326 Y84.636 E22.96267
G1 X84.553 Y82.864 E23.06928
G1 X84.037 Y82.864 E23.09125
G1 X85.810 Y84.636 E23.19786
G1 X85.293 Y84.636 E23.21982
G1 X83.520 Y82.864 E23.32643
G1 X83.004 Y82.864 E23.34840
G1 X84.776 Y84.636 E23.45501
G1 X84.260 Y84.636 E23.47697
G1 X82.487 Y82.864 E23.58358
G1 X81.970 Y82.864 E23.60555
G1 X83.743 Y84.636 E23.71215
G1 X83.227 Y84.636 E23.73412
G1 X81.454 Y82.864 E23.84073
G1 X80.937 Y82.864 E23.86269
G1 X82.710 Y84.636 E23.96930
G1 X82.194 Y84.636 E23.99127
G1 X80.614 Y83.056 E24.08628
G1 X80.614 Y83.573 E24.10824
G1 X81.677 Y84.636 E24.17219
G1 X81.160 Y84.636 E24.19416
G1 X80.614 Y84.090 E24.22705
G1 X80.614 Y84.606 E24.24901
G1 X80.644 Y84.636 E24.25083
G1 X100.567 Y82.864 F7800.000
G1 X104.636 Y86.933 E24.49556 F3840.000
G1 X104.636 Y86.417 E24.51753
