; generated by Slic3r 1.0.0RC2 on 2014-10-07 at 16:12:24

; layer_height = 0.35
; perimeters = 3
; top_solid_layers = 3
; bottom_solid_layers = 3
; fill_density = 0.4
; perimeter_speed = 80
; infill_speed = 80
; travel_speed = 130
; nozzle_diameter = 0.35
; filament_diameter = 1.75
; extrusion_multiplier = 0.8
; perimeters extrusion width = 0.35mm
; infill extrusion width = 0.37mm
; solid infill extrusion width = 0.37mm
; top infill extrusion width = 0.37mm

G21 ; set units to millimeters
M107
M190 S50 ; wait for bed temperature to be reached
M104 S235 ; set temperature
G28 ; home all axes
G1 Z5 F5000 ; lift nozzle
M109 S235 ; wait for temperature to be reached
G90 ; use absolute coordinates
G92 E0
M82 ; use absolute distances for extrusion
G1 F1800.000 E-1.00000
G92 E0
G1 Z0.350 F7800.000
G1 X74.760 Y77.760 F7800.000
G1 E2.00000 F1800.000
G1 X75.780 Y76.930 E2.05358 F3840.000
G1 X76.940 Y76.310 E2.10717
G1 X78.190 Y75.930 E2.16040
G1 X79.500 Y75.800 E2.21404
G1 X120.500 Y75.800 E3.88453
G1 X121.810 Y75.930 E3.93816
G1 X123.060 Y76.310 E3.99139
G1 X124.220 Y76.930 E4.04498
G1 X125.240 Y77.760 E4.09856
G1 X126.070 Y78.780 E4.15214
G1 X126.690 Y79.940 E4.20573
G1 X127.070 Y81.190 E4.25896
G1 X127.200 Y82.500 E4.31260
G1 X127.200 Y117.500 E5.73863
G1 X127.070 Y118.810 E5.79226
G1 X126.690 Y120.060 E5.84549
G1 X126.070 Y121.220 E5.89908
G1 X125.240 Y122.240 E5.95266
G1 X124.220 Y123.070 E6.00624
G1 X123.060 Y123.690 E6.05983
G1 X121.810 Y124.070 E6.11306
G1 X120.500 Y124.200 E6.16670
G1 X79.500 Y124.200 E7.83719
G1 X78.190 Y124.070 E7.89083
G1 X76.940 Y123.690 E7.94406
G1 X75.780 Y123.070 E7.99765
G1 X74.760 Y122.240 E8.05123
G1 X73.930 Y121.220 E8.10481
G1 X73.310 Y120.060 E8.15840
G1 X72.930 Y118.810 E8.21163
G1 X72.800 Y117.500 E8.26526
G1 X72.800 Y82.500 E9.69129
G1 X72.930 Y81.190 E9.74493
G1 X73.310 Y79.940 E9.79816
G1 X73.930 Y78.780 E9.85175
G1 X74.727 Y77.801 E9.90319
G1 X75.010 Y78.010 F7800.000
G1 X75.970 Y77.220 E9.95384 F3840.000
G1 X77.070 Y76.630 E10.00470
G1 X78.260 Y76.270 E10.05536
G1 X79.500 Y76.150 E10.10611
G1 X120.500 Y76.150 E11.77660
G1 X121.740 Y76.270 E11.82736
G1 X122.930 Y76.630 E11.87802
G1 X124.030 Y77.220 E11.92888
G1 X124.990 Y78.010 E11.97953
G1 X125.780 Y78.970 E12.03019
G1 X126.370 Y80.070 E12.08104
G1 X126.730 Y81.260 E12.13170
G1 X126.850 Y82.500 E12.18246
G1 X126.850 Y117.500 E13.60849
G1 X126.730 Y118.740 E13.65924
G1 X126.370 Y119.930 E13.70990
G1 X125.780 Y121.030 E13.76076
G1 X124.990 Y121.990 E13.81141
G1 X124.030 Y122.780 E13.86207
G1 X122.930 Y123.370 E13.91292
G1 X121.740 Y123.730 E13.96358
G1 X120.500 Y123.850 E14.01434
G1 X79.500 Y123.850 E15.68483
G1 X78.260 Y123.730 E15.73559
G1 X77.070 Y123.370 E15.78624
G1 X75.970 Y122.780 E15.83710
G1 X75.010 Y121.990 E15.88775
G1 X74.220 Y121.030 E15.93841
G1 X73.630 Y119.930 E15.98927
G1 X73.270 Y118.740 E16.03992
G1 X73.150 Y117.500 E16.09068
G1 X73.150 Y82.500 E17.51671
G1 X73.270 Y81.260 E17.56747
G1 X73.630 Y80.070 E17.61812
G1 X74.220 Y78.970 E17.66898
G1 X74.977 Y78.051 E17.71750
G1 F1800.000 E16.71750
G92 E0
G1 X110.198 Y85.000 F7800.000
G1 E2.00000 F1800.000
G1 X111.099 Y83.439 E2.07342 F3840.000
G1 X112.901 Y83.439 E2.14685
G1 X113.802 Y85.000 E2.22027
G1 X112.901 Y86.561 E2.29369
G1 X111.099 Y86.561 E2.36712
G1 X110.224 Y85.045 E2.43840
G1 X109.930 Y84.775 F7800.000
G1 X105.225 Y87.725 F7800.000
G1 X118.775 Y87.725 E2.99048 F3840.000
G1 X118.775 Y112.275 E3.99073
G1 X105.225 Y112.275 E4.54281
G1 X105.225 Y87.778 E5.54093
G1 X105.575 Y88.075 F7800.000
G1 X118.425 Y88.075 E6.06448 F2688.000
G1 X118.425 Y111.925 E7.03622
G1 X105.575 Y111.925 E7.55978
G1 X105.575 Y88.127 E8.52937
G1 X105.575 Y87.725 F7800.000
G1 F1800.000 E7.52937
G92 E0
G1 X111.099 Y113.439 F7800.000
G1 E2.00000 F1800.000
G1 X112.901 Y113.439 E2.07342 F3840.000
G1 X113.802 Y115.000 E2.14684
G1 X112.901 Y116.561 E2.22027
G1 X111.099 Y116.561 E2.29369
G1 X110.198 Y115.000 E2.36711
G1 X111.073 Y113.485 E2.43839
G1 X111.160 Y113.095 F7800.000
G1 X113.239 Y112.625 F7800.000
G1 X119.125 Y112.625 E2.67821 F3840.000
G1 X119.125 Y87.375 E3.70698
G1 X113.239 Y87.375 E3.94679
G1 X114.610 Y85.000 E4.05853
G1 X113.672 Y83.375 E4.13498
G1 X119.625 Y83.375 E4.37752
G1 X119.625 Y116.625 E5.73225
G1 X113.672 Y116.625 E5.97479
G1 X114.610 Y115.000 E6.05124
G1 X113.265 Y112.670 E6.16084
G1 X110.761 Y112.625 F7800.000
G1 X109.390 Y115.000 E6.27258 F3840.000
G1 X110.328 Y116.625 E6.34903
G1 X80.375 Y116.625 E7.56942
G1 X80.375 Y114.375 E7.66109
G1 X97.875 Y114.375 E8.37410
G1 X97.875 Y114.339 E8.37556
G1 X98.091 Y114.365 E8.38441
G1 X100.284 Y113.534 E8.48000
G1 X101.840 Y111.778 E8.57557
G1 X102.375 Y109.606 E8.66670
G1 X102.375 Y90.394 E9.44948
G1 X101.840 Y88.222 E9.54060
G1 X100.284 Y86.466 E9.63618
G1 X98.091 Y85.635 E9.73176
G1 X97.875 Y85.661 E9.74062
G1 X97.875 Y85.625 E9.74207
G1 X80.375 Y85.625 E10.45509
G1 X80.375 Y83.375 E10.54676
G1 X110.328 Y83.375 E11.76715
G1 X109.390 Y85.000 E11.84360
G1 X110.761 Y87.375 E11.95534
G1 X104.875 Y87.375 E12.19515
G1 X104.875 Y112.625 E13.22393
G1 X110.708 Y112.625 E13.46160
G1 X110.897 Y113.089 F7800.000
G1 X109.794 Y115.000 E13.55149 F3840.000
G1 X110.934 Y116.975 E13.64441
G1 X80.025 Y116.975 E14.90376
G1 X80.025 Y114.025 E15.02395
G1 X97.525 Y114.025 E15.73696
G1 X97.525 Y113.944 E15.74026
G1 X98.047 Y114.008 E15.76169
G1 X100.079 Y113.237 E15.85024
G1 X101.521 Y111.610 E15.93879
G1 X102.025 Y109.564 E16.02467
G1 X102.025 Y90.436 E16.80399
G1 X101.521 Y88.390 E16.88987
G1 X100.079 Y86.763 E16.97841
G1 X98.047 Y85.992 E17.06697
G1 X97.525 Y86.056 E17.08840
G1 X97.525 Y85.975 E17.09169
G1 X80.025 Y85.975 E17.80471
G1 X80.025 Y83.025 E17.92490
G1 X110.934 Y83.025 E19.18425
G1 X109.794 Y85.000 E19.27717
G1 X110.897 Y86.911 E19.36706
G1 X113.103 Y86.911 E19.45695
G1 X114.206 Y85.000 E19.54684
G1 X113.066 Y83.025 E19.63975
G1 X119.975 Y83.025 E19.92125
G1 X119.975 Y116.975 E21.30450
G1 X113.066 Y116.975 E21.58600
G1 X114.206 Y115.000 E21.67892
G1 X113.103 Y113.089 E21.76881
G1 X110.949 Y113.089 E21.85656
G1 X101.201 Y111.443 F7800.000
G1 X101.675 Y109.521 E21.93719 F2688.000
G1 X101.675 Y90.479 E22.71305
G1 X101.201 Y88.557 E22.79368
G1 X99.875 Y87.060 E22.87519
G1 X98.004 Y86.350 E22.95672
G1 X97.175 Y86.451 E22.99073
G1 X97.175 Y86.325 E22.99586
G1 X79.675 Y86.325 E23.70888
G1 X79.675 Y82.675 E23.85759
G1 X120.325 Y82.675 E25.51382
G1 X120.325 Y117.325 E26.92559
G1 X79.675 Y117.325 E28.58182
G1 X79.675 Y113.675 E28.73053
G1 X97.175 Y113.675 E29.44355
G1 X97.175 Y113.549 E29.44868
G1 X98.004 Y113.650 E29.48269
G1 X99.875 Y112.940 E29.56422
G1 X101.167 Y111.482 E29.64359
G1 X101.549 Y111.400 F7800.000
G1 X114.148 Y113.723 F7800.000
G1 X116.812 Y116.387 E29.80954 F3840.000
G1 X117.347 Y116.387 E29.83311
G1 X113.823 Y112.863 E30.05266
G1 X114.358 Y112.863 E30.07624
G1 X117.882 Y116.387 E30.29579
G1 X118.417 Y116.387 E30.31936
G1 X114.893 Y112.863 E30.53892
G1 X115.428 Y112.863 E30.56249
G1 X118.952 Y116.387 E30.78204
G1 X119.387 Y116.287 E30.80170
G1 X115.963 Y112.863 E31.01499
G1 X116.498 Y112.863 E31.03857
G1 X119.387 Y115.752 E31.21852
G1 X119.387 Y115.216 E31.24210
G1 X117.034 Y112.863 E31.38872
G1 X117.569 Y112.863 E31.41229
G1 X119.387 Y114.681 E31.52557
G1 X119.387 Y114.146 E31.54914
G1 X118.104 Y112.863 E31.62908
G1 X118.639 Y112.863 E31.65266
G1 X119.387 Y113.611 E31.69925
G1 X119.387 Y113.076 E31.72283
G1 X119.349 Y113.038 E31.72519
G1 X114.879 Y114.990 F7800.000
G1 X116.277 Y116.387 E31.81224 F3840.000
G1 X115.741 Y116.387 E31.83582
G1 X114.691 Y115.337 E31.90127
G1 X114.495 Y115.676 E31.91852
G1 X115.206 Y116.387 E31.96284
G1 X114.671 Y116.387 E31.98641
G1 X114.299 Y116.015 E32.00959
G1 X114.103 Y116.354 E32.02685
G1 X114.136 Y116.387 E32.02889
G1 X112.713 Y116.924 F7800.000
G1 X112.674 Y116.885 E32.03211 F960.000
G1 X112.076 Y117.000 E32.06781 F960.000
G1 X111.961 Y116.885 E32.07733 F960.000
G1 X111.287 Y116.924 E32.11692 F960.000
G1 X111.363 Y117.000 E32.12322 F960.000
G1 F1800.000 E31.12322
G92 E0
G1 X111.121 Y112.761 F7800.000
G1 E2.00000 F1800.000
G1 X111.083 Y112.723 E2.00271 F960.000
G1 X111.580 Y112.603 E2.02865 F960.000
G1 X111.738 Y112.761 E2.04000 F960.000
G1 X112.196 Y112.603 E2.06463 F960.000
G1 X112.354 Y112.761 E2.07598 F960.000
G1 X112.813 Y112.603 E2.10061 F960.000
G1 X112.895 Y112.685 E2.10646 F960.000
G1 X119.361 Y112.721 F7800.000
G1 X119.389 Y112.487 E2.11155 F960.000
G1 X119.361 Y112.458 E2.11243 F960.000
G1 X119.389 Y112.224 E2.11752 F960.000
G1 X119.361 Y112.196 E2.11839 F960.000
G1 X119.389 Y111.962 E2.12349 F960.000
G1 X119.361 Y111.933 E2.12436 F960.000
G1 X119.389 Y111.699 E2.12946 F960.000
G1 X119.361 Y111.670 E2.13033 F960.000
G1 X119.389 Y111.436 E2.13543 F960.000
G1 X119.361 Y111.408 E2.13630 F960.000
G1 X119.389 Y111.174 E2.14140 F960.000
G1 X119.361 Y111.145 E2.14227 F960.000
G1 X119.389 Y110.911 E2.14736 F960.000
G1 X119.361 Y110.883 E2.14824 F960.000
G1 X119.389 Y110.649 E2.15333 F960.000
G1 X119.361 Y110.620 E2.15421 F960.000
G1 X119.389 Y110.386 E2.15930 F960.000
G1 X119.361 Y110.358 E2.16018 F960.000
G1 X119.389 Y110.124 E2.16527 F960.000
G1 X119.361 Y110.095 E2.16614 F960.000
G1 X119.389 Y109.861 E2.17124 F960.000
G1 X119.361 Y109.832 E2.17211 F960.000
G1 X119.389 Y109.598 E2.17721 F960.000
G1 X119.361 Y109.570 E2.17808 F960.000
G1 X119.389 Y109.336 E2.18318 F960.000
G1 X119.361 Y109.307 E2.18405 F960.000
G1 X119.389 Y109.073 E2.18915 F960.000
G1 X119.361 Y109.045 E2.19002 F960.000
G1 X119.389 Y108.811 E2.19511 F960.000
G1 X119.361 Y108.782 E2.19599 F960.000
G1 X119.389 Y108.548 E2.20108 F960.000
G1 X119.361 Y108.519 E2.20196 F960.000
G1 X119.389 Y108.285 E2.20705 F960.000
G1 X119.361 Y108.257 E2.20792 F960.000
G1 X119.389 Y108.023 E2.21302 F960.000
G1 X119.361 Y107.994 E2.21389 F960.000
G1 X119.389 Y107.760 E2.21899 F960.000
G1 X119.361 Y107.732 E2.21986 F960.000
G1 X119.389 Y107.498 E2.22496 F960.000
G1 X119.361 Y107.469 E2.22583 F960.000
G1 X119.389 Y107.235 E2.23093 F960.000
G1 X119.361 Y107.207 E2.23180 F960.000
G1 X119.389 Y106.973 E2.23689 F960.000
G1 X119.361 Y106.944 E2.23777 F960.000
G1 X119.389 Y106.710 E2.24286 F960.000
G1 X119.361 Y106.681 E2.24374 F960.000
G1 X119.389 Y106.447 E2.24883 F960.000
G1 X119.361 Y106.419 E2.24971 F960.000
G1 X119.389 Y106.185 E2.25480 F960.000
G1 X119.361 Y106.156 E2.25567 F960.000
G1 X119.389 Y105.922 E2.26077 F960.000
G1 X119.361 Y105.894 E2.26164 F960.000
G1 X119.389 Y105.660 E2.26674 F960.000
G1 X119.361 Y105.631 E2.26761 F960.000
G1 X119.389 Y105.397 E2.27271 F960.000
G1 X119.361 Y105.369 E2.27358 F960.000
G1 X119.389 Y105.135 E2.27868 F960.000
G1 X119.361 Y105.106 E2.27955 F960.000
G1 X119.389 Y104.872 E2.28464 F960.000
G1 X119.361 Y104.843 E2.28552 F960.000
G1 X119.389 Y104.609 E2.29061 F960.000
G1 X119.361 Y104.581 E2.29149 F960.000
G1 X119.389 Y104.347 E2.29658 F960.000
G1 X119.361 Y104.318 E2.29745 F960.000
G1 X119.389 Y104.084 E2.30255 F960.000
G1 X119.361 Y104.056 E2.30342 F960.000
G1 X119.389 Y103.822 E2.30852 F960.000
G1 X119.361 Y103.793 E2.30939 F960.000
G1 X119.389 Y103.559 E2.31449 F960.000
G1 X119.361 Y103.530 E2.31536 F960.000
G1 X119.389 Y103.296 E2.32046 F960.000
G1 X119.361 Y103.268 E2.32133 F960.000
G1 X119.389 Y103.034 E2.32642 F960.000
G1 X119.361 Y103.005 E2.32730 F960.000
G1 X119.389 Y102.771 E2.33239 F960.000
G1 X119.361 Y102.743 E2.33327 F960.000
G1 X119.389 Y102.509 E2.33836 F960.000
G1 X119.361 Y102.480 E2.33924 F960.000
G1 X119.389 Y102.246 E2.34433 F960.000
G1 X119.361 Y102.218 E2.34520 F960.000
G1 X119.389 Y101.984 E2.35030 F960.000
G1 X119.361 Y101.955 E2.35117 F960.000
G1 X119.389 Y101.721 E2.35627 F960.000
G1 X119.361 Y101.692 E2.35714 F960.000
G1 X119.389 Y101.458 E2.36224 F960.000
G1 X119.361 Y101.430 E2.36311 F960.000
G1 X119.389 Y101.196 E2.36821 F960.000
G1 X119.361 Y101.167 E2.36908 F960.000
G1 X119.389 Y100.933 E2.37417 F960.000
G1 X119.361 Y100.905 E2.37505 F960.000
G1 X119.389 Y100.671 E2.38014 F960.000
G1 X119.361 Y100.642 E2.38102 F960.000
G1 X119.389 Y100.408 E2.38611 F960.000
G1 X119.361 Y100.380 E2.38698 F960.000
G1 X119.389 Y100.146 E2.39208 F960.000
G1 X119.361 Y100.117 E2.39295 F960.000
G1 X119.389 Y99.883 E2.39805 F960.000
G1 X119.361 Y99.854 E2.39892 F960.000
G1 X119.389 Y99.620 E2.40402 F960.000
G1 X119.361 Y99.592 E2.40489 F960.000
G1 X119.389 Y99.358 E2.40999 F960.000
G1 X119.361 Y99.329 E2.41086 F960.000
G1 X119.389 Y99.095 E2.41595 F960.000
G1 X119.361 Y99.067 E2.41683 F960.000
G1 X119.389 Y98.833 E2.42192 F960.000
G1 X119.361 Y98.804 E2.42280 F960.000
G1 X119.389 Y98.570 E2.42789 F960.000
G1 X119.361 Y98.542 E2.42877 F960.000
G1 X119.389 Y98.308 E2.43386 F960.000
G1 X119.361 Y98.279 E2.43473 F960.000
G1 X119.389 Y98.045 E2.43983 F960.000
G1 X119.361 Y98.016 E2.44070 F960.000
G1 X119.389 Y97.782 E2.44580 F960.000
G1 X119.361 Y97.754 E2.44667 F960.000
G1 X119.389 Y97.520 E2.45177 F960.000
G1 X119.361 Y97.491 E2.45264 F960.000
G1 X119.389 Y97.257 E2.45774 F960.000
G1 X119.361 Y97.229 E2.45861 F960.000
G1 X119.389 Y96.995 E2.46370 F960.000
G1 X119.361 Y96.966 E2.46458 F960.000
G1 X119.389 Y96.732 E2.46967 F960.000
G1 X119.361 Y96.703 E2.47055 F960.000
G1 X119.389 Y96.469 E2.47564 F960.000
G1 X119.361 Y96.441 E2.47651 F960.000
G1 X119.389 Y96.207 E2.48161 F960.000
G1 X119.361 Y96.178 E2.48248 F960.000
G1 X119.389 Y95.944 E2.48758 F960.000
G1 X119.361 Y95.916 E2.48845 F960.000
G1 X119.389 Y95.682 E2.49355 F960.000
G1 X119.361 Y95.653 E2.49442 F960.000
G1 X119.389 Y95.419 E2.49952 F960.000
G1 X119.361 Y95.391 E2.50039 F960.000
G1 X119.389 Y95.157 E2.50549 F960.000
G1 X119.361 Y95.128 E2.50636 F960.000
G1 X119.389 Y94.894 E2.51145 F960.000
G1 X119.361 Y94.865 E2.51233 F960.000
G1 X119.389 Y94.631 E2.51742 F960.000
G1 X119.361 Y94.603 E2.51830 F960.000
G1 X119.389 Y94.369 E2.52339 F960.000
G1 X119.361 Y94.340 E2.52426 F960.000
G1 X119.389 Y94.106 E2.52936 F960.000
G1 X119.361 Y94.078 E2.53023 F960.000
G1 X119.389 Y93.844 E2.53533 F960.000
G1 X119.361 Y93.815 E2.53620 F960.000
G1 X119.389 Y93.581 E2.54130 F960.000
G1 X119.361 Y93.553 E2.54217 F960.000
G1 X119.389 Y93.319 E2.54727 F960.000
G1 X119.361 Y93.290 E2.54814 F960.000
G1 X119.389 Y93.056 E2.55323 F960.000
G1 X119.361 Y93.027 E2.55411 F960.000
G1 X119.389 Y92.793 E2.55920 F960.000
G1 X119.361 Y92.765 E2.56008 F960.000
G1 X119.389 Y92.531 E2.56517 F960.000
G1 X119.361 Y92.502 E2.56604 F960.000
G1 X119.389 Y92.268 E2.57114 F960.000
G1 X119.361 Y92.240 E2.57201 F960.000
G1 X119.389 Y92.006 E2.57711 F960.000
G1 X119.361 Y91.977 E2.57798 F960.000
G1 X119.389 Y91.743 E2.58308 F960.000
G1 X119.361 Y91.714 E2.58395 F960.000
G1 X119.389 Y91.480 E2.58905 F960.000
G1 X119.361 Y91.452 E2.58992 F960.000
G1 X119.389 Y91.218 E2.59502 F960.000
G1 X119.361 Y91.189 E2.59589 F960.000
G1 X119.389 Y90.955 E2.60098 F960.000
G1 X119.361 Y90.927 E2.60186 F960.000
G1 X119.389 Y90.693 E2.60695 F960.000
G1 X119.361 Y90.664 E2.60783 F960.000
G1 X119.389 Y90.430 E2.61292 F960.000
G1 X119.361 Y90.402 E2.61379 F960.000
G1 X119.389 Y90.168 E2.61889 F960.000
G1 X119.361 Y90.139 E2.61976 F960.000
G1 X119.389 Y89.905 E2.62486 F960.000
G1 X119.361 Y89.876 E2.62573 F960.000
G1 X119.389 Y89.642 E2.63083 F960.000
G1 X119.361 Y89.614 E2.63170 F960.000
G1 X119.389 Y89.380 E2.63680 F960.000
G1 X119.361 Y89.351 E2.63767 F960.000
G1 X119.389 Y89.117 E2.64276 F960.000
G1 X119.361 Y89.089 E2.64364 F960.000
G1 X119.389 Y88.855 E2.64873 F960.000
G1 X119.361 Y88.826 E2.64961 F960.000
G1 X119.389 Y88.592 E2.65470 F960.000
G1 X119.361 Y88.564 E2.65558 F960.000
G1 X119.389 Y88.330 E2.66067 F960.000
G1 X119.361 Y88.301 E2.66154 F960.000
G1 X119.389 Y88.067 E2.66664 F960.000
G1 X119.361 Y88.038 E2.66751 F960.000
G1 X119.389 Y87.804 E2.67261 F960.000
G1 X119.361 Y87.776 E2.67348 F960.000
G1 X119.389 Y87.542 E2.67858 F960.000
G1 X119.361 Y87.513 E2.67945 F960.000
G1 X119.389 Y87.279 E2.68455 F960.000
G1 X119.375 Y87.265 E2.68498 F960.000
G1 X112.917 Y87.277 F7800.000
G1 X112.879 Y87.239 E2.68769 F960.000
G1 X112.420 Y87.397 E2.71233 F960.000
G1 X112.262 Y87.239 E2.72367 F960.000
G1 X111.804 Y87.397 E2.74831 F960.000
G1 X111.646 Y87.239 E2.75965 F960.000
