; generated by Slic3r 1.0.0RC2 on 2014-10-07 at 15:19:26

; layer_height = 0.35
; perimeters = 3
; top_solid_layers = 3
; bottom_solid_layers = 3
; fill_density = 0.4
; perimeter_speed = 80
; infill_speed = 80
; travel_speed = 130
; nozzle_diameter = 0.35
; filament_diameter = 1.75
; extrusion_multiplier = 0.8
; perimeters extrusion width = 0.35mm
; infill extrusion width = 0.37mm
; solid infill extrusion width = 0.37mm
; top infill extrusion width = 0.37mm

G21 ; set units to millimeters
M107
M190 S50 ; wait for bed temperature to be reached
M104 S235 ; set temperature
G28 ; home all axes
G1 Z5 F5000 ; lift nozzle
M109 S235 ; wait for temperature to be reached
G90 ; use absolute coordinates
G92 E0
M82 ; use absolute distances for extrusion
G1 F1800.000 E-1.00000
G92 E0
G1 Z0.350 F7800.000
G1 X71.351 Y90.660 F7800.000
G1 E2.00000 F1800.000
G1 X72.221 Y89.970 E2.04524 F3840.000
G1 X73.871 Y88.890 E2.12559
G1 X74.861 Y88.360 E2.17134
G1 X75.921 Y88.000 E2.21695
G1 X77.841 Y87.520 E2.29759
G1 X78.511 Y87.390 E2.32540
G1 X79.191 Y87.330 E2.35321
G1 X79.951 Y87.300 E2.38420
G1 X119.951 Y87.300 E4.01395
G1 X120.761 Y87.350 E4.04701
G1 X122.241 Y87.530 E4.10776
G1 X123.201 Y87.720 E4.14763
G1 X124.121 Y88.040 E4.18732
G1 X125.921 Y88.830 E4.26741
G1 X126.891 Y89.360 E4.31244
G1 X127.761 Y90.030 E4.35718
G1 X129.221 Y91.370 E4.43792
G1 X129.981 Y92.190 E4.48348
G1 X130.581 Y93.130 E4.52891
G1 X131.521 Y94.870 E4.60949
G1 X131.971 Y95.880 E4.65454
G1 X132.241 Y96.960 E4.69990
G1 X132.561 Y98.900 E4.78001
G1 X132.651 Y99.990 E4.82457
G1 X132.561 Y101.070 E4.86873
G1 X132.241 Y103.020 E4.94924
G1 X131.971 Y104.100 E4.99460
G1 X131.521 Y105.120 E5.04002
G1 X130.581 Y106.860 E5.12060
G1 X129.981 Y107.800 E5.16604
G1 X129.221 Y108.620 E5.21159
G1 X127.761 Y109.960 E5.29233
G1 X126.891 Y110.630 E5.33707
G1 X125.921 Y111.160 E5.38211
G1 X124.121 Y111.950 E5.46220
G1 X123.221 Y112.270 E5.50112
G1 X122.281 Y112.460 E5.54019
G1 X120.801 Y112.650 E5.60099
G1 X119.951 Y112.700 E5.63568
G1 X79.951 Y112.700 E7.26542
G1 X79.051 Y112.660 E7.30213
G1 X78.441 Y112.590 E7.32715
G1 X77.841 Y112.470 E7.35208
G1 X75.921 Y111.990 E7.43271
G1 X74.861 Y111.630 E7.47832
G1 X73.871 Y111.100 E7.52408
G1 X72.221 Y110.020 E7.60442
G1 X71.351 Y109.330 E7.64967
G1 X70.601 Y108.520 E7.69464
G1 X69.391 Y106.960 E7.77508
G1 X68.781 Y106.030 E7.82040
G1 X68.341 Y105.020 E7.86528
G1 X67.701 Y103.150 E7.94581
G1 X67.431 Y102.080 E7.99077
G1 X67.341 Y100.980 E8.03574
G1 X67.341 Y99.010 E8.11601
G1 X67.431 Y97.910 E8.16097
G1 X67.701 Y96.840 E8.20594
G1 X68.341 Y94.970 E8.28647
G1 X68.781 Y93.960 E8.33135
G1 X69.391 Y93.030 E8.37667
G1 X70.601 Y91.470 E8.45711
G1 X71.315 Y90.699 E8.49994
G1 X71.581 Y90.910 F7800.000
G1 X72.411 Y90.270 E8.54265 F3840.000
G1 X74.061 Y89.190 E8.62300
G1 X75.001 Y88.680 E8.66657
G1 X76.001 Y88.340 E8.70960
G1 X77.921 Y87.860 E8.79024
G1 X78.561 Y87.730 E8.81685
G1 X79.201 Y87.680 E8.84300
G1 X79.951 Y87.650 E8.87358
G1 X119.951 Y87.650 E10.50333
G1 X120.721 Y87.700 E10.53477
G1 X122.201 Y87.880 E10.59551
G1 X123.111 Y88.060 E10.63331
G1 X123.981 Y88.370 E10.67094
G1 X125.781 Y89.160 E10.75103
G1 X126.701 Y89.650 E10.79350
G1 X127.521 Y90.290 E10.83588
G1 X128.981 Y91.630 E10.91662
G1 X129.701 Y92.410 E10.95987
G1 X130.281 Y93.290 E11.00281
G1 X131.221 Y95.030 E11.08339
G1 X131.641 Y96.000 E11.12646
G1 X131.901 Y97.020 E11.16935
G1 X132.221 Y98.960 E11.24946
G1 X132.301 Y99.990 E11.29155
G1 X132.221 Y101.020 E11.33364
G1 X131.901 Y102.970 E11.41416
G1 X131.641 Y103.990 E11.45704
G1 X131.221 Y104.960 E11.50011
G1 X130.281 Y106.700 E11.58069
G1 X129.701 Y107.580 E11.62363
G1 X128.981 Y108.360 E11.66688
G1 X127.521 Y109.700 E11.74762
G1 X126.701 Y110.340 E11.79000
G1 X125.781 Y110.830 E11.83247
G1 X123.981 Y111.620 E11.91256
G1 X123.131 Y111.930 E11.94943
G1 X122.241 Y112.110 E11.98642
G1 X120.761 Y112.300 E12.04722
G1 X119.951 Y112.350 E12.08028
G1 X79.951 Y112.350 E13.71003
G1 X79.071 Y112.310 E13.74592
G1 X78.491 Y112.250 E13.76968
G1 X77.921 Y112.130 E13.79341
G1 X76.001 Y111.650 E13.87405
G1 X75.001 Y111.310 E13.91708
G1 X74.061 Y110.800 E13.96065
G1 X72.411 Y109.720 E14.04100
G1 X71.581 Y109.080 E14.08371
G1 X70.871 Y108.300 E14.12668
G1 X69.661 Y106.740 E14.20712
G1 X69.091 Y105.860 E14.24984
G1 X68.671 Y104.910 E14.29216
G1 X68.031 Y103.040 E14.37269
G1 X67.781 Y102.020 E14.41548
G1 X67.691 Y100.980 E14.45801
G1 X67.691 Y99.010 E14.53827
G1 X67.781 Y97.970 E14.58080
G1 X68.031 Y96.950 E14.62359
G1 X68.671 Y95.080 E14.70412
G1 X69.091 Y94.130 E14.74644
G1 X69.661 Y93.250 E14.78916
G1 X70.871 Y91.690 E14.86960
G1 X71.546 Y90.949 E14.91043
G1 F1800.000 E13.91043
G92 E0
G1 X77.584 Y96.130 F7800.000
G1 E2.00000 F1800.000
G1 X79.654 Y95.470 E2.08855 F3840.000
G1 X81.795 Y95.847 E2.17710
G1 X83.515 Y97.176 E2.26565
G1 X84.420 Y99.152 E2.35420
G1 X84.303 Y101.322 E2.44275
G1 X83.191 Y103.189 E2.53130
G1 X81.339 Y104.326 E2.61984
G1 X79.171 Y104.472 E2.70839
G1 X77.183 Y103.593 E2.79694
G1 X75.831 Y101.891 E2.88549
G1 X75.425 Y99.756 E2.97404
G1 X76.058 Y97.677 E3.06259
G1 X77.547 Y96.167 E3.14900
G1 X77.773 Y96.437 F7800.000
G1 X79.679 Y95.829 E3.23052 F3840.000
G1 X81.649 Y96.177 E3.31204
G1 X83.232 Y97.400 E3.39356
G1 X84.066 Y99.219 E3.47508
G1 X83.958 Y101.217 E3.55660
G1 X82.935 Y102.936 E3.63812
G1 X81.229 Y103.983 E3.71964
G1 X79.233 Y104.117 E3.80116
G1 X77.403 Y103.308 E3.88268
G1 X76.159 Y101.741 E3.96420
G1 X75.785 Y99.776 E4.04572
G1 X76.367 Y97.861 E4.12724
G1 X77.736 Y96.475 E4.20662
G1 X77.791 Y96.088 F7800.000
G1 F1800.000 E3.20662
G92 E0
G1 X115.425 Y100.244 F7800.000
G1 E2.00000 F1800.000
G1 X115.831 Y98.109 E2.08855 F3840.000
G1 X116.023 Y97.867 E2.10114
G1 X117.183 Y96.407 E2.17710
G1 X119.171 Y95.528 E2.26565
G1 X121.339 Y95.674 E2.35420
G1 X123.191 Y96.811 E2.44274
G1 X124.303 Y98.678 E2.53130
G1 X124.420 Y100.848 E2.61985
G1 X123.515 Y102.824 E2.70840
G1 X121.795 Y104.153 E2.79695
G1 X119.655 Y104.530 E2.88549
G1 X117.584 Y103.870 E2.97404
G1 X116.058 Y102.323 E3.06259
G1 X115.440 Y100.294 E3.14900
G1 X115.785 Y100.224 F7800.000
G1 X116.159 Y98.259 E3.23052 F3840.000
G1 X116.297 Y98.084 E3.23960
G1 X117.403 Y96.692 E3.31204
G1 X119.233 Y95.883 E3.39356
G1 X121.229 Y96.017 E3.47508
G1 X121.338 Y96.084 E3.48025
G1 X122.935 Y97.064 E3.55660
G1 X123.958 Y98.783 E3.63812
G1 X124.066 Y100.781 E3.71964
G1 X123.232 Y102.600 E3.80116
G1 X121.649 Y103.823 E3.88268
G1 X119.679 Y104.171 E3.96420
G1 X117.773 Y103.563 E4.04572
G1 X116.367 Y102.139 E4.12724
G1 X115.800 Y100.275 E4.20662
G1 X115.487 Y100.041 F7800.000
G1 X115.147 Y99.833 F7800.000
G1 X115.065 Y100.263 E4.22444 F3840.000
G1 X115.748 Y102.507 E4.32002
G1 X117.395 Y104.177 E4.41560
G1 X119.692 Y104.910 E4.51381
G1 X119.672 Y105.084 E4.52096
G1 X119.180 Y105.125 E4.54107
G1 X80.834 Y105.125 E6.10343
G1 X80.834 Y104.711 E6.12031
G1 X81.449 Y104.669 E6.14541
G1 X83.448 Y103.442 E6.24098
G1 X84.648 Y101.427 E6.33656
G1 X84.774 Y99.084 E6.43214
G1 X83.797 Y96.952 E6.52772
G1 X81.941 Y95.517 E6.62330
G1 X80.834 Y95.322 E6.66908
G1 X80.834 Y94.875 E6.68729
G1 X83.325 Y94.875 E6.78878
G1 X84.519 Y95.743 E6.84892
G1 X90.417 Y98.368 E7.11195
G1 X96.731 Y99.711 E7.37497
G1 X103.187 Y99.711 E7.63800
G1 X109.501 Y98.368 E7.90103
G1 X115.399 Y95.743 E8.16406
G1 X116.593 Y94.875 E8.22420
G1 X119.380 Y94.875 E8.33773
G1 X119.414 Y95.038 E8.34452
G1 X116.962 Y96.122 E8.45373
G1 X115.503 Y97.959 E8.54931
G1 X115.157 Y99.782 E8.62493
G1 F1800.000 E7.62493
G92 E0
G1 X75.355 Y101.263 F7800.000
G1 E2.00000 F1800.000
G1 X75.085 Y101.335 E2.01138 F3840.000
G1 X74.916 Y100.842 E2.03262
G1 X74.916 Y100.332 E2.05338
G1 X75.174 Y100.308 E2.06392
G1 X75.345 Y101.211 E2.10139
G1 X77.596 Y104.158 F7800.000
G1 X78.499 Y104.557 E2.14160 F3840.000
G1 X78.411 Y104.810 E2.15251
G1 X77.905 Y104.682 E2.17378
G1 X77.467 Y104.396 E2.19511
G1 X77.571 Y104.204 E2.20399
G1 X77.763 Y105.007 F7800.000
G1 X76.256 Y104.023 E2.27732 F3840.000
G1 X75.150 Y102.602 E2.35066
G1 X74.566 Y100.900 E2.42399
G1 X74.566 Y99.100 E2.49733
G1 X75.150 Y97.398 E2.57066
G1 X76.256 Y95.977 E2.64400
G1 X77.763 Y94.993 E2.71733
G1 X79.508 Y94.551 E2.79067
G1 X80.484 Y94.632 E2.83059
G1 X80.484 Y94.525 E2.83495
G1 X83.439 Y94.525 E2.95533
G1 X84.695 Y95.438 E3.01861
G1 X90.525 Y98.034 E3.27864
G1 X96.768 Y99.361 E3.53866
G1 X103.150 Y99.361 E3.79870
G1 X109.393 Y98.034 E4.05872
G1 X115.223 Y95.438 E4.31875
G1 X116.480 Y94.525 E4.38203
G1 X119.434 Y94.525 E4.50241
G1 X119.434 Y94.545 E4.50322
G1 X121.301 Y94.700 E4.57956
G1 X122.950 Y95.423 E4.65289
G1 X124.274 Y96.642 E4.72623
G1 X125.131 Y98.225 E4.79956
G1 X125.427 Y100.000 E4.87290
G1 X125.131 Y101.775 E4.94623
G1 X124.274 Y103.358 E5.01957
G1 X122.950 Y104.577 E5.09290
G1 X121.301 Y105.300 E5.16624
G1 X119.434 Y105.455 E5.24258
G1 X119.434 Y105.475 E5.24339
G1 X80.484 Y105.475 E6.83035
G1 X80.484 Y105.368 E6.83471
G1 X79.508 Y105.449 E6.87463
G1 X77.814 Y105.020 E6.94583
G1 X77.620 Y105.332 F7800.000
G1 X76.016 Y104.284 E7.02392 F2688.000
G1 X74.838 Y102.771 E7.10202
G1 X74.216 Y100.958 E7.18011
G1 X74.216 Y99.042 E7.25821
G1 X74.838 Y97.229 E7.33630
G1 X76.016 Y95.716 E7.41440
G1 X77.620 Y94.668 E7.49249
G1 X79.478 Y94.197 E7.57058
G1 X80.134 Y94.252 E7.59740
G1 X80.134 Y94.175 E7.60052
G1 X83.552 Y94.175 E7.73979
G1 X84.871 Y95.133 E7.80621
G1 X90.634 Y97.699 E8.06324
G1 X96.805 Y99.011 E8.32027
G1 X103.113 Y99.011 E8.57730
G1 X109.284 Y97.699 E8.83433
G1 X115.047 Y95.133 E9.09136
G1 X116.366 Y94.175 E9.15778
G1 X119.784 Y94.175 E9.29705
G1 X119.784 Y94.223 E9.29899
G1 X121.388 Y94.356 E9.36458
G1 X123.144 Y95.126 E9.44268
G1 X124.554 Y96.424 E9.52077
G1 X125.466 Y98.109 E9.59887
G1 X125.782 Y100.000 E9.67696
G1 X125.466 Y101.891 E9.75506
G1 X124.554 Y103.576 E9.83315
G1 X123.144 Y104.874 E9.91125
G1 X121.388 Y105.644 E9.98934
G1 X119.784 Y105.777 E10.05493
G1 X119.784 Y105.825 E10.05687
G1 X80.134 Y105.825 E11.67236
G1 X80.134 Y105.748 E11.67548
G1 X79.478 Y105.803 E11.70230
G1 X77.671 Y105.345 E11.77825
G1 X77.601 Y104.983 F7800.000
G1 X82.298 Y104.887 F7800.000
G1 X82.253 Y104.842 E11.78097 F3840.000
G1 X82.335 Y104.405 E11.79996
G1 X82.817 Y104.887 E11.82907
G1 X83.336 Y104.887 E11.85126
G1 X82.657 Y104.207 E11.89231
G1 X82.979 Y104.010 E11.90844
G1 X83.855 Y104.887 E11.96143
G1 X84.375 Y104.887 E11.98362
G1 X83.301 Y103.813 E12.04854
G1 X83.622 Y103.615 E12.06467
G1 X84.894 Y104.887 E12.14153
G1 X85.413 Y104.887 E12.16372
G1 X83.816 Y103.290 E12.26024
G1 X84.010 Y102.964 E12.27643
G1 X85.932 Y104.887 E12.39262
G1 X86.452 Y104.887 E12.41481
G1 X84.204 Y102.639 E12.55067
G1 X84.398 Y102.313 E12.56686
G1 X86.971 Y104.887 E12.72240
G1 X87.490 Y104.887 E12.74459
G1 X84.591 Y101.988 E12.91980
G1 X84.785 Y101.662 E12.93599
G1 X88.009 Y104.887 E13.13087
G1 X88.529 Y104.887 E13.15306
G1 X84.896 Y101.254 E13.37262
G1 X84.923 Y100.761 E13.39371
G1 X89.048 Y104.887 E13.64305
G1 X89.567 Y104.887 E13.66525
G1 X84.949 Y100.269 E13.94437
G1 X84.976 Y99.776 E13.96546
G1 X90.086 Y104.887 E14.27438
G1 X90.605 Y104.887 E14.29657
G1 X85.002 Y99.283 E14.63526
G1 X84.794 Y98.556 E14.66758
G1 X91.125 Y104.887 E15.05022
G1 X91.644 Y104.887 E15.07241
G1 X84.355 Y97.598 E15.51297
G1 X85.094 Y96.260 F7800.000
G1 X93.721 Y104.887 E16.03442 F3840.000
G1 X94.240 Y104.887 E16.05661
G1 X86.030 Y96.676 E16.55287
G1 X86.966 Y97.093 F7800.000
G1 X94.759 Y104.887 E17.02394 F3840.000
G1 X95.279 Y104.887 E17.04613
G1 X87.902 Y97.510 E17.49201
G1 X88.838 Y97.927 F7800.000
G1 X95.798 Y104.887 E17.91271 F3840.000
G1 X96.317 Y104.887 E17.93490
G1 X89.774 Y98.343 E18.33041
G1 X90.601 Y98.651 F7800.000
G1 X96.836 Y104.887 E18.70728 F3840.000
G1 X97.356 Y104.887 E18.72947
G1 X91.261 Y98.792 E19.09788
G1 X91.920 Y98.932 E19.12669
G1 X97.875 Y104.887 E19.48662
G1 X98.394 Y104.887 E19.50882
G1 X92.579 Y99.072 E19.86028
G1 X93.239 Y99.212 E19.88909
G1 X98.913 Y104.887 E20.23208
G1 X99.432 Y104.887 E20.25427
G1 X93.898 Y99.352 E20.58878
G1 X94.558 Y99.492 E20.61760
G1 X99.952 Y104.887 E20.94364
G1 X100.471 Y104.887 E20.96583
G1 X95.217 Y99.633 E21.28340
G1 X95.876 Y99.773 E21.31222
G1 X100.990 Y104.887 E21.62132
G1 X101.509 Y104.887 E21.64351
G1 X96.536 Y99.913 E21.94414
G1 X97.091 Y99.949 E21.96793
G1 X102.029 Y104.887 E22.26637
G1 X102.548 Y104.887 E22.28856
G1 X97.610 Y99.949 E22.58700
G1 X98.130 Y99.949 E22.60919
G1 X103.067 Y104.887 E22.90763
G1 X103.586 Y104.887 E22.92982
G1 X98.649 Y99.949 E23.22826
G1 X99.168 Y99.949 E23.25045
G1 X104.106 Y104.887 E23.54889
G1 X104.625 Y104.887 E23.57109
G1 X99.687 Y99.949 E23.86952
G1 X100.207 Y99.949 E23.89172
G1 X105.144 Y104.887 E24.19016
G1 X105.663 Y104.887 E24.21235
G1 X100.726 Y99.949 E24.51079
G1 X101.245 Y99.949 E24.53298
G1 X106.183 Y104.887 E24.83142
G1 X106.702 Y104.887 E24.85361
G1 X101.764 Y99.949 E25.15205
G1 X102.284 Y99.949 E25.17424
G1 X107.221 Y104.887 E25.47268
G1 X107.740 Y104.887 E25.49488
G1 X102.803 Y99.949 E25.79331
G1 X103.303 Y99.930 E25.81470
G1 X108.259 Y104.887 E26.11430
G1 X108.779 Y104.887 E26.13650
G1 X103.731 Y99.839 E26.44160
G1 X104.159 Y99.748 E26.46031
G1 X109.298 Y104.887 E26.77092
G1 X109.817 Y104.887 E26.79312
G1 X104.587 Y99.657 E27.10923
G1 X105.016 Y99.566 E27.12794
G1 X110.336 Y104.887 E27.44955
G1 X110.856 Y104.887 E27.47174
G1 X105.444 Y99.475 E27.79886
G1 X105.872 Y99.384 E27.81757
G1 X111.375 Y104.887 E28.15018
G1 X111.894 Y104.887 E28.17238
G1 X106.300 Y99.293 E28.51049
G1 X106.728 Y99.202 E28.52920
G1 X112.413 Y104.887 E28.87282
G1 X112.933 Y104.887 E28.89502
G1 X107.157 Y99.111 E29.24414
G1 X107.585 Y99.020 E29.26285
G1 X113.452 Y104.887 E29.61747
G1 X113.971 Y104.887 E29.63966
G1 X108.013 Y98.929 E29.99979
G1 X108.441 Y98.838 E30.01850
G1 X114.490 Y104.887 E30.38412
G1 X115.010 Y104.887 E30.40632
G1 X108.870 Y98.747 E30.77745
G1 X109.298 Y98.656 E30.79616
G1 X115.529 Y104.887 E31.17279
G1 X116.048 Y104.887 E31.19498
G1 X109.702 Y98.540 E31.57857
G1 X110.061 Y98.380 E31.59538
G1 X116.567 Y104.887 E31.98865
G1 X117.086 Y104.887 E32.01084
G1 X110.420 Y98.220 E32.41377
G1 X110.780 Y98.060 E32.43058
G1 X115.355 Y102.635 E32.70712
G1 X115.128 Y101.889 E32.74046
G1 X111.139 Y97.900 E32.98155
G1 X111.498 Y97.740 E32.99836
G1 X114.900 Y101.143 E33.20401
G1 X114.673 Y100.397 E33.23735
G1 X111.857 Y97.581 E33.40756
G1 X112.217 Y97.421 E33.42437
G1 X114.710 Y99.914 E33.57511
G1 X114.793 Y99.478 E33.59409
G1 X112.576 Y97.261 E33.72812
G1 X112.935 Y97.101 E33.74493
G1 X114.876 Y99.042 E33.86226
G1 X114.959 Y98.606 E33.88124
G1 X113.295 Y96.941 E33.98187
G1 X113.654 Y96.781 E33.99868
G1 X115.042 Y98.169 E34.08260
G1 X115.142 Y97.749 E34.10105
G1 X114.013 Y96.621 E34.16926
G1 X114.372 Y96.461 E34.18607
G1 X115.371 Y97.460 E34.24645
G1 X115.601 Y97.170 E34.26225
G1 X114.732 Y96.301 E34.31481
G1 X115.091 Y96.141 E34.33162
G1 X115.831 Y96.881 E34.37636
G1 X116.061 Y96.592 E34.39216
G1 X115.450 Y95.981 E34.42907
G1 X115.762 Y95.774 E34.44508
G1 X116.058 Y96.069 E34.46296
G1 X116.418 Y95.910 E34.47979
G1 X116.063 Y95.555 E34.50125
G1 X116.364 Y95.337 E34.51714
G1 X116.751 Y95.724 E34.54053
G1 X116.980 Y95.434 E34.55632
G1 X116.664 Y95.118 E34.57543
G1 X117.179 Y95.113 E34.59742
G1 X117.210 Y95.145 E34.59932
G1 F1800.000 E33.59932
G92 E0
G1 X116.146 Y103.427 F7800.000
G1 E2.00000 F1800.000
G1 X116.637 Y103.918 E2.02972 F3840.000
G1 X93.202 Y104.887 F7800.000
G1 X83.910 Y95.595 E2.59135 F3840.000
G1 X82.909 Y95.113 F7800.000
G1 X92.682 Y104.887 E3.18208 F3840.000
G1 X92.163 Y104.887 E3.20427
G1 X82.399 Y95.123 E3.79444
G1 X82.058 Y95.129 F7800.000
G1 X82.038 Y95.109 E3.79518 F960.000
G1 X81.882 Y95.269 E3.80102 F960.000
G1 X81.721 Y95.109 E3.80694 F960.000
G1 X81.497 Y95.202 E3.81326 F960.000
G1 X81.404 Y95.109 E3.81668 F960.000
G1 X81.099 Y95.120 E3.82465 F960.000
G1 X81.113 Y95.134 E3.82516 F960.000
G1 X80.502 Y95.001 F7800.000
G1 X80.465 Y94.964 E3.82734 F960.000
G1 X80.502 Y95.001 F7800.000
G1 X80.232 Y95.234 E3.84211 F960.000
G1 X79.916 Y94.918 E3.86061 F960.000
G1 X79.625 Y95.130 E3.87552 F960.000
G1 X79.412 Y94.918 E3.88797 F960.000
G1 X79.244 Y95.252 E3.90348 F960.000
G1 X79.011 Y95.019 E3.91710 F960.000
