; generated by Slic3r 1.0.0RC2 on 2014-10-07 at 18:37:46

; layer_height = 0.35
; perimeters = 3
; top_solid_layers = 3
; bottom_solid_layers = 3
; fill_density = 0.4
; perimeter_speed = 80
; infill_speed = 80
; travel_speed = 130
; nozzle_diameter = 0.35
; filament_diameter = 1.75
; extrusion_multiplier = 0.9
; perimeters extrusion width = 0.35mm
; infill extrusion width = 0.37mm
; solid infill extrusion width = 0.37mm
; top infill extrusion width = 0.37mm

G21 ; set units to millimeters
M107
M190 S50 ; wait for bed temperature to be reached
M104 S238 ; set temperature
G28 ; home all axes
G1 Z5 F5000 ; lift nozzle
M109 S238 ; wait for temperature to be reached
G90 ; use absolute coordinates
G92 E0
M82 ; use absolute distances for extrusion
G1 F1800.000 E-1.00000
G92 E0
G1 Z0.350 F7800.000
G1 X71.351 Y90.660 F7800.000
G1 E2.00000 F1800.000
G1 X72.221 Y89.970 E2.05090 F3840.000
G1 X73.871 Y88.890 E2.14129
G1 X74.861 Y88.360 E2.19276
G1 X75.921 Y88.000 E2.24407
G1 X77.841 Y87.520 E2.33479
G1 X78.511 Y87.390 E2.36607
G1 X79.191 Y87.330 E2.39736
G1 X79.951 Y87.300 E2.43222
G1 X119.951 Y87.300 E4.26569
G1 X120.761 Y87.350 E4.30289
G1 X122.241 Y87.530 E4.37123
G1 X123.201 Y87.720 E4.41608
G1 X124.121 Y88.040 E4.46073
G1 X125.921 Y88.830 E4.55083
G1 X126.891 Y89.360 E4.60150
G1 X127.761 Y90.030 E4.65183
G1 X129.221 Y91.370 E4.74267
G1 X129.981 Y92.190 E4.79391
G1 X130.581 Y93.130 E4.84503
G1 X131.521 Y94.870 E4.93568
G1 X131.971 Y95.890 E4.98678
G1 X132.241 Y96.970 E5.03781
G1 X132.561 Y98.920 E5.12838
G1 X132.651 Y100.000 E5.17806
G1 X132.561 Y101.090 E5.22819
G1 X132.241 Y103.030 E5.31831
G1 X131.971 Y104.110 E5.36934
G1 X131.521 Y105.120 E5.42002
G1 X130.581 Y106.860 E5.51067
G1 X129.981 Y107.800 E5.56179
G1 X129.221 Y108.620 E5.61304
G1 X127.761 Y109.960 E5.70387
G1 X126.891 Y110.630 E5.75420
G1 X125.921 Y111.160 E5.80487
G1 X124.121 Y111.950 E5.89497
G1 X123.221 Y112.270 E5.93876
G1 X122.281 Y112.460 E5.98271
G1 X120.801 Y112.650 E6.05111
G1 X119.951 Y112.700 E6.09014
G1 X79.951 Y112.700 E7.92360
G1 X79.051 Y112.660 E7.96490
G1 X78.441 Y112.590 E7.99304
G1 X77.841 Y112.470 E8.02109
G1 X75.921 Y111.990 E8.11180
G1 X74.861 Y111.630 E8.16311
G1 X73.871 Y111.100 E8.21458
G1 X72.221 Y110.020 E8.30498
G1 X71.351 Y109.330 E8.35587
G1 X70.601 Y108.520 E8.40647
G1 X69.391 Y106.960 E8.49697
G1 X68.781 Y106.030 E8.54795
G1 X68.341 Y105.020 E8.59844
G1 X67.701 Y103.150 E8.68904
G1 X67.431 Y102.080 E8.73962
G1 X67.341 Y100.980 E8.79021
G1 X67.341 Y99.010 E8.88051
G1 X67.431 Y97.910 E8.93110
G1 X67.701 Y96.840 E8.98168
G1 X68.341 Y94.970 E9.07227
G1 X68.781 Y93.960 E9.12277
G1 X69.391 Y93.030 E9.17375
G1 X70.601 Y91.470 E9.26425
G1 X71.315 Y90.699 E9.31244
G1 X71.581 Y90.910 F7800.000
G1 X72.411 Y90.270 E9.36048 F3840.000
G1 X74.061 Y89.190 E9.45087
G1 X75.001 Y88.680 E9.49989
G1 X76.001 Y88.340 E9.54830
G1 X77.921 Y87.860 E9.63902
G1 X78.561 Y87.730 E9.66895
G1 X79.201 Y87.680 E9.69838
G1 X79.951 Y87.650 E9.73278
G1 X119.951 Y87.650 E11.56625
G1 X120.721 Y87.700 E11.60162
G1 X122.201 Y87.880 E11.66995
G1 X123.111 Y88.060 E11.71247
G1 X123.981 Y88.370 E11.75481
G1 X125.781 Y89.160 E11.84491
G1 X126.701 Y89.650 E11.89269
G1 X127.521 Y90.290 E11.94037
G1 X128.981 Y91.630 E12.03120
G1 X129.701 Y92.410 E12.07986
G1 X130.281 Y93.290 E12.12817
G1 X131.221 Y95.030 E12.21882
G1 X131.641 Y96.000 E12.26727
G1 X131.901 Y97.020 E12.31552
G1 X132.221 Y98.970 E12.40609
G1 X132.301 Y100.000 E12.45345
G1 X132.221 Y101.030 E12.50080
G1 X131.901 Y102.970 E12.59092
G1 X131.641 Y103.990 E12.63917
G1 X131.221 Y104.960 E12.68762
G1 X130.281 Y106.700 E12.77827
G1 X129.701 Y107.580 E12.82658
G1 X128.981 Y108.360 E12.87524
G1 X127.521 Y109.700 E12.96607
G1 X126.701 Y110.340 E13.01375
G1 X125.781 Y110.830 E13.06153
G1 X123.981 Y111.620 E13.15163
G1 X123.131 Y111.930 E13.19310
G1 X122.241 Y112.110 E13.23473
G1 X120.761 Y112.300 E13.30312
G1 X119.951 Y112.350 E13.34032
G1 X79.951 Y112.350 E15.17378
G1 X79.071 Y112.310 E15.21416
G1 X78.491 Y112.250 E15.24089
G1 X77.921 Y112.130 E15.26759
G1 X76.001 Y111.650 E15.35830
G1 X75.001 Y111.310 E15.40672
G1 X74.061 Y110.800 E15.45574
G1 X72.411 Y109.720 E15.54613
G1 X71.581 Y109.080 E15.59417
G1 X70.871 Y108.300 E15.64251
G1 X69.661 Y106.740 E15.73301
G1 X69.091 Y105.860 E15.78107
G1 X68.671 Y104.910 E15.82868
G1 X68.031 Y103.040 E15.91927
G1 X67.781 Y102.020 E15.96741
G1 X67.691 Y100.980 E16.01526
G1 X67.691 Y99.010 E16.10556
G1 X67.781 Y97.970 E16.15340
G1 X68.031 Y96.950 E16.20154
G1 X68.671 Y95.080 E16.29214
G1 X69.091 Y94.130 E16.33975
G1 X69.661 Y93.250 E16.38781
G1 X70.871 Y91.690 E16.47830
G1 X71.546 Y90.949 E16.52424
G1 F1800.000 E15.52424
G92 E0
G1 X77.584 Y96.130 F7800.000
G1 E2.00000 F1800.000
G1 X79.654 Y95.470 E2.09962 F3840.000
G1 X81.795 Y95.847 E2.19924
G1 X83.515 Y97.176 E2.29885
G1 X84.420 Y99.152 E2.39847
G1 X84.303 Y101.322 E2.49809
G1 X83.191 Y103.189 E2.59771
G1 X81.339 Y104.326 E2.69732
G1 X79.171 Y104.472 E2.79694
G1 X77.183 Y103.593 E2.89656
G1 X75.831 Y101.891 E2.99618
G1 X75.425 Y99.756 E3.09580
G1 X76.058 Y97.677 E3.19542
G1 X77.547 Y96.167 E3.29263
G1 X77.773 Y96.437 F7800.000
G1 X79.679 Y95.829 E3.38434 F3840.000
G1 X81.649 Y96.177 E3.47605
G1 X83.232 Y97.400 E3.56776
G1 X84.066 Y99.219 E3.65947
G1 X83.958 Y101.217 E3.75118
G1 X82.935 Y102.936 E3.84289
G1 X81.229 Y103.983 E3.93459
G1 X79.233 Y104.117 E4.02630
G1 X77.403 Y103.308 E4.11801
G1 X76.159 Y101.741 E4.20972
G1 X75.785 Y99.776 E4.30143
G1 X76.367 Y97.861 E4.39314
G1 X77.736 Y96.475 E4.48245
G1 X77.791 Y96.088 F7800.000
G1 F1800.000 E3.48245
G92 E0
G1 X115.425 Y100.244 F7800.000
G1 E2.00000 F1800.000
G1 X115.831 Y98.109 E2.09962 F3840.000
G1 X115.968 Y97.937 E2.10969
G1 X117.183 Y96.407 E2.19924
G1 X119.171 Y95.528 E2.29885
G1 X121.339 Y95.674 E2.39847
G1 X123.191 Y96.811 E2.49809
G1 X124.303 Y98.678 E2.59771
G1 X124.420 Y100.848 E2.69733
G1 X123.515 Y102.824 E2.79695
G1 X121.795 Y104.153 E2.89656
G1 X119.655 Y104.530 E2.99618
G1 X117.584 Y103.870 E3.09580
G1 X116.058 Y102.323 E3.19542
G1 X115.440 Y100.294 E3.29263
G1 X115.785 Y100.224 F7800.000
G1 X116.159 Y98.259 E3.38434 F3840.000
G1 X116.242 Y98.154 E3.39046
G1 X117.403 Y96.692 E3.47605
G1 X119.233 Y95.883 E3.56776
G1 X121.229 Y96.017 E3.65946
G1 X122.935 Y97.064 E3.75117
G1 X123.958 Y98.783 E3.84288
G1 X124.066 Y100.781 E3.93459
G1 X123.232 Y102.600 E4.02630
G1 X121.649 Y103.823 E4.11801
G1 X119.679 Y104.171 E4.20972
G1 X117.773 Y103.563 E4.30143
G1 X116.367 Y102.139 E4.39314
G1 X115.800 Y100.275 E4.48244
G1 X115.487 Y100.041 F7800.000
G1 X115.126 Y99.942 F7800.000
G1 X115.065 Y100.263 E4.49745 F3840.000
G1 X115.748 Y102.507 E4.60497
G1 X117.395 Y104.177 E4.71250
G1 X119.692 Y104.910 E4.82298
G1 X119.672 Y105.084 E4.83103
G1 X119.180 Y105.125 E4.85365
G1 X80.834 Y105.125 E6.61131
G1 X80.834 Y104.711 E6.63030
G1 X81.449 Y104.669 E6.65853
G1 X83.448 Y103.442 E6.76605
G1 X84.648 Y101.427 E6.87358
G1 X84.774 Y99.084 E6.98111
G1 X83.797 Y96.952 E7.08863
G1 X81.941 Y95.517 E7.19616
G1 X80.834 Y95.322 E7.24766
G1 X80.834 Y94.875 E7.26815
G1 X83.325 Y94.875 E7.38232
G1 X84.519 Y95.743 E7.44999
G1 X90.417 Y98.368 E7.74589
G1 X96.731 Y99.711 E8.04179
G1 X103.187 Y99.711 E8.33770
G1 X109.501 Y98.368 E8.63361
G1 X115.399 Y95.743 E8.92951
G1 X116.593 Y94.875 E8.99718
G1 X119.380 Y94.875 E9.12490
G1 X119.414 Y95.038 E9.13253
G1 X116.962 Y96.122 E9.25540
G1 X115.503 Y97.959 E9.36293
G1 X115.136 Y99.890 E9.45304
G1 F1800.000 E8.45304
G92 E0
G1 X75.355 Y101.263 F7800.000
G1 E2.00000 F1800.000
G1 X75.085 Y101.335 E2.01281 F3840.000
G1 X74.916 Y100.842 E2.03670
G1 X74.916 Y100.332 E2.06005
G1 X75.174 Y100.308 E2.07191
G1 X75.345 Y101.211 E2.11407
G1 X77.596 Y104.158 F7800.000
G1 X78.499 Y104.557 E2.15931 F3840.000
G1 X78.411 Y104.810 E2.17158
G1 X77.905 Y104.682 E2.19550
G1 X77.467 Y104.396 E2.21950
G1 X77.571 Y104.204 E2.22949
G1 X77.763 Y105.007 F7800.000
G1 X76.256 Y104.023 E2.31199 F3840.000
G1 X75.150 Y102.602 E2.39449
G1 X74.566 Y100.900 E2.47699
G1 X74.566 Y99.100 E2.55949
G1 X75.150 Y97.398 E2.64200
G1 X76.256 Y95.977 E2.72450
G1 X77.763 Y94.993 E2.80700
G1 X79.508 Y94.551 E2.88950
G1 X80.484 Y94.632 E2.93442
G1 X80.484 Y94.525 E2.93932
G1 X83.439 Y94.525 E3.07474
G1 X84.695 Y95.438 E3.14593
G1 X90.525 Y98.034 E3.43846
G1 X96.768 Y99.361 E3.73099
G1 X103.150 Y99.361 E4.02353
G1 X109.393 Y98.034 E4.31606
G1 X115.223 Y95.438 E4.60859
G1 X116.480 Y94.525 E4.67979
G1 X119.434 Y94.525 E4.81521
G1 X119.434 Y94.545 E4.81612
G1 X121.301 Y94.700 E4.90200
G1 X122.950 Y95.423 E4.98451
G1 X124.274 Y96.642 E5.06701
G1 X125.131 Y98.225 E5.14951
G1 X125.427 Y100.000 E5.23201
G1 X125.131 Y101.775 E5.31451
G1 X124.274 Y103.358 E5.39702
G1 X122.950 Y104.577 E5.47952
G1 X121.301 Y105.300 E5.56202
G1 X119.434 Y105.455 E5.64790
G1 X119.434 Y105.475 E5.64881
G1 X80.484 Y105.475 E7.43415
G1 X80.484 Y105.368 E7.43905
G1 X79.508 Y105.449 E7.48396
G1 X77.814 Y105.020 E7.56406
G1 X77.620 Y105.332 F7800.000
G1 X76.016 Y104.284 E7.65191 F2688.000
G1 X74.838 Y102.771 E7.73977
G1 X74.216 Y100.958 E7.82763
G1 X74.216 Y99.042 E7.91548
G1 X74.838 Y97.229 E8.00334
G1 X76.016 Y95.716 E8.09119
G1 X77.620 Y94.668 E8.17905
G1 X79.478 Y94.197 E8.26691
G1 X80.134 Y94.252 E8.29707
G1 X80.134 Y94.175 E8.30059
G1 X83.552 Y94.175 E8.45727
G1 X84.871 Y95.133 E8.53198
G1 X90.634 Y97.699 E8.82114
G1 X96.805 Y99.011 E9.11030
G1 X103.113 Y99.011 E9.39947
G1 X109.284 Y97.699 E9.68862
G1 X115.047 Y95.133 E9.97778
G1 X116.366 Y94.175 E10.05250
G1 X119.784 Y94.175 E10.20918
G1 X119.784 Y94.223 E10.21137
G1 X121.388 Y94.356 E10.28516
G1 X123.144 Y95.126 E10.37301
G1 X124.554 Y96.424 E10.46087
G1 X125.466 Y98.109 E10.54873
G1 X125.782 Y100.000 E10.63658
G1 X125.466 Y101.891 E10.72444
G1 X124.554 Y103.576 E10.81230
G1 X123.144 Y104.874 E10.90015
G1 X121.388 Y105.644 E10.98801
G1 X119.784 Y105.777 E11.06180
G1 X119.784 Y105.825 E11.06398
G1 X80.134 Y105.825 E12.88141
G1 X80.134 Y105.748 E12.88492
G1 X79.478 Y105.803 E12.91508
G1 X77.671 Y105.345 E13.00053
G1 X77.601 Y104.983 F7800.000
G1 X82.298 Y104.886 F7800.000
G1 X82.253 Y104.842 E13.00358 F3840.000
G1 X82.335 Y104.405 E13.02487
G1 X82.816 Y104.886 E13.05752
G1 X83.334 Y104.886 E13.08237
G1 X82.656 Y104.208 E13.12839
G1 X82.977 Y104.011 E13.14646
G1 X83.852 Y104.886 E13.20585
G1 X84.370 Y104.886 E13.23071
G1 X83.298 Y103.814 E13.30346
G1 X83.619 Y103.617 E13.32154
G1 X84.888 Y104.886 E13.40766
G1 X85.406 Y104.886 E13.43252
G1 X83.814 Y103.294 E13.54058
G1 X84.007 Y102.969 E13.55871
G1 X85.924 Y104.886 E13.68881
G1 X86.443 Y104.886 E13.71367
G1 X84.201 Y102.644 E13.86579
G1 X84.394 Y102.320 E13.88393
G1 X86.961 Y104.886 E14.05809
G1 X87.479 Y104.886 E14.08295
G1 X84.587 Y101.995 E14.27915
G1 X84.781 Y101.670 E14.29729
G1 X87.997 Y104.886 E14.51552
G1 X88.515 Y104.886 E14.54038
G1 X84.895 Y101.267 E14.78598
G1 X84.922 Y100.775 E14.80961
G1 X89.033 Y104.886 E15.08857
G1 X89.551 Y104.886 E15.11343
G1 X84.948 Y100.284 E15.42575
G1 X84.975 Y99.792 E15.44938
G1 X90.069 Y104.886 E15.79506
G1 X90.587 Y104.886 E15.81992
G1 X85.001 Y99.300 E16.19897
G1 X84.811 Y98.591 E16.23419
G1 X91.106 Y104.886 E16.66133
G1 X91.624 Y104.886 E16.68619
G1 X84.372 Y97.635 E17.17821
G1 X84.615 Y96.323 F7800.000
G1 X93.178 Y104.886 E17.75924 F3840.000
G1 X93.696 Y104.886 E17.78410
G1 X85.170 Y96.360 E18.36263
G1 X85.984 Y96.656 F7800.000
G1 X94.214 Y104.886 E18.92112 F3840.000
G1 X94.732 Y104.886 E18.94597
G1 X86.917 Y97.072 E19.47624
G1 X87.851 Y97.487 F7800.000
G1 X95.251 Y104.886 E19.97829 F3840.000
G1 X95.769 Y104.886 E20.00315
G1 X88.785 Y97.903 E20.47699
G1 X89.719 Y98.319 F7800.000
G1 X96.287 Y104.886 E20.92262 F3840.000
G1 X96.805 Y104.886 E20.94748
G1 X90.561 Y98.643 E21.37111
G1 X91.219 Y98.783 E21.40339
G1 X97.323 Y104.886 E21.81754
G1 X97.841 Y104.886 E21.84240
G1 X91.877 Y98.923 E22.24706
G1 X92.535 Y99.063 E22.27933
G1 X98.359 Y104.886 E22.67450
G1 X98.877 Y104.886 E22.69936
G1 X93.193 Y99.202 E23.08504
G1 X93.851 Y99.342 E23.11731
G1 X99.395 Y104.886 E23.49350
G1 X99.914 Y104.886 E23.51836
G1 X94.509 Y99.482 E23.88506
G1 X95.167 Y99.622 E23.91733
G1 X100.432 Y104.886 E24.27454
G1 X100.950 Y104.886 E24.29940
G1 X95.825 Y99.762 E24.64712
G1 X96.483 Y99.902 E24.67939
G1 X101.468 Y104.886 E25.01762
G1 X101.986 Y104.886 E25.04248
G1 X97.049 Y99.949 E25.37750
G1 X97.567 Y99.949 E25.40235
G1 X102.504 Y104.886 E25.73737
G1 X103.022 Y104.886 E25.76223
G1 X98.085 Y99.949 E26.09724
G1 X98.603 Y99.949 E26.12210
G1 X103.540 Y104.886 E26.45711
G1 X104.058 Y104.886 E26.48197
G1 X99.121 Y99.949 E26.81699
G1 X99.639 Y99.949 E26.84184
G1 X104.577 Y104.886 E27.17686
G1 X105.095 Y104.886 E27.20172
G1 X100.157 Y99.949 E27.53673
G1 X100.675 Y99.949 E27.56159
G1 X105.613 Y104.886 E27.89660
G1 X106.131 Y104.886 E27.92146
G1 X101.194 Y99.949 E28.25647
G1 X101.712 Y99.949 E28.28133
G1 X106.649 Y104.886 E28.61635
G1 X107.167 Y104.886 E28.64121
G1 X102.230 Y99.949 E28.97622
G1 X102.748 Y99.949 E29.00108
G1 X107.685 Y104.886 E29.33609
G1 X108.203 Y104.886 E29.36095
G1 X103.257 Y99.940 E29.69661
G1 X103.684 Y99.849 E29.71757
G1 X108.721 Y104.886 E30.05938
G1 X109.240 Y104.886 E30.08424
G1 X104.111 Y99.758 E30.43222
G1 X104.538 Y99.667 E30.45318
G1 X109.758 Y104.886 E30.80733
G1 X110.276 Y104.886 E30.83219
G1 X104.966 Y99.576 E31.19249
G1 X105.393 Y99.486 E31.21345
G1 X110.794 Y104.886 E31.57992
G1 X111.312 Y104.886 E31.60478
G1 X105.820 Y99.395 E31.97741
G1 X106.248 Y99.304 E31.99837
G1 X111.830 Y104.886 E32.37717
G1 X112.348 Y104.886 E32.40203
G1 X106.675 Y99.213 E32.78699
G1 X107.102 Y99.122 E32.80794
G1 X112.866 Y104.886 E33.19907
G1 X113.385 Y104.886 E33.22392
G1 X107.529 Y99.031 E33.62121
G1 X107.957 Y98.941 E33.64217
G1 X113.903 Y104.886 E34.04561
G1 X114.421 Y104.886 E34.07047
G1 X108.384 Y98.850 E34.48008
G1 X108.811 Y98.759 E34.50104
G1 X114.939 Y104.886 E34.91681
G1 X115.457 Y104.886 E34.94167
G1 X109.239 Y98.668 E35.36361
G1 X109.651 Y98.563 E35.38404
G1 X115.975 Y104.886 E35.81313
G1 X116.493 Y104.886 E35.83799
G1 X110.010 Y98.403 E36.27790
G1 X110.368 Y98.244 E36.29673
G1 X117.011 Y104.886 E36.74748
G1 X116.397 Y103.754 F7800.000
G1 X110.727 Y98.084 E37.13222 F3840.000
G1 X111.085 Y97.924 E37.15105
G1 X115.161 Y102.000 E37.42762
G1 X114.935 Y101.256 E37.46497
G1 X111.444 Y97.765 E37.70183
G1 X111.802 Y97.605 E37.72066
G1 X114.708 Y100.511 E37.91783
G1 X114.698 Y99.982 E37.94321
G1 X112.161 Y97.445 E38.11532
G1 X112.519 Y97.286 E38.13415
G1 X114.780 Y99.547 E38.28756
G1 X114.863 Y99.111 E38.30883
G1 X112.878 Y97.126 E38.44353
G1 X113.236 Y96.967 E38.46236
G1 X114.946 Y98.676 E38.57835
G1 X115.029 Y98.241 E38.59962
G1 X113.595 Y96.807 E38.69690
G1 X113.953 Y96.647 E38.71573
G1 X115.111 Y97.806 E38.79431
G1 X115.333 Y97.509 E38.81208
G1 X114.312 Y96.488 E38.88134
G1 X114.670 Y96.328 E38.90017
G1 X115.562 Y97.220 E38.96067
G1 X115.791 Y96.931 E38.97836
G1 X115.029 Y96.169 E39.03010
G1 X115.387 Y96.009 E39.04893
G1 X116.021 Y96.642 E39.09190
G1 X116.250 Y96.354 E39.10960
G1 X115.709 Y95.812 E39.14632
G1 X116.009 Y95.594 E39.16412
G1 X116.479 Y96.065 E39.19604
G1 X116.713 Y95.780 E39.21371
G1 X116.309 Y95.376 E39.24109
G1 X116.609 Y95.158 E39.25889
G1 X117.072 Y95.621 E39.29030
G1 X117.431 Y95.462 E39.30914
G1 X117.082 Y95.114 E39.33281
G1 X117.601 Y95.114 E39.35767
G1 X117.643 Y95.155 E39.36052
G1 X92.660 Y104.886 F7800.000
G1 X82.887 Y95.114 E40.02365 F3840.000
G1 X82.389 Y95.133 E40.04757
G1 X92.142 Y104.886 E40.70935
G1 X81.915 Y104.713 F7800.000
G1 X81.875 Y104.674 E40.71195 F960.000
G1 X81.574 Y104.880 E40.72914 F960.000
G1 X81.592 Y104.898 E40.73033 F960.000
G1 X80.506 Y104.757 F7800.000
G1 X80.463 Y104.713 E40.73391 F960.000
G1 X80.506 Y104.757 F7800.000
G1 X80.183 Y105.064 E40.76004 F960.000
G1 X79.871 Y104.753 E40.78579 F960.000
G1 X79.599 Y105.113 E40.81216 F960.000
G1 X79.280 Y104.793 E40.83862 F960.000
G1 X78.734 Y104.879 E40.87091 F960.000
G1 X78.783 Y104.927 E40.87492 F960.000
G1 X77.294 Y104.020 F7800.000
G1 X77.265 Y103.991 E40.87697 F960.000
G1 X76.562 Y103.827 F7800.000
G1 X76.387 Y103.653 E40.88931 F960.000
G1 X76.348 Y103.074 E40.91828 F960.000
