; generated by Slic3r 1.0.0RC2 on 2014-10-07 at 04:59:52

; layer_height = 0.35
; perimeters = 3
; top_solid_layers = 3
; bottom_solid_layers = 3
; fill_density = 0.4
; perimeter_speed = 80
; infill_speed = 80
; travel_speed = 130
; nozzle_diameter = 0.35
; filament_diameter = 1.75
; extrusion_multiplier = 0.8
; perimeters extrusion width = 0.35mm
; infill extrusion width = 0.37mm
; solid infill extrusion width = 0.37mm
; top infill extrusion width = 0.37mm

G21 ; set units to millimeters
M107
M190 S50 ; wait for bed temperature to be reached
M104 S235 ; set temperature
G28 ; home all axes
G1 Z5 F5000 ; lift nozzle
M109 S235 ; wait for temperature to be reached
G90 ; use absolute coordinates
G92 E0
M82 ; use absolute distances for extrusion
G1 F1800.000 E-1.00000
G92 E0
G1 Z0.350 F7800.000
G1 X20.445 Y41.659 F7800.000
G1 E2.00000 F1800.000
G1 X21.695 Y41.279 E2.05323 F3840.000
G1 X23.005 Y41.149 E2.10687
G1 X64.215 Y41.149 E3.78591
G1 X144.415 Y43.609 E7.05509
G1 X145.885 Y43.819 E7.11559
G1 X147.285 Y44.359 E7.17673
G1 X176.285 Y59.359 E8.50700
G1 X177.425 Y60.099 E8.56237
G1 X178.385 Y61.059 E8.61769
G1 X179.135 Y62.199 E8.67329
G1 X179.645 Y63.459 E8.72867
G1 X179.885 Y64.799 E8.78414
G1 X183.675 Y114.069 E10.79751
G1 X183.685 Y114.929 E10.83255
G1 X182.045 Y146.499 E12.12056
G1 X181.965 Y147.269 E12.15210
G1 X181.635 Y149.209 E12.23228
G1 X181.355 Y150.269 E12.27695
G1 X180.915 Y151.269 E12.32146
G1 X179.975 Y153.009 E12.40204
G1 X179.375 Y153.939 E12.44713
G1 X178.635 Y154.749 E12.49183
G1 X177.185 Y156.089 E12.57228
G1 X176.295 Y156.779 E12.61816
G1 X175.315 Y157.309 E12.66355
G1 X173.505 Y158.099 E12.74402
G1 X172.615 Y158.419 E12.78255
G1 X171.685 Y158.599 E12.82115
G1 X170.215 Y158.789 E12.88154
G1 X169.355 Y158.849 E12.91666
G1 X129.355 Y158.849 E14.54641
G1 X128.585 Y158.819 E14.57781
G1 X127.885 Y158.759 E14.60643
G1 X127.195 Y158.619 E14.63512
G1 X125.285 Y158.129 E14.71546
G1 X124.245 Y157.769 E14.76030
G1 X123.295 Y157.259 E14.80423
G1 X121.585 Y156.149 E14.88729
G1 X19.305 Y88.439 E19.88497
G1 X18.285 Y87.599 E19.93881
G1 X17.445 Y86.589 E19.99233
G1 X16.815 Y85.419 E20.04647
G1 X16.435 Y84.159 E20.10010
G1 X16.305 Y82.849 E20.15373
G1 X16.305 Y47.849 E21.57976
G1 X16.435 Y46.539 E21.63340
G1 X16.815 Y45.289 E21.68663
G1 X17.435 Y44.129 E21.74022
G1 X18.265 Y43.109 E21.79380
G1 X19.285 Y42.279 E21.84738
G1 X20.398 Y41.684 E21.89883
G1 X20.575 Y41.979 F7800.000
G1 X21.765 Y41.619 E21.94948 F3840.000
G1 X23.005 Y41.499 E22.00024
G1 X64.195 Y41.499 E23.67847
G1 X144.395 Y43.959 E26.94765
G1 X145.805 Y44.159 E27.00567
G1 X147.125 Y44.669 E27.06333
G1 X176.125 Y59.669 E28.39360
G1 X177.205 Y60.379 E28.44626
G1 X178.115 Y61.279 E28.49840
G1 X178.825 Y62.359 E28.55106
G1 X179.305 Y63.549 E28.60334
G1 X179.535 Y64.819 E28.65593
G1 X183.325 Y114.089 E30.66930
G1 X183.335 Y114.909 E30.70271
G1 X181.695 Y146.479 E31.99073
G1 X181.615 Y147.209 E32.02065
G1 X181.285 Y149.149 E32.10082
G1 X181.025 Y150.159 E32.14332
G1 X180.615 Y151.109 E32.18548
G1 X179.675 Y152.849 E32.26605
G1 X179.105 Y153.719 E32.30843
G1 X178.395 Y154.489 E32.35110
G1 X176.945 Y155.829 E32.43155
G1 X176.105 Y156.489 E32.47507
G1 X175.175 Y156.989 E32.51809
G1 X173.365 Y157.779 E32.59856
G1 X172.515 Y158.079 E32.63528
G1 X171.635 Y158.259 E32.67188
G1 X170.165 Y158.449 E32.73227
G1 X169.355 Y158.499 E32.76534
G1 X129.355 Y158.499 E34.39508
G1 X128.605 Y158.469 E34.42567
G1 X127.935 Y158.409 E34.45307
G1 X127.275 Y158.279 E34.48048
G1 X125.365 Y157.789 E34.56082
G1 X124.395 Y157.449 E34.60270
G1 X123.485 Y156.959 E34.64481
G1 X121.775 Y155.849 E34.72787
G1 X19.495 Y88.139 E39.72555
G1 X18.535 Y87.359 E39.77595
G1 X17.735 Y86.389 E39.82718
G1 X17.145 Y85.289 E39.87804
G1 X16.775 Y84.089 E39.92920
G1 X16.655 Y82.849 E39.97996
G1 X16.655 Y47.849 E41.40599
G1 X16.775 Y46.609 E41.45674
G1 X17.135 Y45.419 E41.50740
G1 X17.725 Y44.319 E41.55826
G1 X18.515 Y43.359 E41.60891
G1 X19.475 Y42.569 E41.65957
G1 X20.528 Y42.004 E41.70829
G1 F1800.000 E40.70829
G92 E0
G1 X125.454 Y143.828 F7800.000
G1 E2.00000 F1800.000
G1 X126.980 Y142.281 E2.08855 F3840.000
G1 X129.051 Y141.620 E2.17710
G1 X131.191 Y141.998 E2.26565
G1 X132.911 Y143.327 E2.35420
G1 X133.816 Y145.302 E2.44275
G1 X133.699 Y147.473 E2.53130
G1 X132.588 Y149.340 E2.61985
G1 X130.735 Y150.477 E2.70839
G1 X128.567 Y150.623 E2.79694
G1 X126.579 Y149.744 E2.88549
G1 X125.227 Y148.042 E2.97404
G1 X124.821 Y145.907 E3.06259
G1 X125.438 Y143.878 E3.14900
G1 X125.764 Y144.012 F7800.000
G1 X127.169 Y142.588 E3.23052 F3840.000
G1 X129.075 Y141.980 E3.31204
G1 X131.045 Y142.327 E3.39356
G1 X132.629 Y143.551 E3.47508
G1 X133.462 Y145.370 E3.55660
G1 X133.355 Y147.368 E3.63812
G1 X132.331 Y149.087 E3.71964
G1 X130.626 Y150.133 E3.80116
G1 X128.629 Y150.268 E3.88268
G1 X126.799 Y149.459 E3.96420
G1 X125.555 Y147.892 E4.04572
G1 X125.181 Y145.926 E4.12724
G1 X125.748 Y144.062 E4.20662
G1 X125.618 Y143.694 F7800.000
G1 F1800.000 E3.20662
G92 E0
G1 X164.821 Y146.395 F7800.000
G1 E2.00000 F1800.000
G1 X165.227 Y144.259 E2.08855 F3840.000
G1 X165.419 Y144.017 E2.10114
G1 X166.579 Y142.558 E2.17710
G1 X168.567 Y141.679 E2.26565
G1 X170.735 Y141.825 E2.35420
G1 X172.588 Y142.962 E2.44274
G1 X173.699 Y144.829 E2.53129
G1 X173.816 Y146.999 E2.61985
G1 X172.911 Y148.975 E2.70840
G1 X171.191 Y150.304 E2.79694
G1 X169.051 Y150.681 E2.88549
G1 X166.980 Y150.021 E2.97404
G1 X165.454 Y148.474 E3.06259
G1 X164.836 Y146.445 E3.14900
G1 X165.181 Y146.375 F7800.000
G1 X165.555 Y144.410 E3.23052 F3840.000
G1 X165.694 Y144.235 E3.23960
G1 X166.799 Y142.843 E3.31204
G1 X168.629 Y142.034 E3.39356
G1 X170.626 Y142.168 E3.47508
G1 X172.331 Y143.215 E3.55660
G1 X173.355 Y144.934 E3.63812
G1 X173.462 Y146.932 E3.71964
G1 X172.629 Y148.751 E3.80116
G1 X171.045 Y149.974 E3.88268
G1 X169.075 Y150.322 E3.96420
G1 X167.169 Y149.714 E4.04572
G1 X165.764 Y148.289 E4.12724
G1 X165.196 Y146.425 E4.20662
G1 X164.883 Y146.192 F7800.000
G1 X164.543 Y145.984 F7800.000
G1 X164.461 Y146.414 E4.22444 F3840.000
G1 X165.144 Y148.658 E4.32002
G1 X166.792 Y150.328 E4.41560
G1 X169.088 Y151.061 E4.51381
G1 X169.068 Y151.235 E4.52096
G1 X168.576 Y151.276 E4.54107
G1 X130.230 Y151.276 E6.10343
G1 X130.230 Y150.861 E6.12031
G1 X130.845 Y150.820 E6.14541
G1 X132.844 Y149.593 E6.24098
G1 X134.044 Y147.577 E6.33656
G1 X134.170 Y145.235 E6.43214
G1 X133.193 Y143.102 E6.52772
G1 X131.337 Y141.668 E6.62330
G1 X130.230 Y141.473 E6.66908
G1 X130.230 Y141.026 E6.68729
G1 X132.721 Y141.026 E6.78878
G1 X133.915 Y141.893 E6.84892
G1 X139.813 Y144.519 E7.11195
G1 X146.127 Y145.861 E7.37498
G1 X152.583 Y145.861 E7.63801
G1 X158.898 Y144.519 E7.90103
G1 X164.795 Y141.893 E8.16406
G1 X165.990 Y141.026 E8.22420
G1 X168.776 Y141.026 E8.33773
G1 X168.810 Y141.189 E8.34452
G1 X166.359 Y142.272 E8.45373
G1 X164.900 Y144.109 E8.54932
G1 X164.553 Y145.932 E8.62493
G1 F1800.000 E7.62493
G92 E0
G1 X124.751 Y147.414 F7800.000
G1 E2.00000 F1800.000
G1 X124.481 Y147.485 E2.01138 F3840.000
G1 X124.312 Y146.992 E2.03262
G1 X124.312 Y146.483 E2.05338
G1 X124.570 Y146.459 E2.06392
G1 X124.742 Y147.362 E2.10139
G1 X126.992 Y150.309 F7800.000
G1 X127.895 Y150.708 E2.14160 F3840.000
G1 X127.807 Y150.961 E2.15251
G1 X127.301 Y150.833 E2.17377
G1 X126.863 Y150.547 E2.19511
G1 X126.967 Y150.355 E2.20398
G1 X127.159 Y151.158 F7800.000
G1 X125.652 Y150.174 E2.27731 F3840.000
G1 X124.547 Y148.753 E2.35065
G1 X123.962 Y147.051 E2.42399
G1 X123.962 Y145.251 E2.49732
G1 X124.547 Y143.548 E2.57066
G1 X125.652 Y142.128 E2.64399
G1 X127.159 Y141.144 E2.71733
G1 X128.904 Y140.702 E2.79066
G1 X129.880 Y140.783 E2.83059
G1 X129.880 Y140.676 E2.83494
G1 X132.835 Y140.676 E2.95532
G1 X134.091 Y141.589 E3.01860
G1 X139.922 Y144.185 E3.27863
G1 X146.164 Y145.511 E3.53865
G1 X152.546 Y145.511 E3.79869
G1 X158.789 Y144.185 E4.05871
G1 X164.619 Y141.589 E4.31874
G1 X165.876 Y140.676 E4.38202
G1 X168.830 Y140.676 E4.50240
G1 X168.830 Y140.696 E4.50321
G1 X170.698 Y140.850 E4.57955
G1 X172.346 Y141.573 E4.65289
G1 X173.670 Y142.792 E4.72622
G1 X174.527 Y144.375 E4.79956
G1 X174.823 Y146.151 E4.87289
G1 X174.527 Y147.926 E4.94623
G1 X173.670 Y149.509 E5.01956
G1 X172.346 Y150.728 E5.09290
G1 X170.698 Y151.451 E5.16623
G1 X168.830 Y151.606 E5.24257
G1 X168.830 Y151.626 E5.24338
G1 X129.880 Y151.626 E6.83035
G1 X129.880 Y151.519 E6.83470
G1 X128.904 Y151.600 E6.87462
G1 X127.210 Y151.171 E6.94582
G1 X127.016 Y151.483 F7800.000
G1 X125.412 Y150.435 E7.02391 F2688.000
G1 X124.235 Y148.922 E7.10201
G1 X123.612 Y147.109 E7.18010
G1 X123.612 Y145.192 E7.25820
G1 X124.235 Y143.380 E7.33629
G1 X125.412 Y141.867 E7.41439
G1 X127.016 Y140.819 E7.49248
G1 X128.874 Y140.348 E7.57058
G1 X129.530 Y140.402 E7.59739
G1 X129.530 Y140.326 E7.60051
G1 X132.949 Y140.326 E7.73978
G1 X134.267 Y141.284 E7.80620
G1 X140.030 Y143.850 E8.06323
G1 X146.201 Y145.161 E8.32026
G1 X152.510 Y145.161 E8.57729
G1 X158.680 Y143.850 E8.83432
G1 X164.443 Y141.284 E9.09135
G1 X165.762 Y140.326 E9.15777
G1 X169.180 Y140.326 E9.29704
G1 X169.180 Y140.373 E9.29898
G1 X170.785 Y140.506 E9.36458
G1 X172.540 Y141.276 E9.44267
G1 X173.950 Y142.574 E9.52076
G1 X174.862 Y144.260 E9.59886
G1 X175.178 Y146.151 E9.67695
G1 X174.862 Y148.041 E9.75505
G1 X173.950 Y149.727 E9.83314
G1 X172.540 Y151.025 E9.91124
G1 X170.785 Y151.795 E9.98933
G1 X169.180 Y151.928 E10.05492
G1 X169.180 Y151.976 E10.05686
G1 X129.530 Y151.976 E11.67235
G1 X129.530 Y151.899 E11.67547
G1 X128.875 Y151.953 E11.70229
G1 X127.067 Y151.496 E11.77824
G1 X126.997 Y151.133 F7800.000
G1 F1800.000 E10.77824
G92 E0
G1 X130.207 Y119.052 F7800.000
G1 E2.00000 F1800.000
G1 X128.219 Y118.174 E2.08855 F3840.000
G1 X126.867 Y116.472 E2.17710
G1 X126.461 Y114.337 E2.26565
G1 X127.094 Y112.258 E2.35420
G1 X127.244 Y112.106 E2.36288
G1 X128.620 Y110.710 E2.44275
G1 X130.691 Y110.050 E2.53129
G1 X132.831 Y110.427 E2.61984
G1 X133.047 Y110.594 E2.63097
G1 X134.551 Y111.756 E2.70839
G1 X135.456 Y113.732 E2.79694
G1 X135.339 Y115.902 E2.88549
G1 X134.228 Y117.770 E2.97404
G1 X132.375 Y118.906 E3.06259
G1 X130.259 Y119.049 E3.14900
G1 X130.269 Y118.697 F7800.000
G1 X128.439 Y117.888 E3.23052 F3840.000
G1 X127.195 Y116.322 E3.31204
G1 X126.821 Y114.356 E3.39356
G1 X127.404 Y112.442 E3.47508
G1 X127.493 Y112.352 E3.48025
G1 X128.809 Y111.018 E3.55660
G1 X130.715 Y110.410 E3.63812
G1 X132.685 Y110.757 E3.71964
G1 X132.762 Y110.817 E3.72361
G1 X134.269 Y111.980 E3.80116
G1 X135.102 Y113.799 E3.88268
G1 X134.995 Y115.797 E3.96420
G1 X133.971 Y117.516 E4.04572
G1 X132.266 Y118.563 E4.12724
G1 X130.322 Y118.694 E4.20662
G1 X130.024 Y118.946 F7800.000
G1 X166.461 Y114.824 F7800.000
G1 X166.867 Y112.689 E4.29517 F3840.000
G1 X168.112 Y111.122 E4.37672
G1 X168.219 Y110.987 E4.38372
G1 X170.207 Y110.109 E4.47227
G1 X172.375 Y110.255 E4.56081
G1 X174.228 Y111.391 E4.64936
G1 X175.339 Y113.259 E4.73791
G1 X175.456 Y115.429 E4.82646
G1 X174.551 Y117.405 E4.91501
G1 X172.831 Y118.734 E5.00356
G1 X170.691 Y119.111 E5.09211
G1 X168.620 Y118.450 E5.18066
G1 X167.094 Y116.903 E5.26921
G1 X166.477 Y114.874 E5.35562
G1 X166.821 Y114.805 F7800.000
G1 X167.195 Y112.839 E5.43714 F3840.000
G1 X168.386 Y111.339 E5.51518
G1 X168.439 Y111.273 E5.51866
G1 X170.269 Y110.464 E5.60018
G1 X172.266 Y110.598 E5.68170
G1 X173.971 Y111.644 E5.76321
G1 X174.995 Y113.364 E5.84474
G1 X175.102 Y115.362 E5.92626
G1 X174.269 Y117.181 E6.00778
G1 X172.685 Y118.404 E6.08930
G1 X170.715 Y118.751 E6.17081
G1 X168.809 Y118.143 E6.25234
G1 X167.404 Y116.719 E6.33385
G1 X166.836 Y114.855 E6.41323
G1 X166.523 Y114.622 F7800.000
G1 X166.183 Y114.414 F7800.000
G1 X166.101 Y114.844 E6.43106 F3840.000
G1 X166.784 Y117.088 E6.52664
G1 X168.432 Y118.758 E6.62222
G1 X170.728 Y119.490 E6.72042
G1 X170.708 Y119.665 E6.72758
G1 X170.216 Y119.705 E6.74769
G1 X131.870 Y119.705 E8.31004
G1 X131.870 Y119.291 E8.32693
G1 X132.485 Y119.250 E8.35202
G1 X134.484 Y118.023 E8.44760
G1 X135.684 Y116.007 E8.54318
G1 X135.810 Y113.665 E8.63876
G1 X134.833 Y111.532 E8.73434
G1 X132.977 Y110.098 E8.82991
G1 X131.870 Y109.903 E8.87569
G1 X131.870 Y109.455 E8.89391
G1 X134.361 Y109.455 E8.99539
G1 X135.555 Y110.323 E9.05554
G1 X141.453 Y112.949 E9.31857
G1 X147.767 Y114.291 E9.58159
G1 X154.223 Y114.291 E9.84462
G1 X160.538 Y112.949 E10.10764
G1 X166.435 Y110.323 E10.37067
G1 X167.630 Y109.455 E10.43082
G1 X170.416 Y109.455 E10.54435
G1 X170.450 Y109.618 E10.55113
G1 X167.999 Y110.702 E10.66035
G1 X166.540 Y112.539 E10.75593
G1 X166.193 Y114.362 E10.83154
G1 F1800.000 E9.83154
G92 E0
G1 X126.391 Y115.843 F7800.000
G1 E2.00000 F1800.000
G1 X126.121 Y115.915 E2.01138 F3840.000
G1 X125.952 Y115.422 E2.03262
G1 X125.952 Y114.913 E2.05338
G1 X126.210 Y114.888 E2.06392
G1 X126.382 Y115.792 E2.10139
G1 X128.632 Y118.739 F7800.000
G1 X129.535 Y119.138 E2.14160 F3840.000
G1 X129.447 Y119.391 E2.15251
G1 X128.942 Y119.263 E2.17377
G1 X128.503 Y118.976 E2.19511
G1 X128.607 Y118.785 E2.20398
G1 X128.799 Y119.588 F7800.000
G1 X127.292 Y118.603 E2.27732 F3840.000
G1 X126.187 Y117.183 E2.35065
G1 X125.602 Y115.480 E2.42399
G1 X125.602 Y113.681 E2.49732
G1 X126.187 Y111.978 E2.57066
G1 X127.292 Y110.558 E2.64399
G1 X128.799 Y109.573 E2.71733
G1 X130.544 Y109.131 E2.79067
G1 X131.520 Y109.212 E2.83059
G1 X131.520 Y109.105 E2.83494
G1 X134.475 Y109.105 E2.95532
G1 X135.731 Y110.018 E3.01860
G1 X141.562 Y112.614 E3.27863
G1 X147.804 Y113.941 E3.53866
G1 X154.186 Y113.941 E3.79869
G1 X160.429 Y112.614 E4.05872
G1 X166.259 Y110.018 E4.31875
G1 X167.516 Y109.105 E4.38203
G1 X170.470 Y109.105 E4.50241
G1 X170.470 Y109.125 E4.50321
G1 X172.338 Y109.280 E4.57955
G1 X173.986 Y110.003 E4.65289
G1 X175.310 Y111.222 E4.72622
G1 X176.167 Y112.805 E4.79956
G1 X176.463 Y114.580 E4.87289
G1 X176.167 Y116.356 E4.94623
G1 X175.310 Y117.939 E5.01957
G1 X173.986 Y119.158 E5.09290
G1 X172.338 Y119.881 E5.16624
G1 X170.470 Y120.036 E5.24257
G1 X170.470 Y120.055 E5.24338
G1 X131.520 Y120.055 E6.83035
G1 X131.520 Y119.949 E6.83470
G1 X130.544 Y120.030 E6.87463
G1 X128.850 Y119.601 E6.94582
G1 X128.656 Y119.913 F7800.000
G1 X127.052 Y118.864 E7.02392 F2688.000
G1 X125.875 Y117.352 E7.10201
G1 X125.252 Y115.539 E7.18011
G1 X125.252 Y113.622 E7.25820
G1 X125.875 Y111.809 E7.33630
G1 X127.052 Y110.297 E7.41439
G1 X128.656 Y109.248 E7.49248
G1 X130.515 Y108.778 E7.57058
G1 X131.170 Y108.832 E7.59739
G1 X131.170 Y108.755 E7.60051
G1 X134.589 Y108.755 E7.73979
G1 X135.907 Y109.714 E7.80620
G1 X141.670 Y112.280 E8.06323
G1 X147.841 Y113.591 E8.32026
G1 X154.150 Y113.591 E8.57730
G1 X160.320 Y112.280 E8.83433
G1 X166.083 Y109.714 E9.09136
G1 X167.402 Y108.755 E9.15777
G1 X170.820 Y108.755 E9.29705
G1 X170.820 Y108.803 E9.29899
G1 X172.425 Y108.936 E9.36458
G1 X174.180 Y109.706 E9.44267
G1 X175.590 Y111.004 E9.52077
G1 X176.502 Y112.690 E9.59886
G1 X176.818 Y114.580 E9.67696
G1 X176.502 Y116.471 E9.75505
G1 X175.590 Y118.157 E9.83315
G1 X174.180 Y119.455 E9.91124
G1 X172.425 Y120.225 E9.98933
G1 X170.820 Y120.358 E10.05493
G1 X170.820 Y120.405 E10.05687
G1 X131.170 Y120.405 E11.67235
G1 X131.170 Y120.329 E11.67548
G1 X130.515 Y120.383 E11.70229
G1 X128.707 Y119.926 E11.77824
G1 X128.637 Y119.563 F7800.000
G1 F1800.000 E10.77824
G92 E0
G1 X163.452 Y68.720 F7800.000
G1 E2.00000 F1800.000
G1 X163.452 Y66.899 E2.07419 F3840.000
G1 X165.183 Y66.336 E2.14838
G1 X166.254 Y67.809 E2.22257
G1 X165.183 Y69.282 E2.29676
G1 X163.502 Y68.736 E2.36881
G1 X163.802 Y68.465 F7800.000
G1 X163.802 Y67.153 E2.42227 F3840.000
G1 X165.050 Y66.748 E2.47574
G1 X165.821 Y67.809 E2.52921
G1 X165.050 Y68.871 E2.58268
G1 X163.852 Y68.482 E2.63401
G1 X163.454 Y68.429 F7800.000
G1 X157.580 Y70.184 F7800.000
G1 X171.830 Y70.184 E3.21460 F3840.000
G1 X171.830 Y95.434 E4.24338
G1 X157.580 Y95.434 E4.82398
G1 X157.580 Y70.237 E5.85062
G1 X157.930 Y70.534 F7800.000
G1 X171.480 Y70.534 E6.40269 F3840.000
G1 X171.480 Y95.084 E7.40295
G1 X157.930 Y95.084 E7.95503
G1 X157.930 Y70.587 E8.95314
G1 X158.280 Y70.884 F7800.000
G1 X171.130 Y70.884 E9.47670 F2688.000
G1 X171.130 Y94.734 E10.44844
G1 X158.280 Y94.734 E10.97199
G1 X158.280 Y70.937 E11.94159
