; generated by Slic3r 1.0.0RC2 on 2014-10-07 at 05:06:50

; layer_height = 0.35
; perimeters = 3
; top_solid_layers = 3
; bottom_solid_layers = 3
; fill_density = 0.4
; perimeter_speed = 80
; infill_speed = 80
; travel_speed = 130
; nozzle_diameter = 0.35
; filament_diameter = 1.75
; extrusion_multiplier = 0.8
; perimeters extrusion width = 0.35mm
; infill extrusion width = 0.37mm
; solid infill extrusion width = 0.37mm
; top infill extrusion width = 0.37mm

G21 ; set units to millimeters
M107
M190 S50 ; wait for bed temperature to be reached
M104 S235 ; set temperature
G28 ; home all axes
G1 Z5 F5000 ; lift nozzle
M109 S235 ; wait for temperature to be reached
G90 ; use absolute coordinates
G92 E0
M82 ; use absolute distances for extrusion
G1 F1800.000 E-1.00000
G92 E0
G1 Z0.350 F7800.000
G1 X21.005 Y49.105 F7800.000
G1 E2.00000 F1800.000
G1 X68.205 Y34.305 E4.01542 F3840.000
G1 X68.575 Y34.195 E4.03115
G1 X70.485 Y33.715 E4.11139
G1 X71.155 Y33.585 E4.13920
G1 X71.845 Y33.525 E4.16742
G1 X72.615 Y33.495 E4.19881
G1 X112.805 Y33.495 E5.83630
G1 X171.025 Y35.135 E8.20934
G1 X171.645 Y35.185 E8.23468
G1 X173.115 Y35.365 E8.29502
G1 X174.075 Y35.555 E8.33490
G1 X174.985 Y35.875 E8.37420
G1 X176.795 Y36.665 E8.45466
G1 X177.775 Y37.185 E8.49986
G1 X178.645 Y37.865 E8.54485
G1 X180.105 Y39.205 E8.62560
G1 X180.865 Y40.025 E8.67115
G1 X181.465 Y40.965 E8.71659
G1 X182.405 Y42.705 E8.79716
G1 X182.855 Y43.725 E8.84259
G1 X183.125 Y44.805 E8.88794
G1 X183.445 Y46.755 E8.96846
G1 X183.535 Y47.825 E9.01221
G1 X183.685 Y122.585 E12.05821
G1 X182.045 Y154.155 E13.34622
G1 X181.965 Y154.925 E13.37776
G1 X181.635 Y156.865 E13.45794
G1 X181.355 Y157.925 E13.50261
G1 X180.915 Y158.925 E13.54712
G1 X179.975 Y160.665 E13.62770
G1 X179.375 Y161.595 E13.67279
G1 X178.635 Y162.405 E13.71750
G1 X177.185 Y163.745 E13.79794
G1 X176.295 Y164.435 E13.84382
G1 X175.315 Y164.965 E13.88922
G1 X173.505 Y165.755 E13.96968
G1 X172.615 Y166.075 E14.00821
G1 X171.685 Y166.255 E14.04681
G1 X170.215 Y166.445 E14.10720
G1 X169.355 Y166.505 E14.14232
G1 X128.955 Y166.495 E15.78837
G1 X127.895 Y166.405 E15.83171
G1 X72.795 Y158.435 E18.10005
G1 X72.095 Y158.295 E18.12914
G1 X70.185 Y157.805 E18.20948
G1 X69.145 Y157.445 E18.25432
G1 X68.175 Y156.925 E18.29916
G1 X66.525 Y155.845 E18.37951
G1 X65.675 Y155.175 E18.42361
G1 X64.935 Y154.385 E18.46771
G1 X17.745 Y94.645 E21.56952
G1 X16.955 Y93.385 E21.63011
G1 X16.475 Y91.975 E21.69080
G1 X16.305 Y90.495 E21.75150
G1 X16.305 Y55.495 E23.17753
G1 X16.455 Y54.095 E23.23489
G1 X16.895 Y52.745 E23.29274
G1 X17.605 Y51.525 E23.35026
G1 X18.555 Y50.485 E23.40765
G1 X19.705 Y49.665 E23.46519
G1 X20.956 Y49.126 E23.52073
G1 X21.105 Y49.435 F7800.000
G1 X68.305 Y34.635 E25.53615 F3840.000
G1 X70.565 Y34.055 E25.63122
G1 X71.205 Y33.925 E25.65782
G1 X71.865 Y33.875 E25.68479
G1 X72.615 Y33.845 E25.71537
G1 X112.795 Y33.845 E27.35245
G1 X171.015 Y35.485 E29.72549
G1 X171.605 Y35.535 E29.74962
G1 X173.075 Y35.715 E29.80996
G1 X173.975 Y35.885 E29.84728
G1 X174.845 Y36.195 E29.88491
G1 X176.655 Y36.985 E29.96537
G1 X177.575 Y37.485 E30.00803
G1 X178.405 Y38.125 E30.05074
G1 X179.865 Y39.465 E30.13148
G1 X180.585 Y40.245 E30.17473
G1 X181.165 Y41.125 E30.21767
G1 X182.105 Y42.865 E30.29825
G1 X182.525 Y43.835 E30.34131
G1 X182.785 Y44.855 E30.38420
G1 X183.105 Y46.805 E30.46471
G1 X183.185 Y47.825 E30.50640
G1 X183.335 Y122.565 E33.55159
G1 X181.695 Y154.135 E34.83960
G1 X181.615 Y154.865 E34.86952
G1 X181.285 Y156.805 E34.94970
G1 X181.025 Y157.815 E34.99219
G1 X180.615 Y158.765 E35.03435
G1 X179.675 Y160.505 E35.11493
G1 X179.105 Y161.375 E35.15730
G1 X178.395 Y162.145 E35.19998
G1 X176.945 Y163.485 E35.28042
G1 X176.105 Y164.145 E35.32395
G1 X175.175 Y164.645 E35.36697
G1 X173.365 Y165.435 E35.44743
G1 X172.515 Y165.735 E35.48416
G1 X171.635 Y165.915 E35.52075
G1 X170.165 Y166.105 E35.58114
G1 X169.355 Y166.155 E35.61421
G1 X128.975 Y166.145 E37.25944
G1 X128.475 Y166.115 E37.27985
G1 X127.945 Y166.055 E37.30158
G1 X72.845 Y158.085 E39.56992
G1 X72.175 Y157.955 E39.59773
G1 X70.265 Y157.465 E39.67807
G1 X69.285 Y157.125 E39.72033
G1 X68.365 Y156.625 E39.76299
G1 X66.715 Y155.545 E39.84334
G1 X65.905 Y154.925 E39.88490
G1 X65.215 Y154.175 E39.92642
G1 X18.025 Y94.435 E43.02824
G1 X17.275 Y93.235 E43.08589
G1 X16.815 Y91.895 E43.14362
G1 X16.655 Y90.495 E43.20103
G1 X16.655 Y55.495 E44.62706
G1 X16.795 Y54.165 E44.68155
G1 X17.215 Y52.895 E44.73605
G1 X17.885 Y51.735 E44.79063
G1 X18.785 Y50.745 E44.84514
G1 X19.875 Y49.965 E44.89975
G1 X21.056 Y49.456 E44.95218
G1 F1800.000 E43.95218
G92 E0
G1 X125.454 Y151.482 F7800.000
G1 E2.00000 F1800.000
G1 X126.980 Y149.935 E2.08855 F3840.000
G1 X127.183 Y149.870 E2.09723
G1 X129.051 Y149.275 E2.17710
G1 X131.191 Y149.652 E2.26565
G1 X132.911 Y150.981 E2.35420
G1 X133.816 Y152.957 E2.44275
G1 X133.699 Y155.127 E2.53130
G1 X132.588 Y156.994 E2.61985
G1 X130.735 Y158.131 E2.70839
G1 X128.567 Y158.277 E2.79695
G1 X126.579 Y157.398 E2.88549
G1 X125.227 Y155.697 E2.97404
G1 X124.821 Y153.561 E3.06259
G1 X125.438 Y151.532 E3.14900
G1 X125.764 Y151.667 F7800.000
G1 X127.169 Y150.242 E3.23052 F3840.000
G1 X127.290 Y150.204 E3.23569
G1 X129.075 Y149.634 E3.31204
G1 X131.045 Y149.982 E3.39356
G1 X132.629 Y151.205 E3.47508
G1 X133.462 Y153.024 E3.55660
G1 X133.355 Y155.022 E3.63812
G1 X132.331 Y156.741 E3.71964
G1 X130.626 Y157.788 E3.80116
G1 X128.629 Y157.922 E3.88268
G1 X126.799 Y157.113 E3.96420
G1 X125.555 Y155.546 E4.04572
G1 X125.181 Y153.581 E4.12724
G1 X125.748 Y151.717 E4.20662
G1 X125.618 Y151.348 F7800.000
G1 F1800.000 E3.20662
G92 E0
G1 X164.821 Y154.049 F7800.000
G1 E2.00000 F1800.000
G1 X165.227 Y151.914 E2.08855 F3840.000
G1 X166.472 Y150.346 E2.17011
G1 X166.579 Y150.212 E2.17710
G1 X168.567 Y149.333 E2.26565
G1 X170.735 Y149.479 E2.35420
G1 X172.588 Y150.616 E2.44274
G1 X173.699 Y152.483 E2.53129
G1 X173.816 Y154.654 E2.61984
G1 X172.911 Y156.629 E2.70840
G1 X171.191 Y157.958 E2.79694
G1 X169.051 Y158.336 E2.88549
G1 X166.980 Y157.675 E2.97404
G1 X165.454 Y156.128 E3.06259
G1 X164.836 Y154.099 E3.14900
G1 X165.181 Y154.030 F7800.000
G1 X165.555 Y152.064 E3.23052 F3840.000
G1 X166.746 Y150.564 E3.30856
G1 X166.799 Y150.497 E3.31204
G1 X168.629 Y149.688 E3.39356
G1 X170.626 Y149.823 E3.47508
G1 X172.331 Y150.869 E3.55660
G1 X173.355 Y152.588 E3.63812
G1 X173.462 Y154.586 E3.71964
G1 X172.629 Y156.405 E3.80116
G1 X171.045 Y157.629 E3.88268
G1 X169.075 Y157.976 E3.96420
G1 X167.169 Y157.368 E4.04572
G1 X165.764 Y155.944 E4.12724
G1 X165.196 Y154.080 E4.20662
G1 X164.883 Y153.847 F7800.000
G1 X164.543 Y153.638 F7800.000
G1 X164.461 Y154.068 E4.22444 F3840.000
G1 X165.144 Y156.313 E4.32002
G1 X166.792 Y157.982 E4.41560
G1 X169.088 Y158.715 E4.51381
G1 X169.068 Y158.889 E4.52096
G1 X168.576 Y158.930 E4.54107
G1 X130.230 Y158.930 E6.10343
G1 X130.230 Y158.516 E6.12031
G1 X130.845 Y158.475 E6.14541
G1 X132.844 Y157.248 E6.24098
G1 X134.044 Y155.232 E6.33656
G1 X134.170 Y152.889 E6.43214
G1 X133.193 Y150.757 E6.52772
G1 X131.337 Y149.322 E6.62330
G1 X130.230 Y149.127 E6.66908
G1 X130.230 Y148.680 E6.68729
G1 X132.721 Y148.680 E6.78878
G1 X133.915 Y149.548 E6.84892
G1 X139.813 Y152.174 E7.11195
G1 X146.127 Y153.516 E7.37498
G1 X152.583 Y153.516 E7.63801
G1 X158.898 Y152.174 E7.90103
G1 X164.795 Y149.548 E8.16406
G1 X165.990 Y148.680 E8.22420
G1 X168.776 Y148.680 E8.33773
G1 X168.810 Y148.843 E8.34452
G1 X166.359 Y149.927 E8.45374
G1 X164.900 Y151.764 E8.54932
G1 X164.553 Y153.587 E8.62493
G1 F1800.000 E7.62493
G92 E0
G1 X124.751 Y155.068 F7800.000
G1 E2.00000 F1800.000
G1 X124.481 Y155.140 E2.01138 F3840.000
G1 X124.312 Y154.647 E2.03262
G1 X124.312 Y154.137 E2.05338
G1 X124.570 Y154.113 E2.06392
G1 X124.742 Y155.017 E2.10140
G1 X126.992 Y157.964 F7800.000
G1 X127.895 Y158.363 E2.14161 F3840.000
G1 X127.807 Y158.616 E2.15251
G1 X127.301 Y158.487 E2.17378
G1 X126.863 Y158.201 E2.19512
G1 X126.967 Y158.010 E2.20399
G1 X127.159 Y158.812 F7800.000
G1 X125.652 Y157.828 E2.27732 F3840.000
G1 X124.547 Y156.408 E2.35066
G1 X123.962 Y154.705 E2.42399
G1 X123.962 Y152.905 E2.49733
G1 X124.547 Y151.203 E2.57067
G1 X125.652 Y149.782 E2.64400
G1 X127.159 Y148.798 E2.71734
G1 X128.904 Y148.356 E2.79067
G1 X129.880 Y148.437 E2.83060
G1 X129.880 Y148.330 E2.83495
G1 X132.835 Y148.330 E2.95533
G1 X134.091 Y149.243 E3.01861
G1 X139.922 Y151.839 E3.27864
G1 X146.164 Y153.166 E3.53866
G1 X152.546 Y153.166 E3.79870
G1 X158.789 Y151.839 E4.05872
G1 X164.619 Y149.243 E4.31875
G1 X165.876 Y148.330 E4.38203
G1 X168.830 Y148.330 E4.50241
G1 X168.830 Y148.350 E4.50322
G1 X170.698 Y148.505 E4.57956
G1 X172.346 Y149.228 E4.65290
G1 X173.670 Y150.447 E4.72623
G1 X174.527 Y152.030 E4.79957
G1 X174.823 Y153.805 E4.87290
G1 X174.527 Y155.581 E4.94624
G1 X173.670 Y157.164 E5.01957
G1 X172.346 Y158.383 E5.09291
G1 X170.698 Y159.106 E5.16624
G1 X168.830 Y159.260 E5.24258
G1 X168.830 Y159.280 E5.24339
G1 X129.880 Y159.280 E6.83036
G1 X129.880 Y159.173 E6.83471
G1 X128.904 Y159.254 E6.87463
G1 X127.210 Y158.825 E6.94583
G1 X127.016 Y159.137 F7800.000
G1 X125.412 Y158.089 E7.02392 F2688.000
G1 X124.235 Y156.576 E7.10202
G1 X123.612 Y154.764 E7.18011
G1 X123.612 Y152.847 E7.25821
G1 X124.235 Y151.034 E7.33630
G1 X125.412 Y149.521 E7.41440
G1 X127.016 Y148.473 E7.49249
G1 X128.874 Y148.002 E7.57059
G1 X129.530 Y148.057 E7.59740
G1 X129.530 Y147.980 E7.60052
G1 X132.949 Y147.980 E7.73979
G1 X134.267 Y148.938 E7.80621
G1 X140.030 Y151.504 E8.06324
G1 X146.201 Y152.816 E8.32027
G1 X152.510 Y152.816 E8.57731
G1 X158.680 Y151.504 E8.83433
G1 X164.443 Y148.938 E9.09136
G1 X165.762 Y147.980 E9.15778
G1 X169.180 Y147.980 E9.29705
G1 X169.180 Y148.028 E9.29899
G1 X170.785 Y148.161 E9.36459
G1 X172.540 Y148.931 E9.44268
G1 X173.950 Y150.229 E9.52077
G1 X174.862 Y151.915 E9.59887
G1 X175.178 Y153.805 E9.67696
G1 X174.862 Y155.696 E9.75506
G1 X173.950 Y157.382 E9.83315
G1 X172.540 Y158.680 E9.91125
G1 X170.785 Y159.450 E9.98934
G1 X169.180 Y159.583 E10.05493
G1 X169.180 Y159.630 E10.05688
G1 X129.530 Y159.630 E11.67236
G1 X129.530 Y159.554 E11.67548
G1 X128.874 Y159.608 E11.70230
G1 X127.067 Y159.150 E11.77825
G1 X126.997 Y158.788 F7800.000
G1 F1800.000 E10.77825
G92 E0
G1 X130.207 Y126.707 F7800.000
G1 E2.00000 F1800.000
G1 X128.219 Y125.828 E2.08855 F3840.000
G1 X126.867 Y124.126 E2.17710
G1 X126.461 Y121.991 E2.26565
G1 X127.094 Y119.912 E2.35420
G1 X127.244 Y119.760 E2.36288
G1 X128.620 Y118.365 E2.44275
G1 X130.691 Y117.704 E2.53130
G1 X132.831 Y118.082 E2.61985
G1 X134.551 Y119.411 E2.70839
G1 X135.456 Y121.386 E2.79694
G1 X135.339 Y123.557 E2.88549
G1 X134.228 Y125.424 E2.97404
G1 X132.375 Y126.561 E3.06259
G1 X130.259 Y126.703 E3.14900
G1 X130.269 Y126.352 F7800.000
G1 X128.439 Y125.543 E3.23052 F3840.000
G1 X127.195 Y123.976 E3.31204
G1 X126.821 Y122.011 E3.39356
G1 X127.404 Y120.096 E3.47508
G1 X127.493 Y120.006 E3.48025
G1 X128.809 Y118.672 E3.55660
G1 X130.715 Y118.064 E3.63812
G1 X132.685 Y118.411 E3.71964
G1 X134.269 Y119.635 E3.80116
G1 X135.102 Y121.454 E3.88268
G1 X134.995 Y123.452 E3.96420
G1 X133.971 Y125.171 E4.04572
G1 X132.266 Y126.217 E4.12724
G1 X130.322 Y126.348 E4.20662
G1 X130.024 Y126.601 F7800.000
G1 X166.461 Y122.479 F7800.000
G1 X166.867 Y120.344 E4.29517 F3840.000
G1 X168.112 Y118.776 E4.37672
G1 X168.219 Y118.642 E4.38372
G1 X170.207 Y117.763 E4.47227
G1 X172.375 Y117.909 E4.56082
G1 X174.228 Y119.046 E4.64936
G1 X175.339 Y120.913 E4.73791
G1 X175.456 Y123.083 E4.82646
G1 X174.551 Y125.059 E4.91501
G1 X172.831 Y126.388 E5.00356
G1 X170.691 Y126.765 E5.09211
G1 X168.620 Y126.105 E5.18066
G1 X167.094 Y124.558 E5.26921
G1 X166.477 Y122.529 E5.35562
G1 X166.821 Y122.459 F7800.000
G1 X167.195 Y120.494 E5.43714 F3840.000
G1 X168.386 Y118.994 E5.51518
G1 X168.439 Y118.927 E5.51866
G1 X170.269 Y118.118 E5.60018
G1 X172.266 Y118.252 E5.68170
G1 X173.971 Y119.299 E5.76322
G1 X174.995 Y121.018 E5.84474
G1 X175.102 Y123.016 E5.92626
G1 X174.269 Y124.835 E6.00778
G1 X172.685 Y126.058 E6.08930
G1 X170.715 Y126.406 E6.17082
G1 X168.809 Y125.798 E6.25234
G1 X167.404 Y124.373 E6.33385
G1 X166.836 Y122.509 E6.41324
G1 X166.523 Y122.276 F7800.000
G1 X166.101 Y122.498 F7800.000
G1 X166.784 Y124.742 E6.50881 F3840.000
G1 X168.432 Y126.412 E6.60439
G1 X170.728 Y127.145 E6.70260
G1 X170.708 Y127.319 E6.70975
G1 X170.216 Y127.360 E6.72987
G1 X131.870 Y127.360 E8.29222
G1 X131.870 Y126.946 E8.30910
G1 X132.485 Y126.904 E8.33419
G1 X134.484 Y125.677 E8.42977
G1 X135.684 Y123.662 E8.52535
G1 X135.810 Y121.319 E8.62093
G1 X134.833 Y119.186 E8.71651
G1 X132.977 Y117.752 E8.81209
G1 X131.870 Y117.557 E8.85787
G1 X131.870 Y117.110 E8.87608
G1 X134.361 Y117.110 E8.97757
G1 X135.555 Y117.978 E9.03771
G1 X141.453 Y120.603 E9.30074
G1 X147.767 Y121.946 E9.56376
G1 X154.223 Y121.946 E9.82679
G1 X160.538 Y120.603 E10.08982
G1 X166.435 Y117.978 E10.35284
G1 X167.630 Y117.110 E10.41299
G1 X170.416 Y117.110 E10.52652
G1 X170.450 Y117.273 E10.53331
G1 X167.999 Y118.357 E10.64252
G1 X166.540 Y120.193 E10.73810
G1 X166.111 Y122.446 E10.83154
G1 F1800.000 E9.83154
G92 E0
G1 X126.391 Y123.498 F7800.000
G1 E2.00000 F1800.000
G1 X126.121 Y123.569 E2.01138 F3840.000
G1 X125.952 Y123.076 E2.03262
G1 X125.952 Y122.567 E2.05338
G1 X126.210 Y122.543 E2.06392
G1 X126.382 Y123.446 E2.10139
G1 X128.632 Y126.393 F7800.000
G1 X129.535 Y126.792 E2.14160 F3840.000
G1 X129.447 Y127.045 E2.15251
G1 X128.942 Y126.917 E2.17378
G1 X128.503 Y126.631 E2.19511
G1 X128.607 Y126.439 E2.20399
G1 X128.799 Y127.242 F7800.000
G1 X127.292 Y126.258 E2.27732 F3840.000
G1 X126.187 Y124.837 E2.35066
G1 X125.602 Y123.135 E2.42399
G1 X125.602 Y121.335 E2.49733
G1 X126.187 Y119.633 E2.57066
G1 X127.292 Y118.212 E2.64400
G1 X128.799 Y117.228 E2.71733
G1 X130.544 Y116.786 E2.79067
G1 X131.520 Y116.867 E2.83059
G1 X131.520 Y116.760 E2.83495
G1 X134.475 Y116.760 E2.95532
G1 X135.731 Y117.673 E3.01861
G1 X141.562 Y120.269 E3.27864
G1 X147.804 Y121.596 E3.53866
G1 X154.186 Y121.596 E3.79869
G1 X160.429 Y120.269 E4.05872
G1 X166.259 Y117.673 E4.31875
G1 X167.516 Y116.760 E4.38203
G1 X170.470 Y116.760 E4.50241
G1 X170.470 Y116.780 E4.50322
G1 X172.338 Y116.934 E4.57956
G1 X173.986 Y117.657 E4.65289
G1 X175.310 Y118.877 E4.72623
G1 X176.167 Y120.460 E4.79956
G1 X176.463 Y122.235 E4.87290
G1 X176.167 Y124.010 E4.94623
G1 X175.310 Y125.593 E5.01957
G1 X173.986 Y126.812 E5.09290
G1 X172.338 Y127.535 E5.16624
G1 X170.470 Y127.690 E5.24258
G1 X170.470 Y127.710 E5.24339
G1 X131.520 Y127.710 E6.83035
G1 X131.520 Y127.603 E6.83471
G1 X130.544 Y127.684 E6.87463
G1 X128.850 Y127.255 E6.94583
G1 X128.656 Y127.567 F7800.000
G1 X127.052 Y126.519 E7.02392 F2688.000
G1 X125.875 Y125.006 E7.10202
G1 X125.252 Y123.193 E7.18011
G1 X125.252 Y121.277 E7.25821
G1 X125.875 Y119.464 E7.33630
G1 X127.052 Y117.951 E7.41439
G1 X128.656 Y116.903 E7.49249
G1 X130.515 Y116.432 E7.57058
G1 X131.170 Y116.487 E7.59740
G1 X131.170 Y116.410 E7.60052
G1 X134.589 Y116.410 E7.73979
G1 X135.907 Y117.368 E7.80621
G1 X141.670 Y119.934 E8.06324
G1 X147.841 Y121.246 E8.32027
G1 X154.150 Y121.246 E8.57730
G1 X160.320 Y119.934 E8.83433
G1 X166.083 Y117.368 E9.09136
G1 X167.402 Y116.410 E9.15778
G1 X170.820 Y116.410 E9.29705
G1 X170.820 Y116.458 E9.29899
G1 X172.425 Y116.590 E9.36458
G1 X174.180 Y117.360 E9.44268
G1 X175.604 Y118.672 E9.52157
G1 X176.502 Y120.344 E9.59891
G1 X176.818 Y122.235 E9.67701
G1 X176.502 Y124.125 E9.75510
G1 X175.590 Y125.811 E9.83320
G1 X174.180 Y127.109 E9.91129
G1 X172.425 Y127.879 E9.98938
G1 X170.820 Y128.012 E10.05497
G1 X170.820 Y128.060 E10.05692
G1 X131.170 Y128.060 E11.67240
G1 X131.170 Y127.983 E11.67553
G1 X130.515 Y128.038 E11.70234
G1 X128.707 Y127.580 E11.77829
G1 X128.637 Y127.218 F7800.000
G1 F1800.000 E10.77829
G92 E0
G1 X78.311 Y125.297 F7800.000
G1 E2.00000 F1800.000
G1 X78.194 Y127.467 E2.08855 F3840.000
G1 X77.082 Y129.335 E2.17710
G1 X75.230 Y130.472 E2.26565
G1 X73.062 Y130.617 E2.35420
G1 X71.074 Y129.739 E2.44275
G1 X69.722 Y128.037 E2.53130
G1 X69.316 Y125.902 E2.61985
G1 X69.948 Y123.823 E2.70839
G1 X71.475 Y122.276 E2.79694
G1 X73.545 Y121.615 E2.88549
